;FLAVOR:Marlin
;TIME:2918
;Filament used: 2.14626m
;Layer height: 0.2
;MINX:16.5
;MINY:122.5
;MINZ:0.2
;MAXX:283.5
;MAXY:177.5
;MAXZ:2
;TARGET_MACHINE.NAME:Creality Ender-3 Max
;Generated with Cura_SteamEngine 5.9.1
M140 S60
M105
M190 S60
M104 S200
M105
M109 S200
M82 ;absolute extrusion mode
; Ender 3 Max Custom Start G-code
G92 E0 ; Reset Extruder
G28 ; Home all axes
G1 Z2.0 F3000 ; Move Z Axis up little to prevent scratching of Heat Bed
G1 X0.1 Y20 Z0.3 F5000.0 ; Move to start position
G1 X0.1 Y200.0 Z0.3 F1500.0 E15 ; Draw the first line
G1 X0.4 Y200.0 Z0.3 F5000.0 ; Move to side a little
G1 X0.4 Y20 Z0.3 F1500.0 E30 ; Draw the second line
G92 E0 ; Reset Extruder
G1 Z2.0 F3000 ; Move Z Axis up little to prevent scratching of Heat Bed
G1 X5 Y20 Z0.3 F5000.0 ; Move over to prevent blob squish
G92 E0
G92 E0
G1 F1500 E-6.5
;LAYER_COUNT:10
;LAYER:0
M107
G0 F6000 X180.289 Y163.583 Z0.2
;TYPE:SKIRT
G1 F1500 E0
G1 F1200 X176.339 Y163.5 E0.13141
G1 X28.049 Y163.499 E5.06355
G1 X27.316 Y163.487 E5.08793
G1 X26.344 Y163.428 E5.12032
G1 X25.381 Y163.282 E5.15272
G1 X24.434 Y163.051 E5.18514
G1 X23.546 Y162.751 E5.21631
G1 X22.654 Y162.361 E5.24869
G1 X21.771 Y161.874 E5.28223
G1 X21.02 Y161.372 E5.31228
G1 X20.205 Y160.714 E5.34712
G1 X19.507 Y160.036 E5.37948
G1 X18.871 Y159.299 E5.41186
G1 X18.301 Y158.509 E5.44426
G1 X17.839 Y157.733 E5.4743
G1 X17.385 Y156.791 E5.50908
G1 X17.056 Y155.913 E5.54026
G1 X16.787 Y154.94 E5.57384
G1 X16.61 Y153.973 E5.60654
G1 X16.514 Y152.808 E5.64542
G1 X16.5 Y152.158 E5.66704
G1 X16.501 Y148.054 E5.80354
G1 X16.512 Y147.33 E5.82762
G1 X16.57 Y146.357 E5.86004
G1 X16.715 Y145.394 E5.89243
G1 X16.935 Y144.481 E5.92367
G1 X17.256 Y143.525 E5.95721
G1 X17.649 Y142.634 E5.9896
G1 X18.1 Y141.812 E6.02078
G1 X18.661 Y140.973 E6.05435
G1 X19.227 Y140.269 E6.0844
G1 X19.953 Y139.516 E6.11919
G1 X20.69 Y138.879 E6.15159
G1 X21.479 Y138.311 E6.18392
G1 X22.316 Y137.813 E6.21632
G1 X23.194 Y137.392 E6.2487
G1 X24.107 Y137.05 E6.28113
G1 X25.045 Y136.79 E6.3135
G1 X26.011 Y136.612 E6.34617
G1 X27.155 Y136.515 E6.38436
G1 X27.812 Y136.5 E6.40622
G1 X176.404 Y136.5 E11.34841
G1 X178.988 Y136.463 E11.43436
G1 X181.553 Y136.354 E11.51975
G1 X184.032 Y136.178 E11.60241
G1 X186.533 Y135.931 E11.686
G1 X189.041 Y135.61 E11.77009
G1 X191.524 Y135.22 E11.85369
G1 X193.964 Y134.766 E11.93624
G1 X196.459 Y134.229 E12.02112
G1 X198.905 Y133.63 E12.10488
G1 X201.327 Y132.965 E12.18842
G1 X203.718 Y132.232 E12.2716
G1 X206.12 Y131.421 E12.35592
G1 X208.491 Y130.547 E12.43997
G1 X210.776 Y129.629 E12.52187
G1 X213.147 Y128.597 E12.60787
G1 X215.433 Y127.526 E12.69184
G1 X217.635 Y126.417 E12.77384
G1 X219.878 Y125.205 E12.85864
G1 X222.011 Y123.977 E12.9405
G1 X222.91 Y123.515 E12.97412
G1 X223.812 Y123.148 E13.00651
G1 X224.743 Y122.863 E13.03889
G1 X225.693 Y122.661 E13.07119
G1 X226.59 Y122.549 E13.10126
G1 X227.14 Y122.517 E13.11958
G1 X227.81 Y122.5 E13.14187
G1 X271.804 Y122.5 E14.60512
G1 X272.684 Y122.513 E14.63439
G1 X273.656 Y122.572 E14.66678
G1 X274.619 Y122.718 E14.69918
G1 X275.566 Y122.949 E14.7316
G1 X276.454 Y123.249 E14.76277
G1 X277.346 Y123.639 E14.79515
G1 X278.229 Y124.126 E14.82869
G1 X278.98 Y124.628 E14.85874
G1 X279.795 Y125.286 E14.89358
G1 X280.493 Y125.964 E14.92594
G1 X281.129 Y126.701 E14.95832
G1 X281.699 Y127.491 E14.99072
G1 X282.161 Y128.267 E15.02076
G1 X282.615 Y129.209 E15.05554
G1 X282.944 Y130.087 E15.08672
G1 X283.213 Y131.059 E15.12027
G1 X283.39 Y132.025 E15.15293
G1 X283.485 Y133.155 E15.19065
G1 X283.5 Y133.83 E15.2131
G1 X283.499 Y165.9 E16.27976
G1 X283.488 Y166.663 E16.30514
G1 X283.431 Y167.636 E16.33755
G1 X283.286 Y168.599 E16.36994
G1 X283.057 Y169.545 E16.40232
G1 X282.746 Y170.469 E16.43474
G1 X282.354 Y171.36 E16.46712
G1 X281.886 Y172.212 E16.49945
G1 X281.364 Y172.993 E16.5307
G1 X280.731 Y173.778 E16.56424
G1 X280.106 Y174.429 E16.59425
G1 X279.317 Y175.117 E16.62907
G1 X278.557 Y175.667 E16.66027
G1 X277.69 Y176.184 E16.69385
G1 X276.812 Y176.606 E16.72625
G1 X275.901 Y176.948 E16.75861
G1 X274.962 Y177.209 E16.79103
G1 X273.996 Y177.387 E16.8237
G1 X272.845 Y177.485 E16.86212
G1 X272.17 Y177.5 E16.88457
G1 X228.049 Y177.499 E18.35204
G1 X227.331 Y177.488 E18.37593
G1 X226.343 Y177.428 E18.40885
G1 X225.379 Y177.282 E18.44128
G1 X224.432 Y177.051 E18.4737
G1 X223.576 Y176.763 E18.50374
G1 X222.629 Y176.349 E18.53811
G1 X222.027 Y176.028 E18.5608
G1 X221.005 Y175.441 E18.6
G1 X218.745 Y174.18 E18.68608
G1 X216.466 Y172.992 E18.77156
G1 X214.27 Y171.925 E18.85277
G1 X211.941 Y170.873 E18.93776
G1 X209.595 Y169.893 E19.02233
G1 X207.227 Y168.982 E19.10671
G1 X204.935 Y168.174 E19.18755
G1 X202.486 Y167.388 E19.27309
G1 X200.08 Y166.688 E19.35643
G1 X197.653 Y166.058 E19.43983
G1 X195.172 Y165.487 E19.52451
G1 X192.709 Y164.993 E19.60806
G1 X190.237 Y164.571 E19.69147
G1 X187.753 Y164.218 E19.77491
G1 X185.267 Y163.937 E19.85813
G1 X182.741 Y163.72 E19.94245
G1 X180.289 Y163.583 E20.02413
G0 F6000 X180.297 Y163.183
G1 F1200 X176.347 Y163.1 E20.15554
G1 X28.055 Y163.099 E25.08775
G1 X27.34 Y163.088 E25.11153
G1 X26.403 Y163.032 E25.14275
G1 X25.475 Y162.893 E25.17396
G1 X24.562 Y162.672 E25.20521
G1 X23.706 Y162.384 E25.23525
G1 X22.814 Y161.994 E25.26763
G1 X21.993 Y161.541 E25.29881
G1 X21.242 Y161.039 E25.32886
G1 X20.483 Y160.427 E25.36129
G1 X19.809 Y159.774 E25.3925
G1 X19.195 Y159.065 E25.42369
G1 X18.645 Y158.304 E25.45492
G1 X18.183 Y157.528 E25.48496
G1 X17.76 Y156.651 E25.51735
G1 X17.431 Y155.773 E25.54853
G1 X17.18 Y154.868 E25.57977
G1 X17.009 Y153.94 E25.61115
G1 X16.913 Y152.775 E25.65003
G1 X16.9 Y152.158 E25.67056
G1 X16.901 Y148.06 E25.80686
G1 X16.911 Y147.353 E25.83038
G1 X16.966 Y146.416 E25.8616
G1 X17.104 Y145.488 E25.8928
G1 X17.324 Y144.575 E25.92404
G1 X17.622 Y143.686 E25.95522
G1 X18 Y142.826 E25.98647
G1 X18.451 Y142.004 E26.01765
G1 X18.973 Y141.224 E26.04887
G1 X19.539 Y140.52 E26.07891
G1 X20.215 Y139.818 E26.11133
G1 X20.924 Y139.203 E26.14254
G1 X21.684 Y138.654 E26.17372
G1 X22.49 Y138.173 E26.20494
G1 X23.335 Y137.766 E26.23614
G1 X24.214 Y137.435 E26.26738
G1 X25.118 Y137.183 E26.29859
G1 X26.045 Y137.011 E26.32995
G1 X27.189 Y136.914 E26.36814
G1 X27.821 Y136.9 E26.38916
G1 X176.41 Y136.9 E31.33125
G1 X179.005 Y136.863 E31.41757
G1 X181.57 Y136.754 E31.50296
G1 X184.063 Y136.577 E31.58609
G1 X186.584 Y136.328 E31.67034
G1 X189.092 Y136.007 E31.75444
G1 X191.586 Y135.615 E31.83841
G1 X194.05 Y135.157 E31.92177
G1 X196.554 Y134.618 E32.00696
G1 X199 Y134.019 E32.09072
G1 X201.433 Y133.35 E32.17464
G1 X203.846 Y132.611 E32.25858
G1 X206.248 Y131.8 E32.3429
G1 X208.64 Y130.918 E32.42769
G1 X210.936 Y129.996 E32.50998
G1 X213.307 Y128.964 E32.59599
G1 X215.603 Y127.888 E32.68033
G1 X217.825 Y126.769 E32.76307
G1 X220.078 Y125.552 E32.84824
G1 X222.211 Y124.324 E32.9301
G1 X223.061 Y123.885 E32.96192
G1 X223.93 Y123.53 E32.99314
G1 X224.827 Y123.254 E33.02436
G1 X225.743 Y123.058 E33.05551
G1 X226.64 Y122.946 E33.08558
G1 X227.15 Y122.917 E33.10257
G1 X227.82 Y122.9 E33.12486
G1 X271.798 Y122.9 E34.58758
G1 X272.66 Y122.912 E34.61625
G1 X273.597 Y122.968 E34.64747
G1 X274.525 Y123.107 E34.67868
G1 X275.438 Y123.328 E34.70992
G1 X276.294 Y123.616 E34.73996
G1 X277.186 Y124.006 E34.77234
G1 X278.007 Y124.459 E34.80353
G1 X278.758 Y124.961 E34.83357
G1 X279.517 Y125.573 E34.866
G1 X280.191 Y126.226 E34.89721
G1 X280.805 Y126.935 E34.92841
G1 X281.355 Y127.696 E34.95964
G1 X281.817 Y128.472 E34.98968
G1 X282.24 Y129.349 E35.02206
G1 X282.569 Y130.227 E35.05325
G1 X282.82 Y131.132 E35.08448
G1 X282.991 Y132.059 E35.11584
G1 X283.086 Y133.189 E35.15355
G1 X283.1 Y133.83 E35.17488
G1 X283.099 Y165.895 E36.24136
G1 X283.089 Y166.64 E36.26614
G1 X283.035 Y167.577 E36.29736
G1 X282.897 Y168.506 E36.3286
G1 X282.678 Y169.418 E36.35979
G1 X282.38 Y170.308 E36.39101
G1 X282.003 Y171.168 E36.42224
G1 X281.553 Y171.99 E36.45341
G1 X281.031 Y172.771 E36.48466
G1 X280.442 Y173.501 E36.51585
G1 X279.817 Y174.152 E36.54587
G1 X279.082 Y174.793 E36.57831
G1 X278.322 Y175.343 E36.60951
G1 X277.516 Y175.824 E36.64073
G1 X276.671 Y176.232 E36.67194
G1 X275.793 Y176.563 E36.70314
G1 X274.889 Y176.816 E36.73437
G1 X273.962 Y176.988 E36.76573
G1 X272.811 Y177.086 E36.80415
G1 X272.17 Y177.1 E36.82547
G1 X228.055 Y177.099 E38.29274
G1 X227.355 Y177.089 E38.31603
G1 X226.402 Y177.032 E38.34778
G1 X225.473 Y176.893 E38.37902
G1 X224.56 Y176.672 E38.41027
G1 X223.704 Y176.384 E38.44031
G1 X222.817 Y175.996 E38.47251
G1 X222.226 Y175.681 E38.49478
G1 X221.204 Y175.094 E38.53398
G1 X218.93 Y173.825 E38.62059
G1 X216.651 Y172.637 E38.70607
G1 X214.435 Y171.56 E38.78802
G1 X212.106 Y170.509 E38.87301
G1 X209.749 Y169.524 E38.95797
G1 X207.371 Y168.609 E39.04272
G1 X205.057 Y167.793 E39.12433
G1 X202.608 Y167.007 E39.20987
G1 X200.187 Y166.303 E39.29373
G1 X197.743 Y165.668 E39.37772
G1 X195.262 Y165.097 E39.46239
G1 X192.788 Y164.601 E39.54632
G1 X190.293 Y164.175 E39.6305
G1 X187.809 Y163.822 E39.71395
G1 X185.301 Y163.538 E39.7979
G1 X182.775 Y163.322 E39.88222
G1 X180.297 Y163.183 E39.96477
G0 F6000 X180.305 Y162.783
G1 F1200 X176.355 Y162.7 E40.09618
G1 X28.061 Y162.699 E45.02845
G1 X27.363 Y162.689 E45.05167
G1 X26.461 Y162.636 E45.08172
G1 X25.568 Y162.504 E45.11175
G1 X24.69 Y162.293 E45.14178
G1 X23.834 Y162.005 E45.17182
G1 X23.007 Y161.643 E45.20185
G1 X22.215 Y161.208 E45.2319
G1 X21.464 Y160.706 E45.26195
G1 X20.761 Y160.139 E45.29198
G1 X20.111 Y159.512 E45.32202
G1 X19.519 Y158.83 E45.35206
G1 X18.989 Y158.099 E45.38209
G1 X18.527 Y157.323 E45.41213
G1 X18.134 Y156.51 E45.44216
G1 X17.816 Y155.665 E45.47219
G1 X17.573 Y154.795 E45.50224
G1 X17.408 Y153.907 E45.53228
G1 X17.313 Y152.766 E45.57036
G1 X17.3 Y152.158 E45.59058
G1 X17.301 Y148.065 E45.72672
G1 X17.31 Y147.376 E45.74964
G1 X17.362 Y146.474 E45.77969
G1 X17.493 Y145.581 E45.80971
G1 X17.703 Y144.702 E45.83976
G1 X17.989 Y143.846 E45.86978
G1 X18.351 Y143.018 E45.89984
G1 X18.784 Y142.226 E45.92986
G1 X19.285 Y141.475 E45.95989
G1 X19.851 Y140.771 E45.98993
G1 X20.477 Y140.12 E46.01997
G1 X21.159 Y139.527 E46.05003
G1 X21.89 Y138.997 E46.08006
G1 X22.664 Y138.533 E46.11007
G1 X23.477 Y138.14 E46.14011
G1 X24.322 Y137.82 E46.17016
G1 X25.192 Y137.576 E46.20021
G1 X26.079 Y137.41 E46.23023
G1 X27.223 Y137.313 E46.26841
G1 X27.83 Y137.3 E46.28861
G1 X176.416 Y137.3 E51.2306
G1 X179.022 Y137.263 E51.31728
G1 X181.587 Y137.154 E51.40267
G1 X184.094 Y136.976 E51.48626
G1 X186.635 Y136.725 E51.57119
G1 X189.143 Y136.404 E51.65529
G1 X191.648 Y136.01 E51.73963
G1 X194.135 Y135.548 E51.82376
G1 X196.649 Y135.007 E51.90929
G1 X199.095 Y134.408 E51.99305
G1 X201.539 Y133.735 E52.07736
G1 X203.974 Y132.99 E52.16206
G1 X206.376 Y132.179 E52.24638
G1 X208.789 Y131.289 E52.33192
G1 X211.096 Y130.363 E52.4146
G1 X213.467 Y129.331 E52.50061
G1 X215.773 Y128.25 E52.58531
G1 X218.015 Y127.121 E52.66881
G1 X220.278 Y125.899 E52.75435
G1 X222.411 Y124.671 E52.83621
G1 X223.213 Y124.255 E52.86626
G1 X224.048 Y123.912 E52.89628
G1 X224.911 Y123.645 E52.92633
G1 X225.793 Y123.455 E52.95633
G1 X226.69 Y123.343 E52.9864
G1 X227.16 Y123.317 E53.00206
G1 X227.83 Y123.3 E53.02435
G1 X271.793 Y123.3 E54.48656
G1 X272.637 Y123.311 E54.51464
G1 X273.539 Y123.364 E54.54469
G1 X274.432 Y123.496 E54.57471
G1 X275.31 Y123.707 E54.60475
G1 X276.166 Y123.995 E54.63479
G1 X276.993 Y124.357 E54.66481
G1 X277.785 Y124.792 E54.69487
G1 X278.536 Y125.294 E54.72491
G1 X279.239 Y125.861 E54.75495
G1 X279.889 Y126.488 E54.78499
G1 X280.481 Y127.17 E54.81503
G1 X281.011 Y127.901 E54.84506
G1 X281.473 Y128.677 E54.87509
G1 X281.866 Y129.49 E54.90513
G1 X282.184 Y130.335 E54.93516
G1 X282.427 Y131.205 E54.9652
G1 X282.592 Y132.093 E54.99524
G1 X282.687 Y133.223 E55.03296
G1 X282.7 Y133.83 E55.05315
G1 X282.699 Y165.89 E56.11947
G1 X282.69 Y166.617 E56.14365
G1 X282.639 Y167.519 E56.1737
G1 X282.508 Y168.413 E56.20375
G1 X282.299 Y169.291 E56.23377
G1 X282.013 Y170.148 E56.26382
G1 X281.652 Y170.976 E56.29387
G1 X281.22 Y171.768 E56.32387
G1 X280.719 Y172.52 E56.35393
G1 X280.153 Y173.224 E56.38397
G1 X279.528 Y173.875 E56.41399
G1 X278.847 Y174.469 E56.44404
G1 X278.116 Y175 E56.47409
G1 X277.342 Y175.464 E56.50411
G1 X276.529 Y175.858 E56.53416
G1 X275.685 Y176.178 E56.56418
G1 X274.815 Y176.423 E56.59424
G1 X273.928 Y176.589 E56.62425
G1 X272.777 Y176.687 E56.66267
G1 X272.17 Y176.7 E56.68287
G1 X228.061 Y176.699 E58.14994
G1 X227.361 Y176.689 E58.17322
G1 X226.46 Y176.636 E58.20324
G1 X225.566 Y176.504 E58.2333
G1 X224.688 Y176.293 E58.26333
G1 X223.832 Y176.005 E58.29337
G1 X223.005 Y175.643 E58.3234
G1 X222.425 Y175.334 E58.34525
G1 X221.403 Y174.747 E58.38445
G1 X219.115 Y173.47 E58.4716
G1 X216.836 Y172.282 E58.55708
G1 X214.6 Y171.195 E58.63978
G1 X212.271 Y170.144 E58.72476
G1 X209.903 Y169.155 E58.81011
G1 X207.515 Y168.236 E58.89522
G1 X205.179 Y167.412 E58.97761
G1 X202.73 Y166.626 E59.06315
G1 X200.294 Y165.918 E59.14753
G1 X197.833 Y165.278 E59.2321
G1 X195.352 Y164.707 E59.31678
G1 X192.867 Y164.209 E59.40107
G1 X190.349 Y163.779 E59.48603
G1 X187.865 Y163.426 E59.56948
G1 X185.335 Y163.139 E59.65417
G1 X182.809 Y162.924 E59.73849
G1 X180.305 Y162.783 E59.8219
G1 F1500 E53.3219
;MESH:antennaMount.stl
G0 F6000 X226.835 Y162.783
G0 X227.93 Y162.783
G0 X230.1 Y163.9
;TYPE:WALL-INNER
G1 F1500 E59.8219
G1 F1200 X239.994 Y163.9 E60.15098
G1 X240.025 Y163.699 E60.15774
G1 X240.259 Y163.18 E60.17668
G1 X240.495 Y162.843 E60.19036
G1 X240.705 Y162.618 E60.2006
G1 X241.061 Y162.334 E60.21575
G1 X241.416 Y162.136 E60.22927
G1 X241.763 Y162.006 E60.24159
G1 X242.053 Y161.938 E60.2515
G1 X242.437 Y161.9 E60.26433
G1 X257.589 Y161.901 E60.76829
G1 X257.892 Y161.929 E60.77841
G1 X258.222 Y162.002 E60.78965
G1 X258.574 Y162.131 E60.80212
G1 X258.936 Y162.331 E60.81588
G1 X259.295 Y162.618 E60.83116
G1 X259.505 Y162.843 E60.8414
G1 X259.741 Y163.181 E60.85511
G1 X259.975 Y163.699 E60.87402
G1 X260.006 Y163.9 E60.88078
G1 X269.9 Y163.9 E61.20986
G1 X269.9 Y136.1 E62.13449
G1 X260.006 Y136.1 E62.46356
G1 X259.975 Y136.301 E62.47033
G1 X259.741 Y136.82 E62.48926
G1 X259.505 Y137.157 E62.50295
G1 X259.295 Y137.382 E62.51318
G1 X258.936 Y137.669 E62.52847
G1 X258.492 Y137.914 E62.54534
G1 X258.054 Y138.041 E62.56051
G1 X257.679 Y138.099 E62.57313
G1 X242.437 Y138.1 E63.08008
G1 X242.053 Y138.062 E63.09291
G1 X241.763 Y137.994 E63.10282
G1 X241.416 Y137.864 E63.11514
G1 X241.061 Y137.666 E63.12866
G1 X240.705 Y137.382 E63.14381
G1 X240.495 Y137.157 E63.15405
G1 X240.259 Y136.819 E63.16776
G1 X240.025 Y136.301 E63.18666
G1 X239.994 Y136.1 E63.19343
G1 X230.1 Y136.1 E63.5225
G1 X230.097 Y147.745 E63.90982
G1 X230.028 Y148.112 E63.92224
G1 X229.92 Y148.452 E63.9341
G1 X229.761 Y148.8 E63.94683
G1 X229.544 Y149.108 E63.95936
G1 X229.295 Y149.382 E63.97167
G1 X228.895 Y149.695 E63.98857
G1 X228.289 Y149.979 E64.01083
G1 X228.147 Y150 E64.0156
G1 X228.289 Y150.021 E64.02038
G1 X228.895 Y150.305 E64.04263
G1 X229.295 Y150.618 E64.05953
G1 X229.544 Y150.892 E64.07184
G1 X229.761 Y151.2 E64.08437
G1 X229.92 Y151.548 E64.0971
G1 X230.016 Y151.84 E64.10732
G1 X230.1 Y152.319 E64.1235
G1 X230.1 Y163.9 E64.50868
G1 F1500 E58.00868
G0 F6000 X228.338 Y151.662
G0 X150 Y150.25
G1 F1500 E64.50868
G1 F960 X227.5 Y150.25 E67.73076
G1 F1066.7 X228.167 Y150.403 E67.75636
G1 F1200 X228.681 Y150.643 E67.77523
G1 X229.019 Y150.907 E67.7895
G1 X229.23 Y151.139 E67.79993
G1 X229.513 Y151.577 E67.81727
G1 X229.654 Y152.048 E67.83362
G1 X229.698 Y152.392 E67.84516
G1 X229.7 Y164.3 E68.24122
G1 X240.331 Y164.3 E68.59481
G1 X240.406 Y163.822 E68.6109
G1 X240.603 Y163.383 E68.6269
G1 X240.804 Y163.098 E68.6385
G1 X240.981 Y162.907 E68.64717
G1 X241.282 Y162.667 E68.65997
G1 X241.648 Y162.463 E68.67391
G1 X242.017 Y162.353 E68.68671
G1 X242.446 Y162.3 E68.70109
G1 X257.575 Y162.301 E69.20428
G1 X257.832 Y162.324 E69.21286
G1 X258.111 Y162.386 E69.22237
G1 X258.409 Y162.496 E69.23294
G1 X258.715 Y162.665 E69.24456
G1 X259.019 Y162.907 E69.25749
G1 X259.197 Y163.098 E69.26617
G1 X259.396 Y163.384 E69.27776
G1 X259.594 Y163.823 E69.29378
