;FLAVOR:Marlin
;TIME:9857
;Filament used: 6.87381m
;Layer height: 0.2
;MINX:102.5
;MINY:83.5
;MINZ:0.2
;MAXX:197.5
;MAXY:216.5
;MAXZ:27
;TARGET_MACHINE.NAME:Creality Ender-3 Max
;Generated with Cura_SteamEngine 5.9.1
M140 S60
M105
M190 S60
M104 S200
M105
M109 S200
M82 ;absolute extrusion mode
; Ender 3 Max Custom Start G-code
G92 E0 ; Reset Extruder
G28 ; Home all axes
G1 Z2.0 F3000 ; Move Z Axis up little to prevent scratching of Heat Bed
G1 X0.1 Y20 Z0.3 F5000.0 ; Move to start position
G1 X0.1 Y200.0 Z0.3 F1500.0 E15 ; Draw the first line
G1 X0.4 Y200.0 Z0.3 F5000.0 ; Move to side a little
G1 X0.4 Y20 Z0.3 F1500.0 E30 ; Draw the second line
G92 E0 ; Reset Extruder
G1 Z2.0 F3000 ; Move Z Axis up little to prevent scratching of Heat Bed
G1 X5 Y20 Z0.3 F5000.0 ; Move over to prevent blob squish
G92 E0
G92 E0
G1 F1500 E-6.5
;LAYER_COUNT:135
;LAYER:0
M107
G0 F6000 X164.807 Y216.336 Z0.2
;TYPE:SKIRT
G1 F1500 E0
G1 F1200 X163.783 Y216.458 E0.0343
G1 X163.18 Y216.485 E0.05438
G1 X162.334 Y216.498 E0.08252
G1 X137.697 Y216.5 E0.90195
G1 X136.864 Y216.488 E0.92966
G1 X135.893 Y216.43 E0.96201
G1 X134.97 Y216.293 E0.99304
G1 X134.377 Y216.161 E1.01325
G1 X133.839 Y216.025 E1.03171
G1 X133.307 Y215.877 E1.05007
G1 X132.608 Y215.662 E1.0744
G1 X131.323 Y215.173 E1.12013
G1 X130.361 Y214.733 E1.15531
G1 X129.221 Y214.125 E1.19828
G1 X128.346 Y213.585 E1.23248
G1 X127.23 Y212.794 E1.27798
G1 X126.455 Y212.165 E1.31118
G1 X125.856 Y211.639 E1.33769
G1 X125.593 Y211.392 E1.34969
G1 X125.154 Y210.951 E1.37039
G1 X124.819 Y210.595 E1.38664
G1 X124.284 Y209.982 E1.41371
G1 X123.668 Y209.219 E1.44632
G1 X122.892 Y208.12 E1.49107
G1 X122.386 Y207.299 E1.52314
G1 X121.75 Y206.105 E1.56814
G1 X121.332 Y205.183 E1.60181
G1 X120.879 Y204.003 E1.64385
G1 X120.649 Y203.28 E1.66908
G1 X120.506 Y202.792 E1.686
G1 X120.363 Y202.249 E1.70467
G1 X120.16 Y201.314 E1.7365
G1 X120.09 Y200.842 E1.75237
G1 X119.831 Y198.796 E1.82096
G1 X119.446 Y196.276 E1.90575
G1 X118.998 Y193.809 E1.98914
G1 X118.481 Y191.356 E2.07252
G1 X117.889 Y188.895 E2.15671
G1 X117.236 Y186.491 E2.23957
G1 X116.506 Y184.071 E2.32364
G1 X115.705 Y181.666 E2.40795
G1 X114.846 Y179.306 E2.49148
G1 X113.915 Y176.958 E2.57549
G1 X112.925 Y174.66 E2.65871
G1 X111.862 Y172.366 E2.7428
G1 X110.741 Y170.121 E2.82626
G1 X109.549 Y167.891 E2.91037
G1 X108.307 Y165.718 E2.99361
G1 X107.002 Y163.578 E3.07698
G1 X104.876 Y160.352 E3.20548
G1 X104.442 Y159.724 E3.23087
G1 X103.962 Y158.959 E3.26091
G1 X103.487 Y158.028 E3.29567
G1 X103.125 Y157.123 E3.32809
G1 X102.845 Y156.191 E3.36046
G1 X102.66 Y155.307 E3.3905
G1 X102.538 Y154.282 E3.42483
G1 X102.511 Y153.671 E3.44517
G1 X102.501 Y153.029 E3.46653
G1 X102.5 Y147.196 E3.66053
G1 X102.513 Y146.311 E3.68997
G1 X102.572 Y145.34 E3.72233
G1 X102.718 Y144.376 E3.75475
G1 X102.949 Y143.429 E3.78718
G1 X103.25 Y142.54 E3.81839
G1 X103.643 Y141.643 E3.85096
G1 X104.301 Y140.488 E3.89518
G1 X104.684 Y139.904 E3.91841
G1 X105.571 Y138.591 E3.97111
G1 X106.922 Y136.461 E4.055
G1 X108.205 Y134.309 E4.13833
G1 X109.433 Y132.109 E4.22213
G1 X110.613 Y129.845 E4.30705
G1 X111.703 Y127.603 E4.38996
G1 X112.747 Y125.291 E4.47433
G1 X113.711 Y122.984 E4.55749
G1 X114.626 Y120.61 E4.64212
G1 X115.459 Y118.246 E4.72548
G1 X116.223 Y115.865 E4.80865
G1 X116.926 Y113.448 E4.89237
G1 X117.56 Y111.006 E4.97629
G1 X118.131 Y108.525 E5.06096
G1 X118.622 Y106.078 E5.14397
G1 X119.041 Y103.622 E5.22684
G1 X119.399 Y101.113 E5.31113
G1 X119.681 Y98.619 E5.39461
G1 X119.899 Y96.087 E5.47914
G1 X120.032 Y93.823 E5.55457
G1 X120.135 Y92.855 E5.58695
G1 X120.307 Y91.969 E5.61697
G1 X120.598 Y90.964 E5.65177
G1 X120.952 Y90.056 E5.68418
G1 X121.386 Y89.185 E5.71655
G1 X121.894 Y88.355 E5.74891
G1 X122.473 Y87.572 E5.7813
G1 X123.096 Y86.869 E5.81254
G1 X123.83 Y86.177 E5.8461
G1 X124.595 Y85.574 E5.87849
G1 X125.41 Y85.042 E5.91087
G1 X126.238 Y84.598 E5.94211
G1 X127.167 Y84.204 E5.97568
G1 X128.094 Y83.903 E6.00809
G1 X129.044 Y83.687 E6.0405
G1 X129.997 Y83.557 E6.07249
G1 X130.705 Y83.513 E6.09608
G1 X131.312 Y83.5 E6.11627
G1 X168.304 Y83.5 E7.34663
G1 X169.184 Y83.513 E7.37591
G1 X170.156 Y83.572 E7.40829
G1 X171.119 Y83.718 E7.44069
G1 X172.066 Y83.949 E7.47311
G1 X172.954 Y84.249 E7.50429
G1 X173.846 Y84.639 E7.53667
G1 X174.729 Y85.126 E7.5702
G1 X175.48 Y85.628 E7.60025
G1 X176.295 Y86.286 E7.63509
G1 X176.993 Y86.964 E7.66745
G1 X177.629 Y87.701 E7.69983
G1 X178.199 Y88.491 E7.73223
G1 X178.661 Y89.267 E7.76227
G1 X179.115 Y90.209 E7.79705
G1 X179.444 Y91.087 E7.82824
G1 X179.713 Y92.059 E7.86178
G1 X179.888 Y93.015 E7.8941
G1 X179.972 Y93.874 E7.92281
G1 X180.031 Y94.88 E7.95633
G1 X180.218 Y97.482 E8.04309
G1 X180.471 Y99.998 E8.1272
G1 X180.792 Y102.486 E8.21064
G1 X181.186 Y104.983 E8.29471
G1 X181.645 Y107.437 E8.37775
G1 X182.177 Y109.896 E8.46143
G1 X182.78 Y112.337 E8.54506
G1 X183.462 Y114.807 E8.63028
G1 X184.19 Y117.174 E8.71265
G1 X184.993 Y119.547 E8.79597
G1 X185.882 Y121.946 E8.88107
G1 X186.809 Y124.246 E8.96354
G1 X187.826 Y126.577 E9.04813
G1 X188.894 Y128.852 E9.13172
G1 X190.03 Y131.099 E9.21546
G1 X191.231 Y133.32 E9.29944
G1 X192.48 Y135.479 E9.3824
G1 X193.799 Y137.614 E9.46587
G1 X195.665 Y140.434 E9.57834
G1 X196.182 Y141.302 E9.61194
G1 X196.604 Y142.18 E9.64434
G1 X196.947 Y143.091 E9.67672
G1 X197.208 Y144.03 E9.70914
G1 X197.387 Y145.002 E9.74201
G1 X197.488 Y146.297 E9.78521
G1 X197.5 Y147.133 E9.81302
G1 X197.499 Y152.965 E10.00699
G1 X197.486 Y153.705 E10.03161
G1 X197.425 Y154.678 E10.06403
G1 X197.278 Y155.641 E10.09643
G1 X197.046 Y156.587 E10.12883
G1 X196.744 Y157.475 E10.16003
G1 X196.336 Y158.398 E10.19359
G1 X195.888 Y159.212 E10.2245
G1 X195.595 Y159.668 E10.24252
G1 X193.891 Y162.183 E10.34356
G1 X192.543 Y164.306 E10.42721
G1 X191.246 Y166.483 E10.51149
G1 X190.028 Y168.664 E10.59458
G1 X188.856 Y170.911 E10.67887
G1 X187.752 Y173.183 E10.76288
G1 X186.724 Y175.455 E10.84582
G1 X185.736 Y177.824 E10.9312
G1 X184.849 Y180.126 E11.01325
G1 X184 Y182.528 E11.09798
G1 X183.235 Y184.912 E11.18126
G1 X182.531 Y187.336 E11.26521
G1 X181.902 Y189.752 E11.34825
G1 X181.331 Y192.238 E11.43308
G1 X180.837 Y194.7 E11.5166
G1 X180.415 Y197.163 E11.59972
G1 X180.055 Y199.696 E11.68481
G1 X179.902 Y200.889 E11.72481
G1 X179.661 Y202.149 E11.76748
G1 X179.469 Y202.899 E11.79323
G1 X179.209 Y203.757 E11.82305
G1 X178.962 Y204.462 E11.8479
G1 X178.637 Y205.275 E11.87702
G1 X178.368 Y205.879 E11.89901
G1 X177.939 Y206.732 E11.93077
G1 X177.608 Y207.324 E11.95332
G1 X177.14 Y208.085 E11.98304
G1 X176.673 Y208.777 E12.0108
G1 X176.184 Y209.442 E12.03826
G1 X175.656 Y210.088 E12.06601
G1 X175.157 Y210.646 E12.09091
G1 X174.561 Y211.261 E12.11939
G1 X174.028 Y211.768 E12.14386
G1 X173.329 Y212.372 E12.17458
G1 X172.942 Y212.681 E12.19106
G1 X172.242 Y213.197 E12.21998
G1 X171.562 Y213.655 E12.24725
G1 X170.792 Y214.127 E12.27729
G1 X170.195 Y214.46 E12.30002
G1 X169.351 Y214.881 E12.33139
G1 X168.745 Y215.151 E12.35346
G1 X167.93 Y215.474 E12.38262
G1 X167.241 Y215.714 E12.40688
G1 X166.403 Y215.968 E12.43601
G1 X165.691 Y216.151 E12.46046
G1 X164.807 Y216.336 E12.4905
G0 F6000 X164.725 Y215.944
G1 F1200 X163.765 Y216.058 E12.52265
G1 X163.173 Y216.085 E12.54236
G1 X162.331 Y216.099 E12.57037
G1 X137.702 Y216.1 E13.38953
G1 X136.887 Y216.089 E13.41664
G1 X135.951 Y216.034 E13.44783
G1 X135.057 Y215.902 E13.47789
G1 X134.475 Y215.773 E13.49771
G1 X133.946 Y215.64 E13.51586
G1 X133.424 Y215.495 E13.53388
G1 X132.75 Y215.288 E13.55733
G1 X131.489 Y214.809 E13.60219
G1 X130.549 Y214.38 E13.63656
G1 X129.409 Y213.772 E13.67953
G1 X128.577 Y213.259 E13.71204
G1 X127.482 Y212.483 E13.75668
G1 X126.719 Y211.864 E13.78936
G1 X126.13 Y211.348 E13.8154
G1 X125.876 Y211.109 E13.827
G1 X125.445 Y210.677 E13.8473
G1 X125.12 Y210.332 E13.86306
G1 X124.595 Y209.731 E13.8896
G1 X123.995 Y208.988 E13.92137
G1 X123.233 Y207.91 E13.96527
G1 X122.727 Y207.089 E13.99735
G1 X122.103 Y205.917 E14.04151
G1 X121.705 Y205.04 E14.07354
G1 X121.26 Y203.882 E14.11481
G1 X121.033 Y203.168 E14.13973
G1 X120.893 Y202.69 E14.15629
G1 X120.754 Y202.164 E14.17439
G1 X120.556 Y201.255 E14.20533
G1 X120.487 Y200.792 E14.2209
G1 X120.228 Y198.746 E14.28949
G1 X119.84 Y196.205 E14.37499
G1 X119.392 Y193.738 E14.45838
G1 X118.872 Y191.273 E14.54217
G1 X118.278 Y188.802 E14.6267
G1 X117.622 Y186.386 E14.70996
G1 X116.886 Y183.945 E14.79476
G1 X116.085 Y181.54 E14.87907
G1 X115.222 Y179.169 E14.96299
G1 X114.286 Y176.81 E15.0474
G1 X113.288 Y174.492 E15.13134
G1 X112.225 Y172.198 E15.21544
G1 X111.099 Y169.942 E15.2993
G1 X109.902 Y167.702 E15.38377
G1 X108.654 Y165.519 E15.46741
G1 X107.344 Y163.37 E15.55111
G1 X105.205 Y160.124 E15.68041
G1 X104.781 Y159.511 E15.7052
G1 X104.301 Y158.746 E15.73524
G1 X103.858 Y157.879 E15.76762
G1 X103.508 Y157.007 E15.79887
G1 X103.237 Y156.109 E15.83007
G1 X103.052 Y155.225 E15.86011
G1 X102.938 Y154.264 E15.8923
G1 X102.911 Y153.665 E15.91224
G1 X102.901 Y153.029 E15.9334
G1 X102.9 Y147.202 E16.1272
G1 X102.912 Y146.335 E16.15604
G1 X102.968 Y145.399 E16.18723
G1 X103.107 Y144.47 E16.21847
G1 X103.328 Y143.557 E16.24972
G1 X103.616 Y142.701 E16.27975
G1 X104.009 Y141.804 E16.31233
G1 X104.635 Y140.707 E16.35434
G1 X105.015 Y140.128 E16.37737
G1 X105.909 Y138.805 E16.43048
G1 X107.266 Y136.666 E16.51473
G1 X108.549 Y134.514 E16.59806
G1 X109.788 Y132.294 E16.68262
G1 X110.968 Y130.03 E16.76753
G1 X112.063 Y127.778 E16.85082
G1 X113.112 Y125.456 E16.93557
G1 X114.08 Y123.138 E17.01912
G1 X114.999 Y120.754 E17.1041
G1 X115.836 Y118.379 E17.18785
G1 X116.604 Y115.987 E17.27141
G1 X117.31 Y113.56 E17.35548
G1 X117.947 Y111.107 E17.43977
G1 X118.521 Y108.615 E17.52483
G1 X119.014 Y106.157 E17.60821
G1 X119.437 Y103.679 E17.69182
G1 X119.795 Y101.17 E17.77611
G1 X120.08 Y98.653 E17.86036
G1 X120.297 Y96.121 E17.94489
G1 X120.43 Y93.865 E18.02005
G1 X120.528 Y92.931 E18.05129
G1 X120.7 Y92.045 E18.08131
G1 X120.971 Y91.109 E18.11372
G1 X121.31 Y90.234 E18.14493
G1 X121.727 Y89.393 E18.17615
G1 X122.216 Y88.592 E18.20736
G1 X122.773 Y87.837 E18.23857
G1 X123.371 Y87.16 E18.26861
G1 X124.078 Y86.491 E18.30098
G1 X124.814 Y85.909 E18.33219
G1 X125.599 Y85.395 E18.3634
G1 X126.427 Y84.951 E18.39465
G1 X127.291 Y84.584 E18.42587
G1 X128.183 Y84.293 E18.45708
G1 X129.098 Y84.083 E18.4883
G1 X130.022 Y83.956 E18.51932
G1 X130.714 Y83.913 E18.54238
G1 X131.321 Y83.9 E18.56258
G1 X168.298 Y83.9 E19.79244
G1 X169.16 Y83.912 E19.82111
G1 X170.097 Y83.968 E19.85233
G1 X171.025 Y84.107 E19.88354
G1 X171.938 Y84.328 E19.91478
G1 X172.794 Y84.616 E19.94482
G1 X173.686 Y85.006 E19.9772
G1 X174.507 Y85.459 E20.00839
G1 X175.258 Y85.961 E20.03844
G1 X176.017 Y86.573 E20.07086
G1 X176.691 Y87.226 E20.10208
G1 X177.305 Y87.935 E20.13327
G1 X177.855 Y88.696 E20.1645
G1 X178.317 Y89.472 E20.19454
G1 X178.74 Y90.349 E20.22692
G1 X179.069 Y91.227 E20.25811
G1 X179.32 Y92.132 E20.28935
G1 X179.49 Y93.054 E20.32053
G1 X179.573 Y93.897 E20.3487
G1 X179.632 Y94.909 E20.38242
G1 X179.82 Y97.522 E20.46955
G1 X180.074 Y100.049 E20.55402
G1 X180.395 Y102.537 E20.63746
G1 X180.793 Y105.057 E20.72232
G1 X181.254 Y107.522 E20.80572
G1 X181.786 Y109.981 E20.8894
G1 X182.394 Y112.443 E20.97375
G1 X183.076 Y114.913 E21.05898
G1 X183.811 Y117.302 E21.14211
G1 X184.618 Y119.686 E21.22582
G1 X185.511 Y122.096 E21.3113
G1 X186.442 Y124.406 E21.39414
G1 X187.459 Y126.737 E21.47873
G1 X188.537 Y129.032 E21.56306
G1 X189.678 Y131.289 E21.64718
G1 X190.879 Y133.51 E21.73116
G1 X192.14 Y135.689 E21.81489
G1 X193.465 Y137.835 E21.89878
G1 X195.331 Y140.655 E22.01124
G1 X195.822 Y141.476 E22.04306
G1 X196.23 Y142.321 E22.07427
G1 X196.562 Y143.199 E22.10549
G1 X196.815 Y144.103 E22.13671
G1 X196.988 Y145.033 E22.16818
G1 X197.089 Y146.328 E22.21138
G1 X197.1 Y147.133 E22.23816
G1 X197.099 Y152.958 E22.4319
G1 X197.087 Y153.681 E22.45595
G1 X197.03 Y154.618 E22.48717
G1 X196.889 Y155.546 E22.51839
G1 X196.667 Y156.458 E22.54961
G1 X196.365 Y157.346 E22.5808
G1 X195.986 Y158.205 E22.61203
G1 X195.551 Y158.996 E22.64206
G1 X195.264 Y159.444 E22.65975
G1 X193.553 Y161.969 E22.7612
G1 X192.199 Y164.101 E22.8452
G1 X190.902 Y166.278 E22.92948
G1 X189.673 Y168.479 E23.01333
G1 X188.501 Y170.726 E23.09762
G1 X187.392 Y173.008 E23.18201
G1 X186.36 Y175.29 E23.26531
G1 X185.367 Y177.67 E23.35108
G1 X184.476 Y179.982 E23.43349
G1 X183.623 Y182.395 E23.51861
G1 X182.854 Y184.79 E23.60228
G1 X182.147 Y187.224 E23.68658
G1 X181.515 Y189.651 E23.76999
G1 X180.941 Y192.148 E23.85521
G1 X180.445 Y194.621 E23.9391
G1 X180.021 Y197.095 E24.02259
G1 X179.659 Y199.64 E24.10809
G1 X179.509 Y200.814 E24.14745
G1 X179.268 Y202.074 E24.19012
G1 X179.086 Y202.783 E24.21446
G1 X178.826 Y203.641 E24.24428
G1 X178.59 Y204.314 E24.268
G1 X178.272 Y205.112 E24.29657
G1 X178.01 Y205.7 E24.31798
G1 X177.59 Y206.537 E24.34913
G1 X177.267 Y207.115 E24.37115
G1 X176.809 Y207.861 E24.40027
G1 X176.35 Y208.54 E24.42753
G1 X175.874 Y209.189 E24.4543
G1 X175.357 Y209.822 E24.48148
G1 X174.87 Y210.368 E24.50582
G1 X174.286 Y210.971 E24.53374
G1 X173.766 Y211.465 E24.55759
G1 X173.067 Y212.069 E24.58832
G1 X172.705 Y212.359 E24.60374
G1 X172.018 Y212.865 E24.63212
G1 X171.353 Y213.314 E24.65881
G1 X170.597 Y213.778 E24.68831
G1 X170.016 Y214.102 E24.71044
G1 X169.188 Y214.516 E24.74123
G1 X168.598 Y214.779 E24.76271
G1 X167.798 Y215.096 E24.79133
G1 X167.125 Y215.331 E24.81504
G1 X166.287 Y215.585 E24.84417
G1 X165.609 Y215.759 E24.86745
G1 X164.725 Y215.944 E24.89749
G0 F6000 X164.643 Y215.552
G1 F1200 X163.746 Y215.658 E24.92753
G1 X163.166 Y215.685 E24.94684
G1 X162.331 Y215.699 E24.97462
G1 X137.707 Y215.7 E25.79362
G1 X136.91 Y215.69 E25.82013
G1 X136.009 Y215.638 E25.85014
G1 X135.115 Y215.506 E25.8802
G1 X134.572 Y215.385 E25.8987
G1 X134.053 Y215.255 E25.9165
G1 X133.541 Y215.113 E25.93417
G1 X132.892 Y214.914 E25.95675
G1 X131.655 Y214.445 E26.00075
G1 X130.737 Y214.027 E26.0343
G1 X129.619 Y213.431 E26.07644
G1 X128.808 Y212.932 E26.10811
G1 X127.734 Y212.172 E26.15187
G1 X126.982 Y211.563 E26.18405
G1 X126.404 Y211.057 E26.2096
G1 X126.159 Y210.826 E26.2208
G1 X125.736 Y210.403 E26.2407
G1 X125.421 Y210.069 E26.25597
G1 X124.906 Y209.48 E26.28199
G1 X124.322 Y208.757 E26.3129
G1 X123.574 Y207.7 E26.35597
G1 X123.068 Y206.879 E26.38805
G1 X122.467 Y205.751 E26.43056
G1 X122.078 Y204.896 E26.4618
G1 X121.641 Y203.761 E26.50225
G1 X121.417 Y203.056 E26.52686
G1 X121.28 Y202.587 E26.54311
G1 X121.145 Y202.079 E26.56059
G1 X120.952 Y201.196 E26.59065
G1 X120.884 Y200.742 E26.60592
G1 X120.625 Y198.696 E26.67451
G1 X120.234 Y196.134 E26.76071
G1 X119.786 Y193.667 E26.84411
G1 X119.263 Y191.19 E26.92831
G1 X118.667 Y188.709 E27.01318
G1 X118.008 Y186.281 E27.09685
G1 X117.266 Y183.819 E27.18238
G1 X116.465 Y181.414 E27.26669
G1 X115.598 Y179.032 E27.351
G1 X114.657 Y176.662 E27.43581
G1 X113.651 Y174.324 E27.52047
G1 X112.588 Y172.03 E27.60456
G1 X111.457 Y169.763 E27.68882
G1 X110.254 Y167.513 E27.77368
G1 X108.996 Y165.311 E27.85803
G1 X107.686 Y163.162 E27.94174
G1 X105.534 Y159.896 E28.07183
G1 X105.12 Y159.298 E28.09602
G1 X104.64 Y158.533 E28.12606
G1 X104.229 Y157.729 E28.15609
G1 X103.891 Y156.891 E28.18614
G1 X103.629 Y156.027 E28.21617
G1 X103.444 Y155.143 E28.24621
G1 X103.338 Y154.246 E28.27625
G1 X103.311 Y153.659 E28.2958
G1 X103.301 Y153.029 E28.31675
G1 X103.3 Y147.207 E28.5104
G1 X103.311 Y146.358 E28.53864
G1 X103.364 Y145.457 E28.56865
G1 X103.496 Y144.563 E28.59871
G1 X103.707 Y143.685 E28.62875
G1 X103.995 Y142.829 E28.65878
G1 X104.357 Y142.002 E28.68881
G1 X104.97 Y140.926 E28.73
G1 X105.346 Y140.352 E28.75282
G1 X106.247 Y139.019 E28.80633
G1 X107.61 Y136.871 E28.89095
G1 X108.893 Y134.719 E28.97428
G1 X110.143 Y132.479 E29.0596
G1 X111.323 Y130.215 E29.14451
G1 X112.423 Y127.953 E29.22817
G1 X113.476 Y125.621 E29.31327
G1 X114.449 Y123.292 E29.39722
G1 X115.372 Y120.898 E29.48256
G1 X116.213 Y118.512 E29.56671
G1 X116.985 Y116.109 E29.65065
G1 X117.694 Y113.672 E29.73507
G1 X118.334 Y111.208 E29.81974
G1 X118.911 Y108.705 E29.90517
G1 X119.406 Y106.236 E29.98893
