;FLAVOR:Marlin
;TIME:1540
;Filament used: 1.07139m
;Layer height: 0.2
;MINX:128.371
;MINY:131.071
;MINZ:0.2
;MAXX:171.5
;MAXY:169.236
;MAXZ:10
;TARGET_MACHINE.NAME:Creality Ender-3 Max
;Generated with Cura_SteamEngine 5.9.1
M140 S60
M105
M190 S60
M104 S200
M105
M109 S200
M82 ;absolute extrusion mode
; Ender 3 Max Custom Start G-code
G92 E0 ; Reset Extruder
G28 ; Home all axes
G1 Z2.0 F3000 ; Move Z Axis up little to prevent scratching of Heat Bed
G1 X0.1 Y20 Z0.3 F5000.0 ; Move to start position
G1 X0.1 Y200.0 Z0.3 F1500.0 E15 ; Draw the first line
G1 X0.4 Y200.0 Z0.3 F5000.0 ; Move to side a little
G1 X0.4 Y20 Z0.3 F1500.0 E30 ; Draw the second line
G92 E0 ; Reset Extruder
G1 Z2.0 F3000 ; Move Z Axis up little to prevent scratching of Heat Bed
G1 X5 Y20 Z0.3 F5000.0 ; Move over to prevent blob squish
G92 E0
G92 E0
G1 F1500 E-6.5
;LAYER_COUNT:50
;LAYER:0
M107
G0 F6000 X161.86 Y169.132 Z0.2
;TYPE:SKIRT
G1 F1500 E0
G1 F1200 X160.89 Y169.223 E0.0324
G1 X159.987 Y169.229 E0.06244
G1 X159.442 Y169.198 E0.08059
G1 X157.237 Y168.994 E0.15425
G1 X154.755 Y168.823 E0.23699
G1 X152.177 Y168.718 E0.32281
G1 X149.713 Y168.687 E0.40477
G1 X147.186 Y168.728 E0.48883
G1 X144.647 Y168.841 E0.57336
G1 X142.13 Y169.024 E0.6573
G1 X140.391 Y169.188 E0.71539
G1 X139.418 Y169.236 E0.74779
G1 X138.446 Y169.196 E0.78015
G1 X137.48 Y169.07 E0.81255
G1 X136.529 Y168.86 E0.84494
G1 X135.634 Y168.578 E0.87615
G1 X134.702 Y168.19 E0.90973
G1 X133.839 Y167.737 E0.94215
G1 X133.02 Y167.209 E0.97456
G1 X132.253 Y166.612 E1.00689
G1 X131.539 Y165.949 E1.03929
G1 X130.888 Y165.225 E1.07168
G1 X130.303 Y164.447 E1.10405
G1 X129.788 Y163.618 E1.13651
G1 X129.351 Y162.749 E1.16886
G1 X128.991 Y161.845 E1.20123
G1 X128.711 Y160.911 E1.23366
G1 X128.528 Y160.027 E1.26368
G1 X128.407 Y159.002 E1.29801
G1 X128.382 Y158.404 E1.31792
G1 X128.372 Y157.737 E1.34011
G1 X128.371 Y152.944 E1.49952
G1 X128.382 Y152.073 E1.52849
G1 X128.491 Y148.542 E1.64599
G1 X128.5 Y147.244 E1.68916
G1 X128.501 Y142.58 E1.84429
G1 X128.514 Y141.858 E1.86831
G1 X128.576 Y140.887 E1.90067
G1 X128.723 Y139.924 E1.93307
G1 X128.955 Y138.978 E1.96547
G1 X129.27 Y138.057 E1.99784
G1 X129.666 Y137.166 E2.03027
G1 X130.138 Y136.316 E2.06261
G1 X130.683 Y135.508 E2.09502
G1 X131.251 Y134.806 E2.12506
G1 X131.978 Y134.056 E2.1598
G1 X132.716 Y133.42 E2.1922
G1 X133.449 Y132.892 E2.22225
G1 X134.347 Y132.359 E2.25698
G1 X135.194 Y131.954 E2.28821
G1 X136.14 Y131.601 E2.32179
G1 X137.044 Y131.352 E2.35298
G1 X138.038 Y131.171 E2.38658
G1 X139.024 Y131.083 E2.41951
G1 X140.427 Y131.108 E2.46618
G1 X142.6 Y131.311 E2.53877
G1 X145.07 Y131.483 E2.62112
G1 X147.662 Y131.588 E2.7074
G1 X150.129 Y131.62 E2.78946
G1 X152.667 Y131.579 E2.87388
G1 X155.197 Y131.468 E2.95811
G1 X157.698 Y131.287 E3.04151
G1 X159.48 Y131.119 E3.10105
G1 X160.453 Y131.071 E3.13345
G1 X161.427 Y131.111 E3.16587
G1 X162.391 Y131.237 E3.19821
G1 X163.343 Y131.447 E3.23063
G1 X164.238 Y131.729 E3.26184
G1 X165.169 Y132.117 E3.29539
G1 X166.032 Y132.569 E3.32779
G1 X166.85 Y133.097 E3.36017
G1 X167.62 Y133.694 E3.39258
G1 X168.283 Y134.307 E3.42261
G1 X168.983 Y135.082 E3.45735
G1 X169.568 Y135.861 E3.48975
G1 X170.083 Y136.689 E3.52218
G1 X170.52 Y137.557 E3.5545
G1 X170.881 Y138.463 E3.58694
G1 X171.16 Y139.396 E3.61933
G1 X171.343 Y140.28 E3.64935
G1 X171.464 Y141.305 E3.68368
G1 X171.488 Y141.883 E3.70292
G1 X171.5 Y142.649 E3.7284
G1 X171.499 Y147.476 E3.88895
G1 X171.481 Y148.526 E3.92388
G1 X171.455 Y149.144 E3.94445
G1 X171.38 Y151.764 E4.03163
G1 X171.371 Y153.062 E4.0748
G1 X171.37 Y157.664 E4.22787
G1 X171.358 Y158.423 E4.25311
G1 X171.3 Y159.395 E4.2855
G1 X171.154 Y160.359 E4.31793
G1 X170.923 Y161.305 E4.35032
G1 X170.61 Y162.227 E4.3827
G1 X170.218 Y163.117 E4.41505
G1 X169.766 Y163.94 E4.44628
G1 X169.225 Y164.749 E4.47865
G1 X168.589 Y165.536 E4.5123
G1 X167.912 Y166.234 E4.54464
G1 X167.176 Y166.871 E4.57702
G1 X166.444 Y167.401 E4.60708
G1 X165.546 Y167.937 E4.64186
G1 X164.701 Y168.343 E4.67304
G1 X163.756 Y168.698 E4.70661
G1 X162.817 Y168.957 E4.73901
G1 X161.86 Y169.132 E4.77137
G0 F6000 X161.822 Y168.734
G1 F1200 X160.887 Y168.823 E4.80261
G1 X159.984 Y168.829 E4.83264
G1 X159.479 Y168.8 E4.84947
G1 X157.265 Y168.595 E4.92342
G1 X154.771 Y168.423 E5.00657
G1 X152.193 Y168.318 E5.09238
G1 X149.712 Y168.287 E5.17491
G1 X147.168 Y168.328 E5.25953
G1 X144.629 Y168.441 E5.34406
G1 X142.101 Y168.625 E5.42837
G1 X140.371 Y168.789 E5.48617
G1 X139.434 Y168.836 E5.51737
G1 X138.497 Y168.799 E5.54856
G1 X137.566 Y168.679 E5.57978
G1 X136.649 Y168.478 E5.611
G1 X135.754 Y168.196 E5.64221
G1 X134.887 Y167.836 E5.67344
G1 X134.055 Y167.401 E5.70466
G1 X133.265 Y166.893 E5.7359
G1 X132.525 Y166.319 E5.76705
G1 X131.836 Y165.681 E5.79828
G1 X131.207 Y164.984 E5.82951
G1 X130.642 Y164.235 E5.86072
G1 X130.145 Y163.438 E5.89196
G1 X129.722 Y162.601 E5.92315
G1 X129.374 Y161.73 E5.95434
G1 X129.103 Y160.83 E5.98561
G1 X128.92 Y159.946 E6.01563
G1 X128.807 Y158.985 E6.04781
G1 X128.782 Y158.398 E6.06736
G1 X128.772 Y157.737 E6.08934
G1 X128.771 Y152.949 E6.24859
G1 X128.782 Y152.088 E6.27723
G1 X128.816 Y151.181 E6.30742
G1 X128.891 Y148.553 E6.39486
G1 X128.9 Y147.247 E6.4383
G1 X128.901 Y142.587 E6.59329
G1 X128.913 Y141.883 E6.61671
G1 X128.971 Y140.947 E6.6479
G1 X129.112 Y140.019 E6.67912
G1 X129.334 Y139.107 E6.71034
G1 X129.636 Y138.219 E6.74154
G1 X130.016 Y137.36 E6.77278
G1 X130.47 Y136.539 E6.80398
G1 X130.994 Y135.76 E6.83521
G1 X131.562 Y135.058 E6.86524
G1 X132.239 Y134.359 E6.89761
G1 X132.95 Y133.745 E6.92886
G1 X133.683 Y133.217 E6.9589
G1 X134.52 Y132.72 E6.99128
G1 X135.334 Y132.329 E7.02131
G1 X136.246 Y131.987 E7.05371
G1 X137.15 Y131.738 E7.0849
G1 X138.074 Y131.569 E7.11614
G1 X139.017 Y131.483 E7.14763
G1 X140.393 Y131.507 E7.19341
G1 X141.105 Y131.567 E7.21717
G1 X142.569 Y131.71 E7.2661
G1 X145.054 Y131.883 E7.34895
G1 X147.646 Y131.988 E7.43523
G1 X150.13 Y132.02 E7.51785
G1 X152.685 Y131.979 E7.60284
G1 X155.215 Y131.868 E7.68707
G1 X157.727 Y131.686 E7.77084
G1 X159.5 Y131.518 E7.83008
G1 X160.437 Y131.471 E7.86128
G1 X161.376 Y131.508 E7.89253
G1 X162.305 Y131.628 E7.92369
G1 X163.223 Y131.829 E7.95495
G1 X164.118 Y132.111 E7.98616
G1 X164.984 Y132.471 E8.01735
G1 X165.816 Y132.906 E8.04858
G1 X166.605 Y133.413 E8.07977
G1 X167.348 Y133.988 E8.11102
G1 X168.011 Y134.601 E8.14105
G1 X168.664 Y135.323 E8.17343
G1 X169.229 Y136.073 E8.20466
G1 X169.726 Y136.869 E8.23587
G1 X170.149 Y137.706 E8.26706
G1 X170.498 Y138.578 E8.2983
G1 X170.768 Y139.477 E8.32952
G1 X170.951 Y140.361 E8.35955
G1 X171.064 Y141.322 E8.39173
G1 X171.088 Y141.889 E8.41061
G1 X171.1 Y142.649 E8.43589
G1 X171.099 Y147.469 E8.5962
G1 X171.081 Y148.509 E8.6308
G1 X171.055 Y149.127 E8.65137
G1 X170.98 Y151.753 E8.73875
G1 X170.971 Y153.059 E8.78219
G1 X170.97 Y157.658 E8.93515
G1 X170.959 Y158.4 E8.95983
G1 X170.904 Y159.336 E8.99102
G1 X170.765 Y160.265 E9.02226
G1 X170.544 Y161.177 E9.05347
G1 X170.244 Y162.066 E9.08468
G1 X169.867 Y162.925 E9.11588
G1 X169.433 Y163.718 E9.14594
G1 X168.892 Y164.527 E9.17831
G1 X168.302 Y165.258 E9.20956
G1 X167.65 Y165.932 E9.24075
G1 X166.941 Y166.547 E9.27196
G1 X166.209 Y167.077 E9.30202
G1 X165.373 Y167.576 E9.33441
G1 X164.528 Y167.982 E9.36559
G1 X163.649 Y168.313 E9.39683
G1 X162.744 Y168.564 E9.42806
G1 X161.822 Y168.734 E9.45924
G0 F6000 X161.783 Y168.336
G1 F1200 X160.884 Y168.423 E9.48929
G1 X159.981 Y168.429 E9.51932
G1 X159.513 Y168.401 E9.53491
G1 X158.687 Y168.331 E9.56248
G1 X157.298 Y168.196 E9.6089
G1 X154.787 Y168.023 E9.69262
G1 X152.209 Y167.918 E9.77843
G1 X149.711 Y167.887 E9.86152
G1 X147.15 Y167.928 E9.94671
G1 X144.611 Y168.041 E10.03124
G1 X142.072 Y168.226 E10.11591
G1 X140.351 Y168.39 E10.17341
G1 X139.449 Y168.436 E10.20345
G1 X138.547 Y168.402 E10.23348
G1 X137.651 Y168.288 E10.26352
G1 X136.769 Y168.096 E10.29354
G1 X135.907 Y167.826 E10.32358
G1 X135.072 Y167.481 E10.35363
G1 X134.271 Y167.064 E10.38367
G1 X133.51 Y166.577 E10.41372
G1 X132.796 Y166.025 E10.44373
G1 X132.132 Y165.412 E10.47379
G1 X131.526 Y164.743 E10.50381
G1 X130.981 Y164.023 E10.53385
G1 X130.502 Y163.257 E10.5639
G1 X130.093 Y162.452 E10.59393
G1 X129.757 Y161.614 E10.62396
G1 X129.495 Y160.749 E10.65402
G1 X129.312 Y159.865 E10.68404
G1 X129.207 Y158.968 E10.71408
G1 X129.182 Y158.392 E10.73326
G1 X129.172 Y157.737 E10.75505
G1 X129.171 Y152.954 E10.91413
G1 X129.182 Y152.103 E10.94244
G1 X129.216 Y151.196 E10.97262
G1 X129.291 Y148.564 E11.0602
G1 X129.3 Y147.25 E11.10391
G1 X129.301 Y142.593 E11.2588
G1 X129.312 Y141.907 E11.28162
G1 X129.367 Y141.006 E11.31164
G1 X129.501 Y140.113 E11.34167
G1 X129.713 Y139.235 E11.37172
G1 X130.002 Y138.38 E11.40173
G1 X130.366 Y137.553 E11.43179
G1 X130.802 Y136.762 E11.46183
G1 X131.305 Y136.012 E11.49186
G1 X131.873 Y135.31 E11.5219
G1 X132.501 Y134.661 E11.55193
G1 X133.184 Y134.07 E11.58197
G1 X133.917 Y133.542 E11.61202
G1 X134.693 Y133.081 E11.64204
G1 X135.507 Y132.69 E11.67208
G1 X136.353 Y132.372 E11.70214
G1 X137.223 Y132.131 E11.73216
G1 X138.111 Y131.967 E11.7622
G1 X139.01 Y131.883 E11.79223
G1 X140.36 Y131.906 E11.83714
G1 X141.066 Y131.965 E11.8607
G1 X142.538 Y132.109 E11.90989
G1 X145.038 Y132.283 E11.99324
G1 X147.63 Y132.388 E12.07952
G1 X150.131 Y132.42 E12.16272
G1 X152.703 Y132.379 E12.24827
G1 X155.233 Y132.268 E12.3325
G1 X157.756 Y132.085 E12.41664
G1 X159.52 Y131.917 E12.47557
G1 X160.422 Y131.871 E12.50561
G1 X161.325 Y131.905 E12.53567
G1 X162.22 Y132.019 E12.56568
G1 X163.103 Y132.211 E12.59573
G1 X163.965 Y132.481 E12.62577
G1 X164.799 Y132.826 E12.65579
G1 X165.6 Y133.243 E12.68583
G1 X166.361 Y133.73 E12.71588
G1 X167.076 Y134.282 E12.74592
G1 X167.739 Y134.895 E12.77595
G1 X168.345 Y135.564 E12.80598
G1 X168.89 Y136.285 E12.83604
G1 X169.369 Y137.05 E12.86606
G1 X169.778 Y137.855 E12.89609
G1 X170.115 Y138.694 E12.92616
G1 X170.376 Y139.558 E12.95618
G1 X170.559 Y140.442 E12.98621
G1 X170.664 Y141.339 E13.01624
G1 X170.688 Y141.895 E13.03475
G1 X170.7 Y142.649 E13.05984
G1 X170.699 Y147.462 E13.21992
G1 X170.681 Y148.492 E13.25418
G1 X170.655 Y149.11 E13.27475
G1 X170.58 Y151.742 E13.36233
G1 X170.571 Y153.056 E13.40603
G1 X170.57 Y157.652 E13.5589
G1 X170.56 Y158.377 E13.58301
G1 X170.508 Y159.278 E13.61303
G1 X170.376 Y160.172 E13.64309
G1 X170.165 Y161.05 E13.67312
G1 X169.878 Y161.906 E13.70315
G1 X169.516 Y162.733 E13.73318
G1 X169.082 Y163.526 E13.76324
G1 X168.58 Y164.276 E13.79326
G1 X168.014 Y164.98 E13.8233
G1 X167.387 Y165.63 E13.85334
G1 X166.706 Y166.223 E13.88338
G1 X165.974 Y166.753 E13.91343
G1 X165.199 Y167.216 E13.94346
G1 X164.386 Y167.608 E13.97348
G1 X163.541 Y167.928 E14.00353
G1 X162.671 Y168.171 E14.03358
G1 X161.783 Y168.336 E14.06362
G1 F1500 E7.56362
;MESH:body_extension.stl
G0 F6000 X161.027 Y151.731
G0 X158.772 Y151.181
G0 X153.661 Y150.047
G0 X153.506 Y148.965
G0 X150 Y146.857
;TYPE:WALL-INNER
G1 F1500 E14.06362
G1 F800 X153.295 Y146.702 E14.22819
G1 F821.9 X154.002 Y146.614 E14.26278
G1 F842.1 X156.542 Y146.249 E14.38441
G1 F882.4 X157.841 Y145.963 E14.44457
G1 F924.9 X157.841 Y145.433 E14.46744
G1 F921.3 X157.43 Y145.522 E14.48566
G1 F879.1 X156.449 Y145.687 E14.53082
G1 F842.1 X153.922 Y146.05 E14.65182
G1 F836.2 X153.665 Y146.078 E14.66416
G1 F816.3 X153.254 Y146.107 E14.68431
G1 F800 X150 Y146.256 E14.84682
G1 F802.7 X146.742 Y146.108 E15.00899
G1 F819.1 X146.331 Y146.079 E15.02906
G1 F837.7 X146.074 Y146.05 E15.04139
G1 F842.1 X143.548 Y145.687 E15.16234
G1 F882.4 X142.465 Y145.504 E15.21202
G1 F924.9 X142.159 Y145.434 E15.22557
G1 X142.159 Y145.963 E15.2484
G1 F882.4 X143.468 Y146.251 E15.30902
G1 F842.1 X145.994 Y146.614 E15.42997
G1 F823.3 X146.701 Y146.702 E15.46451
G1 F802.7 X150 Y146.857 E15.62873
G0 F6000 X150 Y147.357
G1 F1200 X153.342 Y147.2 E15.74001
G1 X156.633 Y146.725 E15.8506
G1 X158.3 Y146.325 E15.90762
G1 X158.3 Y144.85 E15.95668
G1 X157.451 Y145.052 E15.98571
G1 X153.747 Y145.585 E16.11017
G1 X150 Y145.756 E16.23493
G1 X146.26 Y145.587 E16.35945
G1 X142.536 Y145.053 E16.48457
G1 X141.7 Y144.851 E16.51318
G1 X141.7 Y146.325 E16.5622
G1 X143.363 Y146.725 E16.61909
G1 X146.654 Y147.198 E16.72968
G1 X150 Y147.357 E16.84109
G0 F6000 X150 Y147.758
G1 F1200 X153.38 Y147.598 E16.95364
G1 X156.709 Y147.118 E17.0655
G1 X158.7 Y146.64 E17.13361
G1 X158.7 Y144.342 E17.21004
G1 X157.393 Y144.658 E17.25476
G1 X153.702 Y145.187 E17.37878
G1 X150 Y145.356 E17.50204
G1 X146.294 Y145.187 E17.62543
G1 X142.613 Y144.66 E17.74911
G1 X141.3 Y144.343 E17.79403
G1 X141.3 Y146.641 E17.87046
G1 X143.288 Y147.118 E17.93846
G1 X146.616 Y147.597 E18.05029
G1 X150 Y147.758 E18.16297
G0 F6000 X150 Y148.158
G1 F1200 X153.418 Y147.997 E18.27678
G1 X156.784 Y147.512 E18.38989
G1 X159.1 Y146.955 E18.46912
G1 X159.1 Y143.834 E18.57292
G1 X157.306 Y144.265 E18.63429
G1 X153.605 Y144.791 E18.75862
G1 X150 Y144.956 E18.87865
G1 X146.391 Y144.792 E18.99881
G1 X142.745 Y144.275 E19.12129
G1 X140.9 Y143.835 E19.18437
G1 X140.9 Y146.956 E19.28818
G1 X143.213 Y147.511 E19.36729
G1 X146.578 Y147.996 E19.48037
G1 X150 Y148.158 E19.59431
G0 F6000 X150 Y148.559
G1 F1200 X153.456 Y148.395 E19.70939
G1 X156.859 Y147.905 E19.82374
G1 X159.5 Y147.271 E19.91408
G1 X159.5 Y143.326 E20.04529
G1 X157.234 Y143.872 E20.12281
G1 X153.587 Y144.391 E20.24534
G1 X150 Y144.556 E20.36477
G1 X146.409 Y144.392 E20.48433
G1 X142.801 Y143.879 E20.60554
G1 X140.5 Y143.327 E20.68424
G1 X140.5 Y147.271 E20.81542
G1 X143.137 Y147.904 E20.90562
G1 X146.54 Y148.395 E21.01997
G1 X150 Y148.559 E21.13518
G0 F6000 X150 Y148.959
G1 F1200 X153.494 Y148.794 E21.25152
G1 X156.935 Y148.298 E21.36715
G1 X159.9 Y147.586 E21.46857
G1 X159.9 Y142.818 E21.62716
G1 X157.193 Y143.472 E21.71978
G1 X153.568 Y143.992 E21.84159
G1 X149.972 Y144.156 E21.96131
G1 X146.428 Y143.992 E22.07931
G1 X142.836 Y143.479 E22.2
G1 X140.1 Y142.819 E22.29361
G1 X140.1 Y147.587 E22.45219
G1 X143.062 Y148.298 E22.5535
G1 X146.502 Y148.793 E22.6691
G1 X150 Y148.959 E22.78557
G0 F6000 X150 Y149.359
;TYPE:WALL-OUTER
G1 F1200 X153.532 Y149.192 E22.90318
G1 X157.01 Y148.691 E23.02005
G1 X160.3 Y147.902 E23.13258
G1 X160.3 Y142.31 E23.31857
G1 X157.081 Y143.086 E23.4287
G1 X153.55 Y143.592 E23.54734
G1 X149.99 Y143.756 E23.66588
G1 X146.446 Y143.592 E23.78388
G1 X142.897 Y143.083 E23.90312
G1 X139.7 Y142.311 E24.01251
G1 X139.7 Y147.902 E24.19847
G1 X142.986 Y148.691 E24.31087
G1 X146.464 Y149.192 E24.42774
G1 X150 Y149.359 E24.54548
G0 F6000 X150.001 Y148.349
G1 F1500 E18.04548
;MESH:body_extension.stl(1)
G0 F6000 X153.506 Y148.965
G0 X153.378 Y151.343
G0 X157.709 Y154.87
;TYPE:WALL-INNER
G1 F1500 E24.54548
G1 F924.9 X157.709 Y154.341 E24.56831
G1 F882.4 X156.402 Y154.054 E24.62884
G1 F837.7 X153.594 Y153.656 E24.76396
G1 F819.1 X153.167 Y153.606 E24.78491
G1 F802.7 X149.868 Y153.448 E24.94914
G1 X146.573 Y153.605 E25.11317
G1 F821.9 X145.869 Y153.692 E25.14761
G1 F842.1 X143.325 Y154.056 E25.26941
G1 F882.4 X142.028 Y154.342 E25.32949
G1 F926.6 X142.027 Y154.871 E25.35228
G1 X142.333 Y154.8 E25.36581
G1 F882.4 X143.418 Y154.618 E25.41557
G1 F842.1 X145.949 Y154.258 E25.53674
G1 F836.2 X146.2 Y154.23 E25.54879
G1 F817.7 X146.615 Y154.201 E25.5691
G1 F802.7 X149.868 Y154.048 E25.73103
G1 X153.125 Y154.2 E25.89315
G1 F823.3 X153.791 Y154.257 E25.92556
G1 F842.1 X156.322 Y154.618 E26.04673
G1 F882.4 X157.403 Y154.8 E26.09632
G1 F924.9 X157.709 Y154.87 E26.10986
G0 F6000 X149.868 Y154.548
G1 F1200 X153.625 Y154.723 E26.23496
G1 X157.334 Y155.251 E26.35956
G1 X158.168 Y155.453 E26.3881
G1 X158.168 Y153.979 E26.43713
G1 X156.506 Y153.58 E26.49398
G1 X153.214 Y153.11 E26.60458
G1 X149.868 Y152.947 E26.716
G1 X146.526 Y153.109 E26.82729
G1 X143.234 Y153.579 E26.93789
G1 X141.569 Y153.98 E26.99485
G1 X141.568 Y155.454 E27.04388
G1 X142.417 Y155.252 E27.0729
G1 X146.125 Y154.723 E27.19748
G1 X149.868 Y154.548 E27.32211
G0 F6000 X149.868 Y154.945
G1 F1200 X153.582 Y155.121 E27.44577
G1 X157.248 Y155.645 E27.56895
G1 X158.568 Y155.961 E27.61409
G1 X158.568 Y153.663 E27.69052
G1 X156.581 Y153.187 E27.75848
G1 X153.252 Y152.711 E27.87033
