;FLAVOR:Marlin
;TIME:10814
;Filament used: 6.98483m
;Layer height: 0.2
;MINX:96
;MINY:100.5
;MINZ:0.2
;MAXX:204
;MAXY:199.5
;MAXZ:14
;TARGET_MACHINE.NAME:Creality Ender-3 Max
;Generated with Cura_SteamEngine 5.9.1
M140 S60
M105
M190 S60
M104 S200
M105
M109 S200
M82 ;absolute extrusion mode
; Ender 3 Max Custom Start G-code
G92 E0 ; Reset Extruder
G28 ; Home all axes
G1 Z2.0 F3000 ; Move Z Axis up little to prevent scratching of Heat Bed
G1 X0.1 Y20 Z0.3 F5000.0 ; Move to start position
G1 X0.1 Y200.0 Z0.3 F1500.0 E15 ; Draw the first line
G1 X0.4 Y200.0 Z0.3 F5000.0 ; Move to side a little
G1 X0.4 Y20 Z0.3 F1500.0 E30 ; Draw the second line
G92 E0 ; Reset Extruder
G1 Z2.0 F3000 ; Move Z Axis up little to prevent scratching of Heat Bed
G1 X5 Y20 Z0.3 F5000.0 ; Move over to prevent blob squish
G92 E0
G92 E0
G1 F1500 E-6.5
;LAYER_COUNT:70
;LAYER:0
M107
G0 F6000 X166.63 Y199.366 Z0.2
;TYPE:SKIRT
G1 F1500 E0
G1 F1200 X165.353 Y199.484 E0.04265
G1 X164.76 Y199.497 E0.06238
G1 X135.697 Y199.5 E1.02902
G1 X134.812 Y199.487 E1.05846
G1 X133.84 Y199.428 E1.09085
G1 X132.877 Y199.282 E1.12324
G1 X131.93 Y199.051 E1.15566
G1 X131.074 Y198.763 E1.1857
G1 X130.118 Y198.344 E1.22042
G1 X129.251 Y197.863 E1.2534
G1 X128.102 Y197.056 E1.3001
G1 X127.525 Y196.587 E1.32483
G1 X124.874 Y194.36 E1.43998
G1 X124.285 Y193.848 E1.46594
G1 X123.608 Y193.204 E1.49702
G1 X123.137 Y192.684 E1.52035
G1 X121.532 Y190.793 E1.60285
G1 X119.889 Y188.961 E1.6847
G1 X118.114 Y187.091 E1.77045
G1 X116.357 Y185.344 E1.85286
G1 X114.536 Y183.63 E1.93604
G1 X112.625 Y181.933 E2.02104
G1 X110.724 Y180.337 E2.1036
G1 X108.719 Y178.749 E2.18866
G1 X106.735 Y177.266 E2.27105
G1 X104.672 Y175.815 E2.35494
G1 X102.508 Y174.382 E2.44126
G1 X101.091 Y173.482 E2.4971
G1 X100.294 Y172.923 E2.52947
G1 X99.602 Y172.343 E2.55951
G1 X98.864 Y171.601 E2.59431
G1 X98.242 Y170.852 E2.62669
G1 X97.689 Y170.051 E2.65907
G1 X97.208 Y169.203 E2.69149
G1 X96.806 Y168.316 E2.72388
G1 X96.483 Y167.398 E2.75625
G1 X96.241 Y166.456 E2.7886
G1 X96.093 Y165.565 E2.81864
G1 X96.011 Y164.382 E2.85808
G1 X96.001 Y163.727 E2.87987
G1 X96 Y136.503 E3.78534
G1 X96.013 Y135.62 E3.81472
G1 X96.072 Y134.648 E3.8471
G1 X96.218 Y133.685 E3.8795
G1 X96.449 Y132.738 E3.91192
G1 X96.762 Y131.817 E3.94427
G1 X97.156 Y130.925 E3.97671
G1 X97.627 Y130.072 E4.00912
G1 X98.171 Y129.266 E4.04146
G1 X98.785 Y128.509 E4.07388
G1 X99.463 Y127.811 E4.10624
G1 X100.205 Y127.171 E4.13883
G1 X101.108 Y126.529 E4.17568
G1 X102.134 Y125.878 E4.2161
G1 X104.346 Y124.425 E4.30412
G1 X106.419 Y122.978 E4.38821
G1 X108.399 Y121.511 E4.47017
G1 X110.413 Y119.93 E4.55533
G1 X112.33 Y118.335 E4.63827
G1 X114.232 Y116.658 E4.72261
G1 X116.087 Y114.928 E4.80697
G1 X117.837 Y113.202 E4.88873
G1 X119.608 Y111.351 E4.97393
G1 X121.259 Y109.526 E5.05578
G1 X122.265 Y108.335 E5.10764
G1 X122.484 Y108.098 E5.11837
G1 X123.197 Y107.265 E5.15484
G1 X123.854 Y106.565 E5.18677
G1 X124.3 Y106.151 E5.20701
G1 X125.185 Y105.382 E5.246
G1 X127.405 Y103.515 E5.34248
G1 X128.068 Y102.973 E5.37096
G1 X128.85 Y102.392 E5.40337
G1 X129.681 Y101.884 E5.43576
G1 X130.553 Y101.452 E5.46813
G1 X131.46 Y101.097 E5.50052
G1 X132.36 Y100.833 E5.53172
G1 X133.35 Y100.635 E5.5653
G1 X134.302 Y100.532 E5.59715
G1 X134.8 Y100.512 E5.61372
G1 X135.529 Y100.5 E5.63797
G1 X164.304 Y100.5 E6.59503
G1 X165.188 Y100.513 E6.62444
G1 X166.16 Y100.572 E6.65683
G1 X167.123 Y100.718 E6.68922
G1 X168.07 Y100.949 E6.72164
G1 X168.926 Y101.237 E6.75168
G1 X169.882 Y101.656 E6.7864
G1 X170.749 Y102.135 E6.81934
G1 X171.849 Y102.906 E6.86402
G1 X172.441 Y103.385 E6.88935
G1 X174.84 Y105.398 E6.99351
G1 X175.483 Y105.952 E7.02174
G1 X176.14 Y106.572 E7.05178
G1 X176.663 Y107.146 E7.07761
G1 X178.422 Y109.223 E7.16814
G1 X180.103 Y111.097 E7.25187
G1 X181.847 Y112.933 E7.33609
G1 X183.639 Y114.716 E7.42017
G1 X185.441 Y116.411 E7.50246
G1 X187.344 Y118.101 E7.58711
G1 X189.272 Y119.719 E7.67082
G1 X191.249 Y121.285 E7.7547
G1 X193.248 Y122.779 E7.83771
G1 X195.313 Y124.231 E7.92167
G1 X197.48 Y125.666 E8.00812
G1 X198.912 Y126.577 E8.06457
G1 X199.708 Y127.136 E8.09692
G1 X200.4 Y127.716 E8.12695
G1 X201.138 Y128.458 E8.16176
G1 X201.76 Y129.207 E8.19414
G1 X202.275 Y129.949 E8.22418
G1 X202.793 Y130.857 E8.25895
G1 X203.195 Y131.744 E8.29134
G1 X203.517 Y132.662 E8.32369
G1 X203.759 Y133.606 E8.35611
G1 X203.91 Y134.534 E8.38738
G1 X203.988 Y135.665 E8.42508
G1 X203.999 Y136.349 E8.44784
G1 X204 Y163.457 E9.34945
G1 X203.987 Y164.364 E9.37962
G1 X203.929 Y165.336 E9.41201
G1 X203.783 Y166.3 E9.44444
G1 X203.552 Y167.246 E9.47683
G1 X203.239 Y168.168 E9.50921
G1 X202.847 Y169.058 E9.54156
G1 X202.396 Y169.881 E9.57277
G1 X201.834 Y170.719 E9.60633
G1 X201.243 Y171.45 E9.6376
G1 X200.541 Y172.175 E9.67116
G1 X199.799 Y172.816 E9.70377
G1 X198.896 Y173.458 E9.74062
G1 X197.722 Y174.205 E9.78691
G1 X195.588 Y175.608 E9.87185
G1 X193.545 Y177.035 E9.95473
G1 X191.505 Y178.545 E10.03915
G1 X189.522 Y180.103 E10.12303
G1 X187.596 Y181.707 E10.20639
G1 X185.731 Y183.351 E10.28908
G1 X183.85 Y185.106 E10.37465
G1 X182.096 Y186.837 E10.45661
G1 X180.325 Y188.688 E10.54181
G1 X178.685 Y190.501 E10.62312
G1 X177.613 Y191.771 E10.6784
G1 X177.38 Y192.023 E10.68982
G1 X176.702 Y192.819 E10.72459
G1 X176.045 Y193.523 E10.75662
G1 X175.587 Y193.946 E10.77736
G1 X174.627 Y194.78 E10.81965
G1 X172.506 Y196.56 E10.91175
G1 X171.927 Y197.032 E10.93659
G1 X171.144 Y197.612 E10.969
G1 X170.313 Y198.119 E11.00138
G1 X169.441 Y198.551 E11.03375
G1 X168.534 Y198.906 E11.06614
G1 X167.667 Y199.161 E11.0962
G1 X166.63 Y199.366 E11.13136
G0 F6000 X166.593 Y198.968
G1 F1200 X165.343 Y199.084 E11.17311
G1 X164.755 Y199.098 E11.19268
G1 X135.703 Y199.1 E12.15895
G1 X134.836 Y199.088 E12.18779
G1 X133.899 Y199.032 E12.21901
G1 X132.971 Y198.893 E12.25022
G1 X132.058 Y198.672 E12.28146
G1 X131.202 Y198.384 E12.3115
G1 X130.311 Y197.994 E12.34385
G1 X129.481 Y197.536 E12.37538
G1 X128.354 Y196.745 E12.42118
G1 X127.782 Y196.281 E12.44567
G1 X125.136 Y194.058 E12.56062
G1 X124.561 Y193.558 E12.58596
G1 X123.884 Y192.914 E12.61704
G1 X123.442 Y192.425 E12.63896
G1 X121.837 Y190.534 E12.72146
G1 X120.187 Y188.694 E12.80366
G1 X118.396 Y186.807 E12.89019
G1 X116.639 Y185.06 E12.9726
G1 X114.802 Y183.331 E13.0565
G1 X112.891 Y181.634 E13.14151
G1 X110.972 Y180.023 E13.22484
G1 X108.967 Y178.435 E13.30991
G1 X106.965 Y176.939 E13.39303
G1 X104.893 Y175.481 E13.4773
G1 X102.729 Y174.048 E13.56363
G1 X101.32 Y173.154 E13.61913
G1 X100.551 Y172.616 E13.65034
G1 X99.859 Y172.036 E13.68037
G1 X99.171 Y171.345 E13.7128
G1 X98.571 Y170.624 E13.744
G1 X98.037 Y169.853 E13.7752
G1 X97.572 Y169.037 E13.80643
G1 X97.183 Y168.183 E13.83765
G1 X96.87 Y167.298 E13.86887
G1 X96.636 Y166.39 E13.90005
G1 X96.488 Y165.499 E13.9301
G1 X96.411 Y164.376 E13.96753
G1 X96.401 Y163.727 E13.98912
G1 X96.4 Y136.509 E14.8944
G1 X96.412 Y135.644 E14.92317
G1 X96.468 Y134.707 E14.95439
G1 X96.607 Y133.779 E14.9856
G1 X96.828 Y132.866 E15.01684
G1 X97.128 Y131.978 E15.04802
G1 X97.506 Y131.118 E15.07926
G1 X97.959 Y130.295 E15.11051
G1 X98.482 Y129.517 E15.14169
G1 X99.072 Y128.787 E15.17291
G1 X99.725 Y128.113 E15.20412
G1 X100.437 Y127.497 E15.23543
G1 X101.322 Y126.867 E15.27157
G1 X102.348 Y126.216 E15.31198
G1 X104.566 Y124.759 E15.40024
G1 X106.648 Y123.306 E15.48469
G1 X108.646 Y121.826 E15.56739
G1 X110.66 Y120.245 E15.65255
G1 X112.595 Y118.635 E15.73627
G1 X114.497 Y116.958 E15.82061
G1 X116.36 Y115.221 E15.90533
G1 X118.118 Y113.487 E15.98746
G1 X119.897 Y111.628 E16.07304
G1 X121.564 Y109.785 E16.15569
G1 X122.559 Y108.606 E16.207
G1 X122.786 Y108.36 E16.21813
G1 X123.489 Y107.538 E16.25411
G1 X124.126 Y106.858 E16.2851
G1 X124.562 Y106.453 E16.30489
G1 X125.442 Y105.688 E16.34367
G1 X127.658 Y103.825 E16.43997
G1 X128.307 Y103.294 E16.46786
G1 X129.059 Y102.733 E16.49906
G1 X129.859 Y102.242 E16.53028
G1 X130.699 Y101.824 E16.56149
G1 X131.573 Y101.481 E16.59271
G1 X132.473 Y101.217 E16.62391
G1 X133.393 Y101.033 E16.65512
G1 X134.318 Y100.932 E16.68606
G1 X134.807 Y100.912 E16.70234
G1 X135.536 Y100.9 E16.72659
G1 X164.298 Y100.9 E17.68322
G1 X165.164 Y100.912 E17.71203
G1 X166.101 Y100.968 E17.74325
G1 X167.029 Y101.107 E17.77446
G1 X167.942 Y101.328 E17.8057
G1 X168.798 Y101.616 E17.83574
G1 X169.689 Y102.006 E17.86809
G1 X170.519 Y102.463 E17.8996
G1 X171.619 Y103.234 E17.94428
G1 X172.184 Y103.691 E17.96845
G1 X174.579 Y105.701 E18.07244
G1 X175.208 Y106.243 E18.10006
G1 X175.865 Y106.863 E18.1301
G1 X176.358 Y107.405 E18.15447
G1 X178.124 Y109.49 E18.24535
G1 X179.805 Y111.364 E18.32908
G1 X181.565 Y113.217 E18.41408
G1 X183.357 Y115 E18.49816
G1 X185.175 Y116.71 E18.58118
G1 X187.078 Y118.4 E18.66583
G1 X189.024 Y120.033 E18.75032
G1 X191.001 Y121.599 E18.8342
G1 X193.018 Y123.106 E18.91795
G1 X195.092 Y124.565 E19.00229
G1 X197.265 Y126.004 E19.08897
G1 X198.683 Y126.905 E19.14485
G1 X199.451 Y127.443 E19.17604
G1 X200.143 Y128.023 E19.20607
G1 X200.831 Y128.714 E19.2385
G1 X201.431 Y129.435 E19.2697
G1 X201.946 Y130.177 E19.29974
G1 X202.429 Y131.023 E19.33214
G1 X202.818 Y131.877 E19.36335
G1 X203.13 Y132.762 E19.39456
G1 X203.364 Y133.671 E19.42578
G1 X203.511 Y134.562 E19.45582
G1 X203.588 Y135.671 E19.49279
G1 X203.599 Y136.349 E19.51535
G1 X203.6 Y163.452 E20.4168
G1 X203.588 Y164.341 E20.44637
G1 X203.533 Y165.277 E20.47755
G1 X203.394 Y166.206 E20.50879
G1 X203.173 Y167.118 E20.54001
G1 X202.873 Y168.007 E20.57121
G1 X202.496 Y168.866 E20.60241
G1 X202.063 Y169.659 E20.63246
G1 X201.522 Y170.468 E20.66483
G1 X200.955 Y171.172 E20.6949
G1 X200.279 Y171.873 E20.72729
G1 X199.567 Y172.49 E20.75862
G1 X198.681 Y173.121 E20.7948
G1 X197.507 Y173.868 E20.84108
G1 X195.368 Y175.274 E20.92622
G1 X193.307 Y176.713 E21.00983
G1 X191.267 Y178.223 E21.09424
G1 X189.275 Y179.788 E21.1785
G1 X187.331 Y181.407 E21.26264
G1 X185.466 Y183.051 E21.34533
G1 X183.569 Y184.821 E21.43162
G1 X181.815 Y186.552 E21.51359
G1 X180.036 Y188.411 E21.59917
G1 X178.379 Y190.243 E21.68133
G1 X177.319 Y191.5 E21.73602
G1 X177.075 Y191.764 E21.74797
G1 X176.409 Y192.546 E21.78214
G1 X175.773 Y193.229 E21.81318
G1 X175.324 Y193.644 E21.83351
G1 X174.37 Y194.474 E21.87557
G1 X172.253 Y196.25 E21.96748
G1 X171.688 Y196.711 E21.99173
G1 X170.935 Y197.271 E22.02295
G1 X170.135 Y197.761 E22.05415
G1 X169.295 Y198.179 E22.08535
G1 X168.421 Y198.522 E22.11658
G1 X167.554 Y198.777 E22.14664
G1 X166.593 Y198.968 E22.17923
G0 F6000 X166.556 Y198.57
G1 F1200 X165.333 Y198.684 E22.22008
G1 X164.755 Y198.698 E22.23931
G1 X135.708 Y198.7 E23.20542
G1 X134.859 Y198.689 E23.23366
G1 X133.957 Y198.636 E23.26371
G1 X133.064 Y198.504 E23.29374
G1 X132.186 Y198.293 E23.32377
G1 X131.33 Y198.005 E23.35381
G1 X130.503 Y197.643 E23.38383
G1 X129.711 Y197.209 E23.41387
G1 X128.606 Y196.434 E23.45876
G1 X128.039 Y195.975 E23.48303
G1 X125.398 Y193.756 E23.59776
G1 X124.836 Y193.268 E23.62251
G1 X124.181 Y192.646 E23.65255
G1 X123.747 Y192.166 E23.67408
G1 X122.142 Y190.275 E23.75657
G1 X120.485 Y188.427 E23.83913
G1 X118.678 Y186.523 E23.92643
G1 X116.921 Y184.776 E24.00884
G1 X115.068 Y183.032 E24.09348
G1 X113.157 Y181.335 E24.17848
G1 X111.22 Y179.709 E24.2626
G1 X109.215 Y178.121 E24.34767
G1 X107.195 Y176.612 E24.43153
G1 X105.123 Y175.154 E24.51579
G1 X102.943 Y173.71 E24.60277
G1 X101.549 Y172.826 E24.65767
G1 X100.808 Y172.309 E24.68772
G1 X100.116 Y171.729 E24.71775
G1 X99.478 Y171.089 E24.74781
G1 X98.899 Y170.396 E24.77784
G1 X98.384 Y169.655 E24.80786
G1 X97.936 Y168.87 E24.83792
G1 X97.56 Y168.049 E24.86795
G1 X97.257 Y167.198 E24.898
G1 X97.031 Y166.324 E24.92802
G1 X96.883 Y165.433 E24.95806
G1 X96.811 Y164.37 E24.9935
G1 X96.801 Y163.727 E25.01489
G1 X96.8 Y136.514 E25.92
G1 X96.811 Y135.667 E25.94817
G1 X96.864 Y134.765 E25.97822
G1 X96.996 Y133.872 E26.00825
G1 X97.207 Y132.994 E26.03828
G1 X97.495 Y132.138 E26.06832
G1 X97.857 Y131.31 E26.09838
G1 X98.291 Y130.518 E26.12841
G1 X98.794 Y129.768 E26.15845
G1 X99.36 Y129.065 E26.18847
G1 X99.987 Y128.415 E26.2185
G1 X100.669 Y127.823 E26.24854
G1 X101.537 Y127.205 E26.28398
G1 X102.563 Y126.553 E26.32441
G1 X104.786 Y125.093 E26.41287
G1 X106.877 Y123.634 E26.49768
G1 X108.893 Y122.141 E26.58111
G1 X110.907 Y120.56 E26.66627
G1 X112.851 Y118.942 E26.7504
G1 X114.77 Y117.251 E26.83547
G1 X116.633 Y115.514 E26.92019
G1 X118.399 Y113.772 E27.00269
G1 X120.186 Y111.905 E27.08865
G1 X121.869 Y110.044 E27.1721
G1 X122.853 Y108.877 E27.22287
G1 X123.088 Y108.622 E27.23441
G1 X123.781 Y107.811 E27.26989
G1 X124.398 Y107.151 E27.29994
G1 X124.825 Y106.755 E27.31931
G1 X125.699 Y105.994 E27.35785
G1 X127.911 Y104.134 E27.45397
G1 X128.546 Y103.614 E27.48127
G1 X129.269 Y103.074 E27.51129
G1 X130.038 Y102.6 E27.54133
G1 X130.846 Y102.196 E27.57138
G1 X131.686 Y101.865 E27.60141
G1 X132.552 Y101.609 E27.63144
G1 X133.437 Y101.431 E27.66147
G1 X134.335 Y101.332 E27.69152
G1 X134.814 Y101.312 E27.70746
G1 X135.543 Y101.3 E27.73171
G1 X164.293 Y101.3 E28.68794
G1 X165.141 Y101.311 E28.71615
G1 X166.043 Y101.364 E28.7462
G1 X166.936 Y101.496 E28.77622
G1 X167.814 Y101.707 E28.80626
G1 X168.67 Y101.995 E28.8363
G1 X169.497 Y102.357 E28.86632
G1 X170.289 Y102.791 E28.89636
G1 X171.389 Y103.562 E28.94104
G1 X171.927 Y103.997 E28.96405
G1 X174.318 Y106.004 E29.06788
G1 X174.933 Y106.534 E29.09488
G1 X175.59 Y107.154 E29.12493
G1 X176.053 Y107.664 E29.14784
G1 X177.826 Y109.757 E29.23907
G1 X179.507 Y111.631 E29.3228
G1 X181.283 Y113.501 E29.40858
G1 X183.075 Y115.284 E29.49266
G1 X184.909 Y117.009 E29.5764
G1 X186.812 Y118.699 E29.66105
G1 X188.776 Y120.347 E29.74632
G1 X190.753 Y121.913 E29.83021
G1 X192.788 Y123.433 E29.91469
G1 X194.871 Y124.899 E29.99941
G1 X197.044 Y126.338 E30.08609
G1 X198.454 Y127.233 E30.14164
G1 X199.194 Y127.75 E30.17166
G1 X199.886 Y128.33 E30.20169
G1 X200.524 Y128.97 E30.23175
G1 X201.102 Y129.663 E30.26176
G1 X201.617 Y130.405 E30.2918
G1 X202.065 Y131.19 E30.32187
G1 X202.441 Y132.011 E30.3519
G1 X202.743 Y132.862 E30.38193
G1 X202.969 Y133.736 E30.41196
G1 X203.116 Y134.627 E30.442
G1 X203.188 Y135.678 E30.47703
G1 X203.199 Y136.349 E30.49935
G1 X203.2 Y163.447 E31.40064
G1 X203.189 Y164.318 E31.42961
G1 X203.137 Y165.219 E31.45963
G1 X203.005 Y166.113 E31.48968
G1 X202.794 Y166.991 E31.51972
G1 X202.507 Y167.847 E31.54975
G1 X202.145 Y168.674 E31.57977
G1 X201.712 Y169.467 E31.60982
G1 X201.21 Y170.217 E31.63984
G1 X200.643 Y170.921 E31.66991
G1 X200.017 Y171.571 E31.69992
G1 X199.335 Y172.164 E31.72998
G1 X198.466 Y172.784 E31.76548
G1 X197.292 Y173.531 E31.81177
G1 X195.148 Y174.94 E31.8971
G1 X193.069 Y176.391 E31.98142
G1 X191.029 Y177.901 E32.06584
G1 X189.028 Y179.473 E32.15047
G1 X187.066 Y181.107 E32.23539
G1 X185.201 Y182.751 E32.31808
G1 X183.288 Y184.536 E32.40511
G1 X181.534 Y186.267 E32.48707
G1 X179.747 Y188.134 E32.57303
G1 X178.073 Y189.985 E32.65604
G1 X177.025 Y191.229 E32.71014
G1 X176.77 Y191.505 E32.72263
G1 X176.116 Y192.274 E32.75621
G1 X175.501 Y192.935 E32.78624
G1 X175.061 Y193.342 E32.80617
G1 X174.113 Y194.168 E32.84799
G1 X172 Y195.94 E32.93972
G1 X171.449 Y196.39 E32.96338
G1 X170.725 Y196.93 E32.99342
G1 X169.956 Y197.403 E33.02345
G1 X169.148 Y197.807 E33.05349
G1 X168.308 Y198.138 E33.08352
G1 X167.441 Y198.393 E33.11358
G1 X166.556 Y198.57 E33.1436
G1 F1500 E26.6436
;MESH:electronic_mounting_plate.stl
G0 F6000 X164.844 Y189.165
G0 X164.844 Y188.072
G0 X149.987 Y187.74
G0 X150 Y187.445
;TYPE:WALL-INNER
G1 F1500 E33.1436
G1 F1093.4 X149.971 Y187.446 E33.14466
G1 F1086 X149.646 Y187.433 E33.15661
G1 F1043.5 X149.26 Y187.391 E33.17146
G1 F1100.9 X148.647 Y187.166 E33.19514
G1 F1200 X148.355 Y187.029 E33.20586
G1 X148.094 Y186.882 E33.21583
G1 X147.669 Y186.59 E33.23298
G1 X147.364 Y186.282 E33.24739
G1 X147.129 Y186.002 E33.25955
G1 X146.977 Y185.786 E33.26834
G1 X146.754 Y185.391 E33.28342
G1 X146.604 Y185.03 E33.29643
G1 X146.513 Y184.737 E33.30663
G1 X146.449 Y184.435 E33.3169
G1 X146.413 Y184.175 E33.32563
G1 X146.4 Y183.8 E33.33811
G1 X146.418 Y183.476 E33.3489
G1 X146.474 Y183.096 E33.36168
G1 X146.574 Y182.712 E33.37487
