;FLAVOR:Marlin
;TIME:6961
;Filament used: 4.62258m
;Layer height: 0.2
;MINX:94.954
;MINY:100.989
;MINZ:0.2
;MAXX:205.046
;MAXY:199.011
;MAXZ:4
;TARGET_MACHINE.NAME:Creality Ender-3 Max
;Generated with Cura_SteamEngine 5.9.1
M140 S60
M105
M190 S60
M104 S200
M105
M109 S200
M82 ;absolute extrusion mode
; Ender 3 Max Custom Start G-code
G92 E0 ; Reset Extruder
G28 ; Home all axes
G1 Z2.0 F3000 ; Move Z Axis up little to prevent scratching of Heat Bed
G1 X0.1 Y20 Z0.3 F5000.0 ; Move to start position
G1 X0.1 Y200.0 Z0.3 F1500.0 E15 ; Draw the first line
G1 X0.4 Y200.0 Z0.3 F5000.0 ; Move to side a little
G1 X0.4 Y20 Z0.3 F1500.0 E30 ; Draw the second line
G92 E0 ; Reset Extruder
G1 Z2.0 F3000 ; Move Z Axis up little to prevent scratching of Heat Bed
G1 X5 Y20 Z0.3 F5000.0 ; Move over to prevent blob squish
G92 E0
G92 E0
G1 F1500 E-6.5
;LAYER_COUNT:20
;LAYER:0
M107
G0 F6000 X165.979 Y198.936 Z0.2
;TYPE:SKIRT
G1 F1500 E0
G1 F1200 X134.147 Y199.011 E1.05874
G1 X132.251 Y198.545 E1.12368
G1 X130.223 Y197.492 E1.19968
G1 X128.747 Y195.914 E1.27155
G1 X127.815 Y194.329 E1.3327
G1 X127.496 Y193.543 E1.36091
G1 X127.295 Y192.212 E1.40569
G1 X125.712 Y190.885 E1.47439
G1 X123.79 Y188.124 E1.58628
G1 X122.375 Y186.268 E1.6639
G1 X120.75 Y184.326 E1.74813
G1 X119.106 Y182.524 E1.82925
G1 X117.507 Y180.917 E1.90466
G1 X115.936 Y179.471 E1.97567
G1 X114.133 Y177.951 E2.05411
G1 X112.016 Y176.315 E2.14309
G1 X110.219 Y175.045 E2.21628
G1 X108.143 Y173.716 E2.29827
G1 X106.107 Y172.534 E2.37657
G1 X104.311 Y171.592 E2.44402
G1 X101.988 Y170.497 E2.52944
G1 X98.874 Y169.187 E2.6418
G1 X97.414 Y168.017 E2.70403
G1 X96.457 Y167.045 E2.7494
G1 X95.244 Y164.793 E2.83447
G1 X95.014 Y163.221 E2.88732
G1 X94.954 Y136.789 E3.76645
G1 X95.456 Y134.718 E3.83733
G1 X96.497 Y133.052 E3.90267
G1 X97.423 Y131.907 E3.95164
G1 X97.801 Y131.55 E3.96894
G1 X99.731 Y130.477 E4.04238
G1 X102.026 Y129.511 E4.1252
G1 X104.205 Y128.485 E4.20531
G1 X106.338 Y127.358 E4.28555
G1 X108.166 Y126.292 E4.35593
G1 X110.24 Y124.964 E4.43784
G1 X112.266 Y123.531 E4.52038
G1 X114.131 Y122.092 E4.59872
G1 X115.75 Y120.723 E4.66924
G1 X117.426 Y119.181 E4.74499
G1 X119.146 Y117.449 E4.82618
G1 X120.841 Y115.591 E4.90983
G1 X122.377 Y113.753 E4.98949
G1 X123.822 Y111.858 E5.06876
G1 X125.742 Y109.099 E5.18055
G1 X127.225 Y107.852 E5.245
G1 X127.666 Y106.04 E5.30703
G1 X128.719 Y104.012 E5.38303
G1 X130.28 Y102.553 E5.45409
G1 X132.303 Y101.346 E5.53245
G1 X134.021 Y101.064 E5.59035
G1 X165.853 Y100.989 E6.64909
G1 X167.749 Y101.455 E6.71403
G1 X169.777 Y102.508 E6.79003
G1 X171.253 Y104.086 E6.8619
G1 X172.185 Y105.669 E6.92299
G1 X172.507 Y106.461 E6.95143
G1 X172.708 Y107.793 E6.99623
G1 X174.122 Y108.979 E7.05762
G1 X176.08 Y111.809 E7.17208
G1 X177.481 Y113.659 E7.24926
G1 X179.133 Y115.645 E7.33518
G1 X180.542 Y117.203 E7.40505
G1 X182.213 Y118.889 E7.484
G1 X184.197 Y120.723 E7.57386
G1 X185.878 Y122.147 E7.64714
G1 X187.607 Y123.486 E7.71987
G1 X189.754 Y125.005 E7.80735
G1 X191.554 Y126.16 E7.87848
G1 X193.789 Y127.464 E7.96454
G1 X195.796 Y128.522 E8.04
G1 X197.843 Y129.486 E8.11526
G1 X200.876 Y130.759 E8.22466
G1 X202.336 Y131.753 E8.28341
G1 X203.535 Y132.988 E8.34066
G1 X204.755 Y135.249 E8.42611
G1 X204.986 Y136.82 E8.47892
G1 X205.046 Y163.281 E9.35902
G1 X204.526 Y165.087 E9.42153
G1 X203.992 Y166.357 E9.46735
G1 X202.362 Y168.352 E9.55304
G1 X200.366 Y169.476 E9.62923
G1 X197.845 Y170.54 E9.72024
G1 X195.788 Y171.502 E9.79577
G1 X193.777 Y172.562 E9.87137
G1 X191.799 Y173.711 E9.94746
G1 X189.707 Y175.05 E10.03007
G1 X187.657 Y176.501 E10.1136
G1 X185.828 Y177.912 E10.19044
G1 X184.136 Y179.342 E10.26412
G1 X182.471 Y180.878 E10.33946
G1 X180.581 Y182.782 E10.42869
G1 X179.076 Y184.439 E10.50314
G1 X177.617 Y186.193 E10.57903
G1 X176.056 Y188.24 E10.66465
G1 X174.124 Y191.015 E10.77711
G1 X172.775 Y192.149 E10.83572
G1 X172.334 Y193.96 E10.89772
G1 X171.281 Y195.988 E10.97372
G1 X169.72 Y197.447 E11.04479
G1 X167.697 Y198.654 E11.12314
G1 X165.979 Y198.936 E11.18104
G0 F6000 X165.914 Y198.541
G1 F1200 X134.193 Y198.611 E12.23609
G1 X132.394 Y198.169 E12.29771
G1 X130.468 Y197.169 E12.36988
G1 X129.07 Y195.674 E12.43796
G1 X128.186 Y194.179 E12.49573
G1 X127.884 Y193.434 E12.52247
G1 X127.667 Y192.002 E12.57064
G1 X126.007 Y190.61 E12.64269
G1 X124.108 Y187.881 E12.75327
G1 X122.682 Y186.011 E12.83149
G1 X121.046 Y184.056 E12.91628
G1 X119.402 Y182.254 E12.99741
G1 X117.791 Y180.635 E13.07337
G1 X116.194 Y179.165 E13.14556
G1 X114.378 Y177.634 E13.22457
G1 X112.261 Y175.998 E13.31355
G1 X110.444 Y174.714 E13.38755
G1 X108.354 Y173.376 E13.47009
G1 X106.308 Y172.188 E13.54878
G1 X104.482 Y171.23 E13.61736
G1 X102.154 Y170.132 E13.70297
G1 X99.079 Y168.839 E13.81392
G1 X97.699 Y167.736 E13.87268
G1 X96.782 Y166.804 E13.91617
G1 X95.63 Y164.666 E13.99694
G1 X95.41 Y163.163 E14.04747
G1 X95.354 Y136.837 E14.92308
G1 X95.83 Y134.875 E14.99023
G1 X96.809 Y133.303 E15.05182
G1 X97.698 Y132.198 E15.09899
G1 X98.041 Y131.874 E15.11468
G1 X99.886 Y130.846 E15.18493
G1 X102.192 Y129.876 E15.26814
G1 X104.384 Y128.843 E15.34873
G1 X106.539 Y127.705 E15.42979
G1 X108.368 Y126.638 E15.50022
G1 X110.465 Y125.295 E15.58304
G1 X112.497 Y123.858 E15.66582
G1 X114.375 Y122.409 E15.74471
G1 X116.019 Y121.019 E15.81632
G1 X117.71 Y119.463 E15.89275
G1 X119.442 Y117.719 E15.9745
G1 X121.137 Y115.861 E16.05815
G1 X122.684 Y114.01 E16.13838
G1 X124.14 Y112.1 E16.21826
G1 X126.039 Y109.371 E16.32884
G1 X127.608 Y108.052 E16.39702
G1 X127.624 Y107.884 E16.40263
G1 X128.042 Y106.183 E16.46089
G1 X129.042 Y104.257 E16.53307
G1 X130.519 Y102.877 E16.6003
G1 X132.443 Y101.729 E16.67482
G1 X134.086 Y101.459 E16.7302
G1 X165.807 Y101.389 E17.78524
G1 X167.606 Y101.831 E17.84686
G1 X169.532 Y102.831 E17.91904
G1 X170.93 Y104.326 E17.98711
G1 X171.814 Y105.82 E18.04485
G1 X172.118 Y106.568 E18.07171
G1 X172.334 Y108.001 E18.11991
G1 X173.822 Y109.249 E18.1845
G1 X175.751 Y112.037 E18.29726
G1 X177.173 Y113.915 E18.37561
G1 X178.825 Y115.901 E18.46153
G1 X180.258 Y117.485 E18.53257
G1 X181.941 Y119.183 E18.61209
G1 X183.925 Y121.017 E18.70195
G1 X185.621 Y122.454 E18.77589
G1 X187.376 Y123.813 E18.84972
G1 X189.529 Y125.336 E18.93743
G1 X191.338 Y126.497 E19.00892
G1 X193.602 Y127.818 E19.0961
G1 X195.609 Y128.876 E19.17156
G1 X197.688 Y129.855 E19.248
G1 X200.684 Y131.112 E19.35606
G1 X202.077 Y132.061 E19.41212
G1 X203.21 Y133.228 E19.46622
G1 X204.369 Y135.376 E19.5474
G1 X204.59 Y136.878 E19.59789
G1 X204.646 Y163.227 E20.47426
G1 X204.157 Y164.932 E20.53326
G1 X203.645 Y166.149 E20.57717
G1 X202.099 Y168.042 E20.65846
G1 X200.21 Y169.107 E20.73059
G1 X197.689 Y170.171 E20.8216
G1 X195.601 Y171.148 E20.89827
G1 X193.59 Y172.208 E20.97388
G1 X191.583 Y173.374 E21.05108
G1 X189.482 Y174.719 E21.13406
G1 X187.426 Y176.174 E21.21783
G1 X185.57 Y177.606 E21.2958
G1 X183.878 Y179.036 E21.36948
G1 X182.187 Y180.596 E21.446
G1 X180.297 Y182.5 E21.53523
G1 X178.768 Y184.183 E21.61086
G1 X177.309 Y185.937 E21.68674
G1 X175.738 Y187.997 E21.77291
G1 X173.827 Y190.743 E21.88418
G1 X172.392 Y191.948 E21.94651
G1 X172.376 Y192.116 E21.95212
G1 X171.958 Y193.817 E22.01038
G1 X170.958 Y195.743 E22.08256
G1 X169.481 Y197.123 E22.14979
G1 X167.557 Y198.271 E22.22431
G1 X165.914 Y198.541 E22.27969
G0 F6000 X165.849 Y198.146
G1 F1200 X134.24 Y198.211 E23.33101
G1 X132.536 Y197.792 E23.38937
G1 X130.713 Y196.846 E23.45768
G1 X129.394 Y195.435 E23.52192
G1 X128.557 Y194.029 E23.57635
G1 X128.273 Y193.329 E23.60147
G1 X128.041 Y191.794 E23.65311
G1 X126.306 Y190.339 E23.72842
G1 X124.426 Y187.638 E23.83787
G1 X122.989 Y185.754 E23.91668
G1 X121.342 Y183.786 E24.00204
G1 X119.698 Y181.984 E24.08317
G1 X118.075 Y180.353 E24.15969
G1 X116.452 Y178.859 E24.23306
G1 X114.623 Y177.317 E24.31263
G1 X112.506 Y175.681 E24.40162
G1 X110.669 Y174.383 E24.47643
G1 X108.57 Y173.039 E24.55933
G1 X106.509 Y171.842 E24.6386
G1 X104.653 Y170.868 E24.70832
G1 X102.32 Y169.767 E24.79412
G1 X99.287 Y168.492 E24.90355
G1 X97.949 Y167.423 E24.96051
G1 X97.108 Y166.566 E25.00044
G1 X96.016 Y164.539 E25.07702
G1 X95.806 Y163.105 E25.12523
G1 X95.754 Y136.885 E25.99731
G1 X96.204 Y135.032 E26.06073
G1 X97.121 Y133.554 E26.11858
G1 X98.01 Y132.449 E26.16575
G1 X98.279 Y132.199 E26.17797
G1 X100.041 Y131.215 E26.24509
G1 X102.358 Y130.24 E26.3287
G1 X104.563 Y129.201 E26.40977
G1 X106.726 Y128.059 E26.49113
G1 X108.584 Y126.975 E26.56267
G1 X110.69 Y125.626 E26.64586
G1 X112.728 Y124.185 E26.72887
G1 X114.63 Y122.717 E26.80878
G1 X116.277 Y121.325 E26.88051
G1 X117.994 Y119.745 E26.95812
G1 X119.738 Y117.989 E27.04043
G1 X121.433 Y116.131 E27.12408
G1 X122.991 Y114.267 E27.20488
G1 X124.458 Y112.343 E27.28535
G1 X126.337 Y109.644 E27.39473
G1 X128 Y108.245 E27.46701
G1 X128.012 Y107.98 E27.47584
G1 X128.419 Y106.325 E27.53252
G1 X129.365 Y104.502 E27.60083
G1 X130.761 Y103.198 E27.66437
G1 X132.581 Y102.112 E27.73486
G1 X134.151 Y101.854 E27.78778
G1 X165.76 Y101.789 E28.8391
G1 X167.464 Y102.208 E28.89747
G1 X169.287 Y103.154 E28.96578
G1 X170.606 Y104.565 E29.03002
G1 X171.443 Y105.971 E29.08444
G1 X171.729 Y106.675 E29.10972
G1 X171.96 Y108.21 E29.16134
G1 X173.524 Y109.521 E29.22922
G1 X175.432 Y112.279 E29.34076
G1 X176.865 Y114.171 E29.4197
G1 X178.517 Y116.157 E29.50562
G1 X179.974 Y117.767 E29.57785
G1 X181.669 Y119.477 E29.65793
G1 X183.653 Y121.311 E29.74779
G1 X185.376 Y122.77 E29.82288
G1 X187.145 Y124.14 E29.8973
G1 X189.304 Y125.667 E29.98526
G1 X191.136 Y126.843 E30.05766
G1 X193.402 Y128.165 E30.14492
G1 X195.422 Y129.23 E30.22087
G1 X197.533 Y130.224 E30.29848
G1 X200.492 Y131.465 E30.4052
G1 X201.818 Y132.369 E30.45857
G1 X202.885 Y133.468 E30.50952
G1 X203.983 Y135.503 E30.58643
G1 X204.194 Y136.936 E30.6346
G1 X204.246 Y163.17 E31.50715
G1 X203.788 Y164.777 E31.56273
G1 X203.298 Y165.941 E31.60474
G1 X201.836 Y167.731 E31.68161
G1 X200.054 Y168.738 E31.74968
G1 X197.533 Y169.802 E31.84069
G1 X195.414 Y170.794 E31.91851
G1 X193.403 Y171.854 E31.99412
G1 X191.367 Y173.037 E32.07244
G1 X189.257 Y174.388 E32.15577
G1 X187.195 Y175.847 E32.23979
G1 X185.312 Y177.3 E32.31889
G1 X183.62 Y178.73 E32.39258
G1 X181.903 Y180.314 E32.47027
G1 X180.013 Y182.218 E32.5595
G1 X178.46 Y183.927 E32.63631
G1 X177.001 Y185.681 E32.71219
G1 X175.42 Y187.755 E32.79893
G1 X173.53 Y190.471 E32.90898
G1 X172 Y191.755 E32.97542
G1 X171.988 Y192.02 E32.98424
G1 X171.581 Y193.675 E33.04093
G1 X170.635 Y195.498 E33.10924
G1 X169.239 Y196.802 E33.17277
G1 X167.419 Y197.888 E33.24326
G1 X165.849 Y198.146 E33.29618
G0 F6000 X165.784 Y197.751
G1 F1200 X134.286 Y197.811 E34.34381
G1 X132.679 Y197.416 E34.39885
G1 X130.958 Y196.523 E34.46334
G1 X129.718 Y195.196 E34.52375
G1 X128.901 Y193.824 E34.57686
G1 X128.661 Y193.223 E34.59838
G1 X128.413 Y191.585 E34.65348
G1 X126.605 Y190.068 E34.73198
G1 X124.744 Y187.395 E34.84031
G1 X123.296 Y185.497 E34.91971
G1 X121.638 Y183.516 E35.00563
G1 X119.994 Y181.714 E35.08676
G1 X118.359 Y180.071 E35.16386
G1 X116.71 Y178.553 E35.2384
G1 X114.868 Y177 E35.31854
G1 X112.751 Y175.364 E35.40752
G1 X110.894 Y174.052 E35.48315
G1 X108.786 Y172.702 E35.5664
G1 X106.71 Y171.496 E35.64626
G1 X104.824 Y170.506 E35.7171
G1 X102.486 Y169.402 E35.8031
G1 X99.495 Y168.145 E35.91101
G1 X98.199 Y167.11 E35.96617
G1 X97.433 Y166.326 E36.00263
G1 X96.402 Y164.412 E36.07494
G1 X96.202 Y163.047 E36.12082
G1 X96.154 Y136.933 E36.98938
G1 X96.578 Y135.187 E37.04914
G1 X97.433 Y133.805 E37.10319
G1 X98.322 Y132.7 E37.15036
G1 X98.515 Y132.526 E37.159
G1 X100.196 Y131.584 E37.22309
G1 X102.513 Y130.609 E37.3067
G1 X104.75 Y129.555 E37.38895
G1 X106.913 Y128.413 E37.4703
G1 X108.8 Y127.312 E37.54297
G1 X110.915 Y125.957 E37.62651
G1 X112.959 Y124.512 E37.70977
G1 X114.874 Y123.034 E37.79022
G1 X116.548 Y121.619 E37.86313
G1 X118.278 Y120.027 E37.94132
G1 X120.034 Y118.259 E38.0242
G1 X121.729 Y116.401 E38.10785
G1 X123.298 Y114.524 E38.18922
G1 X124.776 Y112.586 E38.27028
G1 X126.634 Y109.916 E38.37847
G1 X128.4 Y108.431 E38.45522
G1 X128.4 Y108.075 E38.46706
G1 X128.795 Y106.468 E38.5221
G1 X129.688 Y104.747 E38.58659
G1 X131.003 Y103.519 E38.64643
G1 X132.719 Y102.495 E38.71289
G1 X134.216 Y102.249 E38.76335
G1 X165.714 Y102.189 E39.81098
G1 X167.321 Y102.584 E39.86602
G1 X169.042 Y103.477 E39.93051
G1 X170.282 Y104.804 E39.99091
G1 X171.099 Y106.176 E40.04403
G1 X171.339 Y106.777 E40.06555
G1 X171.587 Y108.419 E40.12078
G1 X173.226 Y109.793 E40.19192
G1 X175.113 Y112.521 E40.30224
G1 X176.557 Y114.427 E40.38177
G1 X178.209 Y116.413 E40.46769
G1 X179.69 Y118.049 E40.54109
G1 X181.397 Y119.771 E40.62174
G1 X183.381 Y121.605 E40.7116
G1 X185.119 Y123.077 E40.78735
G1 X186.914 Y124.467 E40.86286
G1 X189.079 Y125.998 E40.95106
G1 X190.92 Y127.18 E41.02382
G1 X193.215 Y128.519 E41.1122
G1 X195.235 Y129.584 E41.18815
G1 X197.378 Y130.593 E41.26693
G1 X200.304 Y131.82 E41.37246
G1 X201.556 Y132.674 E41.42287
G1 X202.56 Y133.708 E41.4708
G1 X203.597 Y135.63 E41.54344
G1 X203.798 Y136.994 E41.5893
G1 X203.846 Y163.113 E42.45802
G1 X203.403 Y164.667 E42.51176
G1 X202.953 Y165.731 E42.55019
G1 X201.573 Y167.42 E42.62273
G1 X199.898 Y168.369 E42.68676
G1 X197.377 Y169.433 E42.77777
G1 X195.227 Y170.44 E42.85674
G1 X193.216 Y171.5 E42.93235
G1 X191.151 Y172.7 E43.01178
G1 X189.032 Y174.057 E43.09547
G1 X186.964 Y175.52 E43.17973
G1 X185.054 Y176.994 E43.25997
G1 X183.362 Y178.424 E43.33366
G1 X181.619 Y180.032 E43.41253
G1 X179.729 Y181.936 E43.50176
G1 X178.152 Y183.671 E43.57974
G1 X176.693 Y185.425 E43.65562
G1 X175.102 Y187.512 E43.74291
G1 X173.231 Y190.2 E43.85184
G1 X171.6 Y191.569 E43.92266
G1 X171.6 Y191.925 E43.9345
G1 X171.205 Y193.532 E43.98954
G1 X170.312 Y195.253 E44.05403
G1 X168.997 Y196.481 E44.11387
G1 X167.281 Y197.505 E44.18034
G1 X165.784 Y197.751 E44.23079
G0 F6000 X165.719 Y197.356
G1 F1200 X134.332 Y197.411 E45.27473
G1 X132.822 Y197.04 E45.32645
G1 X131.203 Y196.2 E45.38711
G1 X130.042 Y194.957 E45.44368
G1 X129.245 Y193.619 E45.49548
G1 X129.05 Y193.119 E45.51333
G1 X128.832 Y191.675 E45.5619
G1 X128.822 Y191.405 E45.57089
G1 X126.902 Y189.795 E45.65423
G1 X125.062 Y187.152 E45.76134
G1 X123.603 Y185.24 E45.84133
G1 X121.934 Y183.246 E45.92782
G1 X120.29 Y181.444 E46.00895
G1 X118.643 Y179.789 E46.08661
G1 X116.968 Y178.247 E46.16233
G1 X115.113 Y176.683 E46.24303
G1 X112.996 Y175.047 E46.33202
G1 X111.119 Y173.721 E46.40846
G1 X109.002 Y172.365 E46.49207
G1 X106.911 Y171.15 E46.57251
G1 X104.995 Y170.144 E46.64449
G1 X102.652 Y169.037 E46.73067
G1 X99.7 Y167.797 E46.83717
G1 X98.485 Y166.83 E46.88882
G1 X97.758 Y166.086 E46.92341
G1 X96.788 Y164.285 E46.99145
G1 X96.598 Y162.989 E47.03502
G1 X96.554 Y136.981 E47.90005
G1 X96.952 Y135.342 E47.95615
G1 X97.745 Y134.056 E48.0064
G1 X98.634 Y132.951 E48.05357
G1 X98.749 Y132.854 E48.05857
G1 X100.351 Y131.953 E48.1197
G1 X102.668 Y130.978 E48.20331
G1 X104.937 Y129.909 E48.28673
G1 X107.1 Y128.767 E48.36809
G1 X109.016 Y127.649 E48.44187
G1 X111.14 Y126.288 E48.52577
G1 X113.19 Y124.839 E48.60927
G1 X115.118 Y123.351 E48.69027
G1 X116.819 Y121.913 E48.76435
G1 X118.562 Y120.309 E48.84314
G1 X120.33 Y118.529 E48.92658
G1 X122.025 Y116.671 E49.01023
G1 X123.605 Y114.781 E49.09217
G1 X125.094 Y112.829 E49.17382
G1 X126.933 Y110.187 E49.28089
G1 X128.8 Y108.617 E49.36202
G1 X128.8 Y108.121 E49.37852
G1 X129.171 Y106.611 E49.43024
G1 X130.011 Y104.992 E49.4909
G1 X131.245 Y103.84 E49.54705
G1 X132.857 Y102.878 E49.60948
G1 X134.281 Y102.644 E49.65748
G1 X165.668 Y102.589 E50.70142
G1 X167.178 Y102.96 E50.75314
G1 X168.797 Y103.8 E50.8138
G1 X169.958 Y105.043 E50.87037
G1 X170.755 Y106.381 E50.92217
G1 X170.95 Y106.881 E50.94002
G1 X171.168 Y108.325 E50.98859
G1 X171.178 Y108.596 E50.99761
G1 X172.926 Y110.063 E51.07351
G1 X174.794 Y112.763 E51.18271
G1 X176.249 Y114.683 E51.26284
G1 X177.901 Y116.669 E51.34876
G1 X179.406 Y118.331 E51.42333
G1 X181.125 Y120.065 E51.50454
G1 X183.109 Y121.899 E51.5944
G1 X184.862 Y123.384 E51.67082
G1 X186.683 Y124.794 E51.74742
G1 X188.854 Y126.329 E51.83585
G1 X190.704 Y127.517 E51.90898
G1 X193.023 Y128.87 E51.99828
