;FLAVOR:Marlin
;TIME:31911
;Filament used: 19.9567m
;Layer height: 0.2
;MINX:-0.142
;MINY:0
;MINZ:0.2
;MAXX:300.188
;MAXY:300
;MAXZ:15
;TARGET_MACHINE.NAME:Creality Ender-3 Max
;Generated with Cura_SteamEngine 5.9.1
M140 S60
M105
M190 S60
M104 S200
M105
M109 S200
M82 ;absolute extrusion mode
; Ender 3 Max Custom Start G-code
G92 E0 ; Reset Extruder
G28 ; Home all axes
G1 Z2.0 F3000 ; Move Z Axis up little to prevent scratching of Heat Bed
G1 X0.1 Y20 Z0.3 F5000.0 ; Move to start position
G1 X0.1 Y200.0 Z0.3 F1500.0 E15 ; Draw the first line
G1 X0.4 Y200.0 Z0.3 F5000.0 ; Move to side a little
G1 X0.4 Y20 Z0.3 F1500.0 E30 ; Draw the second line
G92 E0 ; Reset Extruder
G1 Z2.0 F3000 ; Move Z Axis up little to prevent scratching of Heat Bed
G1 X5 Y20 Z0.3 F5000.0 ; Move over to prevent blob squish
G92 E0
G92 E0
G1 F1500 E-6.5
;LAYER_COUNT:75
;LAYER:0
M107
G0 F6000 X0.00 Y2.189 Z0.2
;TYPE:SKIRT
G1 F1500 E0
G1 F1200 X0.242 Y1.723 E0.01746
G1 X1.8 Y0.267 E0.08839
G1 X2.247 Y0.00 E0.10571
G0 F6000 X3.027 Y0.00
G1 F1200 X2.042 Y0.588 E0.14386
G1 X0.565 Y1.968 E0.21109
G1 X0.00 Y3.056 E0.25187
G0 F6000 X0.00 Y3.924
G1 F1200 X0.888 Y2.213 E0.31598
G1 X2.284 Y0.909 E0.37952
G1 X3.807 Y0.00 E0.43851
G1 F1500 E-6.06149
G0 F6000 X5.496 Y0.00
G1 F1500 E0.43851
G1 F1200 X4.242 Y0.206 E0.48078
G1 X2.526 Y1.23 E0.54724
G1 X1.211 Y2.458 E0.60709
G1 X0.318 Y4.179 E0.67157
G1 X0.00 Y5.473 E0.71589
G1 F1500 E-5.78411
G0 F6000 X0.00 Y135.556
G1 F1500 E0.71589
G1 F1200 X0.324 Y135.59 E0.72673
G1 X0.325 Y164.422 E1.68568
G1 X0.00 Y164.454 E1.69655
G0 F6000 X0.00 Y164.856
G1 F1200 X0.294 Y164.822 E1.70639
G1 X0.725 Y164.819 E1.72073
G1 X0.724 Y135.191 E2.70616
G1 X0.186 Y135.19 E2.72405
G1 X0.00 Y135.155 E2.73035
G0 F6000 X0.00 Y134.748
G1 F1200 X0.187 Y134.79 E2.73672
G1 X1.124 Y134.792 E2.76789
G1 X1.125 Y165.217 E3.77983
G1 X0.296 Y165.222 E3.8074
G1 X0.00 Y165.258 E3.81732
G0 F6000 X0.00 Y165.661
G1 F1200 X0.299 Y165.622 E3.82734
G1 X1.525 Y165.614 E3.86812
G1 X1.524 Y134.392 E4.90657
G1 X0.237 Y134.393 E4.94938
G1 X0.00 Y134.363 E4.95732
G0 F6000 X0.00 Y133.96
G1 F1200 X0.237 Y133.993 E4.96528
G1 X1.924 Y133.992 E5.02139
G1 X1.925 Y166.012 E6.08638
G1 X0.351 Y166.019 E6.13873
G1 X0.00 Y166.065 E6.15051
G0 F6000 X0.00 Y166.469
G1 F1200 X0.403 Y166.416 E6.16403
G1 X2.325 Y166.411 E6.22795
G1 X2.324 Y133.592 E7.31952
G1 X0.237 Y133.593 E7.38893
G1 X0.00 Y133.556 E7.39691
G0 F6000 X0.00 Y133.151
G1 F1200 X0.237 Y133.193 E7.40491
G1 X2.724 Y133.192 E7.48763
G1 X2.725 Y166.81 E8.60577
G1 X0.455 Y166.813 E8.68127
G1 X0.00 Y166.873 E8.69654
G0 F6000 X0.00 Y167.276
G1 F1200 X0.455 Y167.213 E8.71181
G1 X3.125 Y167.21 E8.80062
G1 X3.124 Y132.792 E9.94537
G1 X0.237 Y132.793 E10.04139
G1 X0.00 Y132.744 E10.04944
G0 F6000 X0.00 Y132.336
G1 F1200 X0.237 Y132.393 E10.05754
G1 X3.524 Y132.392 E10.16687
G1 X3.525 Y167.609 E11.33819
G1 X0.456 Y167.613 E11.44027
G1 X0.00 Y167.68 E11.4556
G0 F6000 X0.00 Y168.084
G1 F1200 X0.457 Y168.013 E11.47098
G1 X3.925 Y168.008 E11.58633
G1 X3.924 Y131.992 E12.78422
G1 X0.284 Y131.993 E12.90529
G1 X0.00 Y131.925 E12.915
G0 F6000 X0.00 Y131.513
G1 F1200 X0.332 Y131.593 E12.92636
G1 X4.324 Y131.592 E13.05914
G1 X4.325 Y168.407 E14.28361
G1 X0.458 Y168.413 E14.41222
G1 X0.00 Y168.489 E14.42767
G0 F6000 X0.00 Y168.907
G1 F1200 X0.046 Y168.887 E14.42933
G1 X0.523 Y168.808 E14.44542
G1 X4.725 Y168.807 E14.58517
G1 X4.724 Y131.192 E15.83625
G1 X0.379 Y131.193 E15.98077
G1 X0.00 Y131.102 E15.99373
G0 F6000 X0.00 Y130.669
G1 F1200 X0.091 Y130.712 E15.99708
G1 X0.427 Y130.793 E16.00858
G1 X5.124 Y130.792 E16.1648
G1 X5.125 Y169.207 E17.44249
G1 X0.523 Y169.208 E17.59555
G1 X0.117 Y169.281 E17.60927
G1 X0.00 Y169.341 E17.61364
G0 F6000 X0.00 Y169.789
G1 F1200 X0.195 Y169.673 E17.62119
G1 X0.523 Y169.608 E17.63231
G1 X5.525 Y169.607 E17.79868
G1 X5.524 Y130.392 E19.10298
G1 X0.475 Y130.393 E19.27091
G1 X0.185 Y130.323 E19.28083
G1 X0.00 Y130.227 E19.28776
G1 F1500 E12.78776
G0 F6000 X0.00 Y296.559
G1 F1500 E19.28776
G1 F1200 X0.289 Y297.041 E19.30645
G1 X1.699 Y298.572 E19.37568
G1 X3.832 Y299.705 E19.45601
G1 X5.222 Y300 E19.50327
G1 F1500 E13.00327
G0 F6000 X0.00 Y295.781
G1 F1500 E19.50327
G1 F1200 X0.612 Y296.801 E19.54284
G1 X1.947 Y298.251 E19.60839
G1 X3.971 Y299.326 E19.68461
G1 X5.857 Y299.726 E19.74874
G1 X73.119 Y300 E21.9859
G1 F1500 E15.4859
G0 F6000 X0.00 Y295.004
G1 F1500 E21.9859
G1 F1200 X0.935 Y296.561 E22.04631
G1 X2.195 Y297.93 E22.10819
G1 X4.11 Y298.947 E22.18031
G1 X5.898 Y299.326 E22.2411
G1 X171.314 Y300 E27.7429
G1 F1500 E21.2429
G0 F6000 X269.486 Y300
G1 F1500 E27.7429
G1 F1200 X5.939 Y298.926 E36.50858
G1 X4.249 Y298.568 E36.56604
G1 X2.443 Y297.609 E36.63405
G1 X1.258 Y296.321 E36.69226
G1 X0.27 Y294.676 E36.75609
G1 X0.00 Y293.277 E36.80348
G1 F1500 E30.30348
G0 F6000 X297.784 Y300
G1 F1500 E36.80348
G1 F1200 X298.255 Y299.719 E36.82172
G1 X299.801 Y298.291 E36.89172
G1 X300 Y297.906 E36.90613
G0 F6000 X300 Y297.034
G1 F1200 X299.478 Y298.045 E36.94397
G1 X298.013 Y299.398 E37.0103
G1 X297.005 Y300 E37.04935
G0 F6000 X296.226 Y300
G1 F1200 X297.769 Y299.079 E37.10912
G1 X299.157 Y297.796 E37.17199
G1 X300 Y296.163 E37.23311
G0 F6000 X300 Y294.722
G1 F1200 X299.734 Y295.807 E37.27027
G1 X298.834 Y297.55 E37.33551
G1 X297.527 Y298.758 E37.3947
G1 X295.853 Y299.757 E37.45954
G1 X294.558 Y300 E37.50337
G1 F1500 E31.00337
G0 F6000 X300 Y183.553
G1 F1500 E37.50337
G1 F1200 X299.723 Y183.578 E37.51262
G1 X299.723 Y294.174 E41.19105
G1 X299.357 Y295.666 E41.24215
G1 X298.512 Y297.303 E41.30342
G1 X297.285 Y298.437 E41.35899
G1 X295.71 Y299.377 E41.42
G1 X293.989 Y299.7 E41.47824
G1 X5.98 Y298.526 E51.05754
G1 X4.388 Y298.189 E51.11166
G1 X2.691 Y297.288 E51.17556
G1 X1.581 Y296.081 E51.2301
G1 X0.65 Y294.531 E51.29024
G1 X0.326 Y292.853 E51.34708
G1 X0.325 Y183.588 E54.98125
G1 X0.00 Y183.575 E54.99207
G0 F6000 X0.00 Y183.153
G1 F1200 X0.158 Y183.187 E54.99745
G1 X0.725 Y183.189 E55.0163
G1 X0.726 Y292.813 E58.66241
G1 X1.03 Y294.386 E58.7157
G1 X1.904 Y295.841 E58.77215
G1 X2.939 Y296.967 E58.82302
G1 X4.527 Y297.81 E58.88282
G1 X6.021 Y298.126 E58.93361
G1 X293.953 Y299.3 E68.51035
G1 X295.567 Y298.997 E68.56497
G1 X297.043 Y298.116 E68.62214
G1 X298.189 Y297.057 E68.67404
G1 X298.981 Y295.523 E68.73146
G1 X299.323 Y294.128 E68.77923
G1 X299.323 Y183.181 E72.46934
G1 X299.748 Y183.178 E72.48348
G1 X300 Y183.151 E72.49191
G0 F6000 X300 Y182.748
G1 F1200 X299.705 Y182.78 E72.50178
G1 X298.923 Y182.783 E72.52778
G1 X298.923 Y294.078 E76.22947
G1 X298.603 Y295.384 E76.27419
G1 X297.866 Y296.811 E76.32761
G1 X296.801 Y297.795 E76.37584
G1 X295.424 Y298.617 E76.42918
G1 X293.917 Y298.9 E76.48018
G1 X6.062 Y297.726 E86.05435
G1 X4.666 Y297.431 E86.10181
G1 X3.189 Y296.647 E86.15743
G1 X2.225 Y295.598 E86.20481
G1 X1.41 Y294.241 E86.25746
G1 X1.126 Y292.773 E86.30719
G1 X1.125 Y182.79 E89.96524
G1 X0.159 Y182.787 E89.99737
G1 X0.00 Y182.744 E90.00285
G0 F6000 X0.00 Y182.357
G1 F1200 X0.16 Y182.387 E90.00826
G1 X1.525 Y182.391 E90.05366
G1 X1.526 Y292.733 E93.72365
G1 X1.79 Y294.096 E93.76983
G1 X2.546 Y295.355 E93.81867
G1 X3.44 Y296.328 E93.86262
G1 X4.803 Y297.051 E93.91394
G1 X6.103 Y297.326 E93.95813
G1 X293.881 Y298.5 E103.52975
G1 X295.281 Y298.237 E103.57713
G1 X296.559 Y297.474 E103.62663
G1 X297.544 Y296.564 E103.67123
G1 X298.226 Y295.243 E103.72068
G1 X298.523 Y294.032 E103.76215
G1 X298.523 Y182.385 E107.47555
G1 X299.703 Y182.38 E107.51479
G1 X300 Y182.346 E107.52474
G0 F6000 X300 Y181.944
G1 F1200 X299.701 Y181.98 E107.53475
G1 X298.123 Y181.987 E107.58724
G1 X298.123 Y293.982 E111.31221
G1 X297.848 Y295.104 E111.35063
G1 X297.221 Y296.318 E111.39608
G1 X296.317 Y297.153 E111.43701
G1 X295.138 Y297.857 E111.48268
G1 X293.845 Y298.1 E111.52644
G1 X6.144 Y296.926 E121.09549
G1 X4.941 Y296.672 E121.13638
G1 X3.69 Y296.008 E121.18349
G1 X2.867 Y295.112 E121.22396
G1 X2.17 Y293.951 E121.26899
G1 X1.926 Y292.693 E121.31162
G1 X1.925 Y181.992 E124.99355
G1 X0.161 Y181.987 E125.05222
G1 X0.00 Y181.951 E125.0577
G0 F6000 X0.00 Y181.541
G1 F1200 X0.162 Y181.587 E125.06331
G1 X2.325 Y181.593 E125.13525
G1 X2.326 Y292.653 E128.82912
G1 X2.55 Y293.806 E128.86818
G1 X3.188 Y294.869 E128.90942
G1 X3.941 Y295.689 E128.94645
G1 X5.078 Y296.292 E128.98925
G1 X6.185 Y296.526 E129.02689
G1 X293.809 Y297.7 E138.59338
G1 X294.995 Y297.477 E138.63352
G1 X296.075 Y296.832 E138.67536
G1 X296.899 Y296.071 E138.71266
G1 X297.471 Y294.963 E138.75413
G1 X297.723 Y293.936 E138.78931
G1 X297.723 Y181.589 E142.52598
G1 X299.699 Y181.58 E142.59171
G1 X300 Y181.541 E142.6018
G0 F6000 X300 Y181.137
G1 F1200 X299.647 Y181.183 E142.61364
G1 X297.323 Y181.19 E142.69094
G1 X297.323 Y293.89 E146.43935
G1 X297.095 Y294.82 E146.4712
G1 X296.576 Y295.825 E146.50882
G1 X295.833 Y296.511 E146.54246
G1 X294.852 Y297.097 E146.58046
G1 X293.773 Y297.3 E146.61698
G1 X6.226 Y296.126 E156.18091
G1 X5.215 Y295.912 E156.21528
G1 X4.192 Y295.37 E156.25379
G1 X3.509 Y294.626 E156.28738
G1 X2.93 Y293.661 E156.32481
G1 X2.726 Y292.613 E156.36032
G1 X2.725 Y181.193 E160.06617
G1 X0.233 Y181.193 E160.14905
G1 X0.00 Y181.151 E160.15692
G0 F6000 X0.00 Y180.745
G1 F1200 X0.233 Y180.793 E160.16484
G1 X3.125 Y180.793 E160.26103
G1 X3.126 Y292.572 E163.97881
G1 X3.31 Y293.516 E164.0108
G1 X3.832 Y294.386 E164.04454
G1 X4.439 Y295.048 E164.07442
G1 X5.355 Y295.533 E164.10889
G1 X6.267 Y295.726 E164.1399
G1 X293.737 Y296.9 E173.70127
G1 X294.709 Y296.717 E173.73416
G1 X295.591 Y296.19 E173.76834
G1 X296.254 Y295.578 E173.79835
G1 X296.718 Y294.679 E173.83199
G1 X296.923 Y293.844 E173.86059
G1 X296.923 Y180.791 E177.62075
G1 X299.646 Y180.783 E177.71132
G1 X300 Y180.734 E177.7232
G0 F6000 X300 Y180.33
G1 F1200 X299.645 Y180.383 E177.73514
G1 X296.523 Y180.392 E177.83898
G1 X296.523 Y293.798 E181.61088
G1 X296.342 Y294.536 E181.63615
G1 X295.931 Y295.332 E181.66595
G1 X295.349 Y295.869 E181.69229
G1 X294.566 Y296.337 E181.72263
G1 X293.701 Y296.5 E181.7519
G1 X6.308 Y295.326 E191.31071
G1 X5.495 Y295.154 E191.33835
G1 X4.686 Y294.726 E191.36879
G1 X4.155 Y294.146 E191.39495
G1 X3.69 Y293.371 E191.42501
G1 X3.526 Y292.531 E191.45347
G1 X3.525 Y180.393 E195.1832
G1 X0.233 Y180.393 E195.29269
G1 X0.00 Y180.336 E195.30067
G0 F6000 X0.00 Y179.924
G1 F1200 X0.28 Y179.993 E195.31026
G1 X3.925 Y179.993 E195.43149
G1 X3.926 Y292.49 E199.17316
G1 X4.07 Y293.226 E199.1981
G1 X4.478 Y293.907 E199.22451
G1 X4.933 Y294.404 E199.24692
G1 X5.635 Y294.775 E199.27333
G1 X6.349 Y294.926 E199.2976
G1 X293.665 Y296.1 E208.85385
G1 X294.423 Y295.957 E208.87951
G1 X295.107 Y295.548 E208.90601
G1 X295.608 Y295.086 E208.92868
G1 X295.964 Y294.397 E208.95447
G1 X296.123 Y293.748 E208.9767
G1 X296.123 Y179.993 E212.7602
G1 X299.586 Y179.987 E212.87538
G1 X300 Y179.925 E212.88931
G0 F6000 X300 Y179.52
G1 F1200 X299.527 Y179.591 E212.90522
G1 X295.723 Y179.593 E213.03174
G1 X295.723 Y293.698 E216.82688
G1 X295.586 Y294.258 E216.84606
G1 X295.286 Y294.838 E216.86778
G1 X294.863 Y295.229 E216.88694
G1 X294.28 Y295.577 E216.90952
G1 X293.629 Y295.7 E216.93156
G1 X6.39 Y294.526 E226.48524
G1 X5.775 Y294.396 E226.50615
G1 X5.18 Y294.082 E226.52853
G1 X4.799 Y293.666 E226.54729
G1 X4.45 Y293.083 E226.56989
G1 X4.326 Y292.449 E226.59137
G1 X4.325 Y179.593 E230.34498
G1 X0.326 Y179.593 E230.47799
G1 X0.00 Y179.513 E230.48915
G0 F6000 X0.00 Y179.101
G1 F1200 X0.376 Y179.193 E230.50203
G1 X4.725 Y179.193 E230.64668
G1 X4.726 Y292.408 E234.41222
G1 X4.83 Y292.94 E234.43025
G1 X5.12 Y293.425 E234.44905
G1 X5.427 Y293.76 E234.46416
G1 X5.914 Y294.017 E234.48247
G1 X6.431 Y294.126 E234.50005
G1 X293.593 Y295.3 E244.05117
G1 X294.137 Y295.197 E244.06959
G1 X294.621 Y294.908 E244.08834
G1 X294.963 Y294.592 E244.10383
G1 X295.208 Y294.119 E244.12154
G1 X295.323 Y293.648 E244.13767
G1 X295.323 Y179.193 E247.94446
G1 X299.527 Y179.191 E248.08428
G1 X300 Y179.112 E248.10023
G0 F6000 X300 Y178.683
G1 F1200 X299.918 Y178.724 E248.10328
G1 X299.527 Y178.791 E248.11648
G1 X294.923 Y178.793 E248.26961
G1 X294.923 Y293.598 E252.08804
G1 X294.83 Y293.98 E252.10111
G1 X294.64 Y294.346 E252.11483
G1 X294.383 Y294.584 E252.12648
G1 X293.992 Y294.817 E252.14162
G1 X293.556 Y294.9 E252.15638
G1 X6.476 Y293.726 E261.70478
G1 X6.051 Y293.637 E261.71922
G1 X5.674 Y293.438 E261.7334
G1 X5.441 Y293.184 E261.74486
G1 X5.21 Y292.797 E261.75985
G1 X5.126 Y292.367 E261.77443
G1 X5.125 Y178.793 E265.55191
G1 X0.425 Y178.793 E265.70823
G1 X0.091 Y178.712 E265.71967
G1 X0.00 Y178.669 E265.72301
G0 F6000 X0.00 Y178.227
G1 F1200 X0.185 Y178.323 E265.72995
G1 X0.474 Y178.393 E265.73984
G1 X5.525 Y178.393 E265.90783
G1 X5.526 Y292.326 E269.69726
G1 X5.59 Y292.652 E269.70831
G1 X5.785 Y292.979 E269.72097
G1 X5.922 Y293.117 E269.72744
G1 X6.186 Y293.256 E269.73736
G1 X6.521 Y293.326 E269.74875
G1 X293.518 Y294.5 E279.29438
G1 X293.847 Y294.437 E279.30553
G1 X294.178 Y294.24 E279.31834
G1 X294.316 Y294.101 E279.32485
G1 X294.453 Y293.838 E279.33472
G1 X294.523 Y293.549 E279.34461
G1 X294.523 Y178.393 E283.17471
G1 X299.527 Y178.391 E283.34114
G1 X299.844 Y178.331 E283.35187
G1 X300 Y178.238 E283.35791
G1 F1500 E276.85791
G0 F6000 X294.176 Y294.156
G0 X5.873 Y292.976
G0 X5.722 Y177.396
G1 F1500 E283.35791
G1 F1200 X5.884 Y177.312 E283.36398
G1 X5.923 Y177.193 E283.36815
G1 X5.923 Y170.807 E283.58055
G1 X5.875 Y170.677 E283.58516
G1 X5.72 Y170.6 E283.59091
G1 X5.642 Y170.446 E283.59666
G1 X5.523 Y170.407 E283.60082
G1 X0.523 Y170.408 E283.76712
G1 X0.362 Y170.489 E283.77312
G1 X0.323 Y170.608 E283.77728
G1 X0.323 Y177.393 E284.00295
G1 X0.404 Y177.554 E284.00895
G1 X0.523 Y177.593 E284.01311
G1 X5.523 Y177.593 E284.17941
G1 X5.684 Y177.512 E284.18541
G1 X5.722 Y177.396 E284.18947
G1 F1500 E277.68947
G0 F6000 X5.87 Y5.847
G0 X297.89 Y0.00
G1 F1500 E284.18947
G1 F1200 X298.305 Y0.215 E284.20501
G1 X299.785 Y1.81 E284.27738
G1 X300 Y2.171 E284.29136
G0 F6000 X300 Y2.954
G1 F1200 X299.461 Y2.049 E284.32639
G1 X298.059 Y0.538 E284.39495
G1 X297.022 Y0.00 E284.4338
G0 F6000 X296.154 Y0.00
G1 F1200 X297.813 Y0.861 E284.49597
G1 X299.137 Y2.288 E284.56072
G1 X300 Y3.736 E284.61678
G1 F1500 E278.11678
G0 F6000 X300 Y5.331
G1 F1500 E284.61678
G1 F1200 X299.817 Y4.211 E284.65453
G1 X298.813 Y2.527 E284.71974
G1 X297.567 Y1.184 E284.78067
G1 X295.823 Y0.279 E284.84602
G1 X294.663 Y0.00 E284.8857
G1 F1500 E278.3857
G0 F6000 X300 Y116.44
G1 F1500 E284.8857
G1 F1200 X299.723 Y116.413 E284.89496
G1 X299.668 Y5.781 E288.57459
G1 X299.434 Y4.351 E288.62279
G1 X298.489 Y2.766 E288.68416
G1 X297.321 Y1.507 E288.74128
G1 X295.683 Y0.657 E288.80266
G1 X294.199 Y0.3 E288.85343
G1 X5.804 Y0.355 E298.44548
G1 X4.38 Y0.589 E298.49348
G1 X2.768 Y1.551 E298.55592
G1 X1.534 Y2.703 E298.61207
G1 X0.694 Y4.322 E298.67273
G1 X0.323 Y5.832 E298.72445
G1 X0.324 Y116.422 E302.40269
G1 X0.00 Y116.454 E302.41351
G0 F6000 X0.00 Y116.856
G1 F1200 X0.294 Y116.822 E302.42336
G1 X0.724 Y116.819 E302.43766
G1 X0.723 Y5.879 E306.12754
G1 X1.071 Y4.464 E306.17601
G1 X1.857 Y2.948 E306.2328
G1 X3.01 Y1.872 E306.28526
G1 X4.518 Y0.972 E306.34367
G1 X5.869 Y0.75 E306.3892
G1 X294.151 Y0.7 E315.9775
G1 X295.543 Y1.035 E316.02512
G1 X297.075 Y1.83 E316.08253
G1 X298.165 Y3.005 E316.13583
G1 X299.051 Y4.491 E316.19338
G1 X299.273 Y5.846 E316.23905
G1 X299.323 Y116.812 E319.92979
G1 X299.844 Y116.813 E319.94712
G1 X300 Y116.841 E319.95239
G0 F6000 X300 Y117.247
G1 F1200 X299.843 Y117.213 E319.95773
G1 X298.923 Y117.211 E319.98833
G1 X298.878 Y5.911 E323.69019
G1 X298.668 Y4.631 E323.73333
G1 X297.841 Y3.244 E323.78704
G1 X296.829 Y2.153 E323.83653
G1 X295.403 Y1.413 E323.88997
G1 X294.103 Y1.1 E323.93444
G1 X5.934 Y1.145 E333.51898
G1 X4.656 Y1.355 E333.56206
G1 X3.252 Y2.193 E333.61644
G1 X2.18 Y3.193 E333.6652
G1 X1.447 Y4.607 E333.71817
G1 X1.123 Y5.925 E333.76331
G1 X1.124 Y117.217 E337.4649
G1 X0.296 Y117.222 E337.49244
G1 X0.00 Y117.258 E337.50236
G0 F6000 X0.00 Y117.661
G1 F1200 X0.299 Y117.622 E337.51239
G1 X1.524 Y117.614 E337.55313
G1 X1.523 Y5.971 E341.26639
G1 X1.823 Y4.75 E341.30821
G1 X2.502 Y3.44 E341.35729
G1 X3.497 Y2.512 E341.40254
G1 X4.794 Y1.738 E341.45278
