;FLAVOR:Marlin
;TIME:30941
;Filament used: 19.4518m
;Layer height: 0.2
;MINX:-0.165
;MINY:6.696
;MINZ:0.2
;MAXX:300.165
;MAXY:294.155
;MAXZ:15
;TARGET_MACHINE.NAME:Creality Ender-3 Max
;Generated with Cura_SteamEngine 5.9.1
M140 S60
M105
M190 S60
M104 S200
M105
M109 S200
M82 ;absolute extrusion mode
; Ender 3 Max Custom Start G-code
G92 E0 ; Reset Extruder
G28 ; Home all axes
G1 Z2.0 F3000 ; Move Z Axis up little to prevent scratching of Heat Bed
G1 X0.1 Y20 Z0.3 F5000.0 ; Move to start position
G1 X0.1 Y200.0 Z0.3 F1500.0 E15 ; Draw the first line
G1 X0.4 Y200.0 Z0.3 F5000.0 ; Move to side a little
G1 X0.4 Y20 Z0.3 F1500.0 E30 ; Draw the second line
G92 E0 ; Reset Extruder
G1 Z2.0 F3000 ; Move Z Axis up little to prevent scratching of Heat Bed
G1 X5 Y20 Z0.3 F5000.0 ; Move over to prevent blob squish
G92 E0
G92 E0
G1 F1500 E-6.5
;LAYER_COUNT:75
;LAYER:0
M107
G0 F6000 X3.101 Y127.1 Z0.2
;TYPE:SKIRT
G1 F1500 E0
G1 F1200 X3.1 Y124.897 E0.07327
G1 X3.101 Y127.1 E0.14654
G0 F6000 X3.501 Y127.5
G1 F1200 X2.7 Y127.5 E0.17319
G1 X2.7 Y124.498 E0.27303
G1 X3.501 Y124.497 E0.29967
G1 X3.501 Y127.5 E0.39955
G0 F6000 X3.901 Y127.9
G1 F1200 X2.3 Y127.9 E0.4528
G1 X2.3 Y124.098 E0.57926
G1 X3.901 Y124.097 E0.63251
G1 X3.901 Y127.9 E0.759
G0 F6000 X4.301 Y128.3
G1 F1200 X1.9 Y128.3 E0.83885
G1 X1.9 Y123.698 E0.99192
G1 X4.301 Y123.697 E1.07177
G1 X4.301 Y128.3 E1.22487
G0 F6000 X4.701 Y128.7
G1 F1200 X1.5 Y128.7 E1.33134
G1 X1.5 Y123.298 E1.51101
G1 X4.701 Y123.297 E1.61747
G1 X4.701 Y128.7 E1.79718
G0 F6000 X5.101 Y129.098
G1 F1200 X1.1 Y129.1 E1.93025
G1 X1.1 Y122.898 E2.13653
G1 X5.101 Y122.897 E2.26961
G1 X5.101 Y129.098 E2.47585
G0 F6000 X5.501 Y129.33
G1 F1200 X5.467 Y129.336 E2.477
G1 X5.357 Y129.393 E2.48112
G1 X5.313 Y129.5 E2.48497
G1 X0.7 Y129.5 E2.6384
G1 X0.7 Y122.498 E2.87128
G1 X5.315 Y122.497 E3.02478
G1 X5.339 Y122.569 E3.0273
G1 X5.454 Y122.645 E3.03189
G1 X5.501 Y122.656 E3.03349
G1 X5.501 Y129.33 E3.25547
G1 F1500 E-3.24453
G0 F6000 X3.101 Y175.1
G1 F1500 E3.25547
G1 F1200 X3.1 Y172.897 E3.32874
G1 X3.101 Y175.1 E3.40202
G0 F6000 X3.501 Y175.5
G1 F1200 X2.7 Y175.5 E3.42866
G1 X2.7 Y172.498 E3.52851
G1 X3.501 Y172.497 E3.55515
G1 X3.501 Y175.5 E3.65503
G0 F6000 X3.901 Y175.9
G1 F1200 X2.3 Y175.9 E3.70828
G1 X2.3 Y172.098 E3.83473
G1 X3.901 Y172.097 E3.88798
G1 X3.901 Y175.9 E4.01447
G0 F6000 X4.301 Y176.3
G1 F1200 X1.9 Y176.3 E4.09433
G1 X1.9 Y171.698 E4.24739
G1 X4.301 Y171.697 E4.32725
G1 X4.301 Y176.3 E4.48034
G0 F6000 X4.701 Y176.7
G1 F1200 X1.5 Y176.7 E4.58681
G1 X1.5 Y171.298 E4.76648
G1 X4.701 Y171.297 E4.87295
G1 X4.701 Y176.7 E5.05265
G0 F6000 X5.101 Y177.098
G1 F1200 X1.1 Y177.1 E5.18572
G1 X1.1 Y170.898 E5.392
G1 X5.101 Y170.897 E5.52508
G1 X5.101 Y177.098 E5.73132
G0 F6000 X5.501 Y177.33
G1 F1200 X5.467 Y177.336 E5.73247
G1 X5.357 Y177.393 E5.73659
G1 X5.313 Y177.5 E5.74044
G1 X0.7 Y177.5 E5.89387
G1 X0.7 Y170.498 E6.12676
G1 X5.316 Y170.497 E6.28029
G1 X5.339 Y170.568 E6.28277
G1 X5.454 Y170.644 E6.28735
G1 X5.501 Y170.655 E6.28896
G1 X5.501 Y177.33 E6.51097
G1 F1500 E0.01097
G0 F6000 X5.849 Y292.974
G0 X294.153 Y294.155
G0 X299.3 Y177.499
G1 F1500 E6.51097
G1 F1200 X294.685 Y177.5 E6.66447
G1 X294.661 Y177.428 E6.66699
G1 X294.546 Y177.352 E6.67157
G1 X294.5 Y177.341 E6.67315
G1 X294.5 Y170.666 E6.89516
G1 X294.533 Y170.661 E6.89627
G1 X294.643 Y170.604 E6.90039
G1 X294.687 Y170.497 E6.90424
G1 X299.3 Y170.497 E7.05767
G1 X299.3 Y177.499 E7.29055
G0 F6000 X298.9 Y177.099
G1 F1200 X294.9 Y177.1 E7.42359
G1 X294.9 Y170.898 E7.62987
G1 X298.9 Y170.897 E7.76291
G1 X298.9 Y177.099 E7.96919
G0 F6000 X298.5 Y176.699
G1 F1200 X295.3 Y176.7 E8.07563
G1 X295.3 Y171.297 E8.25533
G1 X298.5 Y171.297 E8.36176
G1 X298.5 Y176.699 E8.54143
G0 F6000 X298.1 Y176.299
G1 F1200 X295.7 Y176.3 E8.62126
G1 X295.7 Y171.697 E8.77436
G1 X298.1 Y171.697 E8.85418
G1 X298.1 Y176.299 E9.00724
G0 F6000 X297.7 Y175.899
G1 F1200 X296.1 Y175.9 E9.06046
G1 X296.1 Y172.097 E9.18695
G1 X297.7 Y172.097 E9.24016
G1 X297.7 Y175.899 E9.36662
G0 F6000 X297.3 Y175.499
G1 F1200 X296.5 Y175.5 E9.39323
G1 X296.5 Y172.497 E9.49311
G1 X297.3 Y172.497 E9.51972
G1 X297.3 Y175.499 E9.61956
G1 F1500 E3.11956
G0 F6000 X299.3 Y129.499
G1 F1500 E9.61956
G1 F1200 X294.685 Y129.5 E9.77306
G1 X294.661 Y129.428 E9.77558
G1 X294.546 Y129.352 E9.78017
G1 X294.5 Y129.341 E9.78174
G1 X294.5 Y122.666 E10.00375
G1 X294.533 Y122.661 E10.00486
G1 X294.643 Y122.604 E10.00898
G1 X294.687 Y122.497 E10.01283
G1 X299.3 Y122.497 E10.16626
G1 X299.3 Y129.499 E10.39915
G0 F6000 X298.9 Y129.099
G1 F1200 X294.9 Y129.1 E10.53219
G1 X294.9 Y122.898 E10.73847
G1 X298.9 Y122.897 E10.87151
G1 X298.9 Y129.099 E11.07779
G0 F6000 X298.5 Y128.699
G1 F1200 X295.3 Y128.7 E11.18422
G1 X295.3 Y123.297 E11.36392
G1 X298.5 Y123.297 E11.47036
G1 X298.5 Y128.699 E11.65003
G0 F6000 X298.1 Y128.299
G1 F1200 X295.7 Y128.3 E11.72985
G1 X295.7 Y123.697 E11.88295
G1 X298.1 Y123.697 E11.96277
G1 X298.1 Y128.299 E12.11583
G0 F6000 X297.7 Y127.899
G1 F1200 X296.1 Y127.9 E12.16905
G1 X296.1 Y124.097 E12.29554
G1 X297.7 Y124.097 E12.34876
G1 X297.7 Y127.899 E12.47521
G0 F6000 X297.3 Y127.499
G1 F1200 X296.5 Y127.5 E12.50182
G1 X296.5 Y124.497 E12.6017
G1 X297.3 Y124.497 E12.62831
G1 X297.3 Y127.499 E12.72815
G1 F1500 E6.22815
;MESH:pitchFrame.stl
G0 F6000 X288.91 Y127.499
G0 X150 Y289.096
;TYPE:WALL-INNER
G1 F1500 E12.72815
G1 F1200 X21.5 Y289.096 E17.00208
G1 X21.261 Y289.047 E17.0102
G1 X21.075 Y288.921 E17.01767
G1 X11.003 Y278.849 E17.49142
G1 X10.9 Y278.607 E17.50017
G1 X10.9 Y21.385 E26.05541
G1 X11.003 Y21.143 E26.06416
G1 X21.147 Y10.999 E26.5413
G1 X21.389 Y10.896 E26.55005
G1 X278.611 Y10.896 E35.10529
G1 X278.853 Y10.999 E35.11403
G1 X288.998 Y21.144 E35.59122
G1 X289.1 Y21.385 E35.59993
G1 X289.1 Y278.607 E44.15517
G1 X288.997 Y278.849 E44.16391
G1 X278.855 Y288.991 E44.64096
G1 X278.612 Y289.096 E44.64977
G1 X150 Y289.096 E48.92742
G1 F1500 E42.42742
G0 F6000 X149.987 Y292.128
G0 X150 Y292.309
G1 F1500 E48.92742
G1 F1200 X292.9 Y292.893 E53.68033
G1 X292.9 Y7.096 E63.18598
G1 X7.1 Y7.096 E72.69173
G1 X7.1 Y291.726 E82.15856
G1 X150 Y292.309 E86.91147
G0 F6000 X150 Y292.71
;TYPE:WALL-OUTER
G1 F1200 X293.3 Y293.295 E91.67769
G1 X293.3 Y6.696 E101.21001
G1 X6.7 Y6.696 E110.74236
G1 X6.7 Y292.124 E120.23574
G1 X150 Y292.71 E125.00196
G1 F1500 E118.50196
G0 F6000 X150.001 Y292.403
G0 X149.986 Y292.128
G0 X149.986 Y289.276
G0 X150 Y288.695
G1 F1500 E125.00196
G1 F1200 X21.416 Y288.696 E129.27868
G1 X11.335 Y278.615 E129.75286
G1 X11.3 Y278.535 E129.75576
G1 X11.3 Y21.457 E138.30621
G1 X11.335 Y21.377 E138.30911
G1 X21.381 Y11.331 E138.78165
G1 X21.461 Y11.296 E138.78455
G1 X278.539 Y11.296 E147.335
G1 X278.619 Y11.331 E147.3379
G1 X288.665 Y21.377 E147.81044
G1 X288.7 Y21.457 E147.81334
G1 X288.698 Y278.531 E156.36366
G1 X288.666 Y278.614 E156.36662
G1 X278.617 Y288.663 E156.83929
G1 X278.534 Y288.694 E156.84224
G1 X150 Y288.695 E161.1173
G1 F1500 E154.6173
G0 F6000 X150 Y289.009
G0 X149.999 Y289.276
G0 X149.986 Y292.128
G0 X150 Y291.947
;TYPE:SKIN
G1 F1500 E161.1173
G1 F1200 X7.46 Y291.368 E165.85823
G1 X7.46 Y7.456 E175.30119
G1 X292.54 Y7.456 E184.78299
G1 X292.54 Y292.527 E194.26449
G1 X150 Y291.947 E199.00542
G1 F1500 E192.50542
G0 F6000 X149.999 Y292.208
G0 X149.987 Y289.276
G0 X150 Y289.454
G1 F1500 E199.00542
G1 F1200 X278.523 Y289.455 E203.28012
G1 X278.758 Y289.423 E203.288
G1 X279.067 Y289.289 E203.29921
G1 X289.294 Y279.062 E203.78025
G1 X289.43 Y278.735 E203.79203
G1 X289.459 Y278.519 E203.79928
G1 X289.459 Y21.469 E212.3488
G1 X289.427 Y21.228 E212.35688
G1 X289.292 Y20.928 E212.36783
G1 X279.067 Y10.699 E212.84887
G1 X278.784 Y10.576 E212.85914
G1 X278.519 Y10.537 E212.86805
G1 X21.319 Y10.537 E221.42255
G1 X20.932 Y10.7 E221.43652
G1 X10.705 Y20.927 E221.91757
G1 X10.581 Y21.207 E221.92775
G1 X10.541 Y21.473 E221.9367
G1 X10.541 Y278.672 E230.49117
G1 X10.702 Y279.062 E230.5052
G1 X20.81 Y289.166 E230.98056
G1 X21.114 Y289.38 E230.99292
G1 X21.458 Y289.452 E231.00461
G1 X150 Y289.454 E235.27994
G1 F1500 E228.77994
G0 F6000 X150 Y289.196
G0 X21.502 Y289.277
G0 X21.491 Y291.603
G0 X7.76 Y291.169
G1 F1500 E235.27994
G1 F1200 X7.66 Y291.068 E235.28467
G0 F6000 X7.66 Y290.503
G1 F1200 X8.328 Y291.171 E235.31609
G0 F6000 X8.897 Y291.174
G1 F1200 X7.66 Y289.937 E235.37427
G0 F6000 X7.66 Y289.371
G1 F1200 X9.465 Y291.176 E235.45917
G0 F6000 X10.032 Y291.178
G1 F1200 X7.66 Y288.806 E235.57074
G0 F6000 X7.66 Y288.24
G1 F1200 X10.6 Y291.18 E235.70903
G0 F6000 X11.169 Y291.183
G1 F1200 X7.66 Y287.674 E235.87409
G0 F6000 X7.66 Y287.109
G1 F1200 X11.737 Y291.185 E236.06583
G0 F6000 X12.304 Y291.187
G1 F1200 X7.66 Y286.543 E236.28427
G0 F6000 X7.66 Y285.977
G1 F1200 X12.872 Y291.189 E236.52943
G0 F6000 X13.441 Y291.192
G1 F1200 X7.66 Y285.412 E236.80132
G0 F6000 X7.66 Y284.846
G1 F1200 X14.008 Y291.194 E237.09992
G0 F6000 X14.576 Y291.196
G1 F1200 X7.66 Y284.28 E237.42522
G0 F6000 X7.66 Y283.715
G1 F1200 X15.145 Y291.199 E237.77727
G0 F6000 X15.713 Y291.201
G1 F1200 X7.66 Y283.149 E238.15604
G0 F6000 X7.66 Y282.583
G1 F1200 X16.28 Y291.204 E238.56152
G0 F6000 X16.848 Y291.206
G1 F1200 X7.66 Y282.018 E238.99369
G0 F6000 X7.66 Y281.452
G1 F1200 X17.417 Y291.208 E239.45261
G0 F6000 X17.985 Y291.211
G1 F1200 X7.66 Y280.886 E239.93826
G0 F6000 X7.66 Y280.32
G1 F1200 X18.552 Y291.213 E240.45061
G0 F6000 X19.12 Y291.215
G1 F1200 X7.66 Y279.755 E240.98966
G0 F6000 X7.66 Y279.189
G1 F1200 X19.689 Y291.218 E241.55547
G0 F6000 X20.256 Y291.22
G1 F1200 X7.66 Y278.623 E242.14797
G0 F6000 X7.66 Y278.058
G1 F1200 X20.824 Y291.222 E242.76716
G0 F6000 X21.392 Y291.224
G1 F1200 X7.66 Y277.492 E243.41307
G0 F6000 X7.66 Y276.926
G1 F1200 X21.961 Y291.227 E244.08575
G0 F6000 X22.528 Y291.229
G1 F1200 X7.66 Y276.361 E244.78509
G0 F6000 X7.66 Y275.795
G1 F1200 X10.342 Y278.477 E244.91124
G0 F6000 X10.342 Y277.911
G1 F1200 X7.66 Y275.229 E245.0374
G0 F6000 X7.66 Y274.664
G1 F1200 X10.342 Y277.346 E245.16355
G0 F6000 X10.342 Y276.78
G1 F1200 X7.66 Y274.098 E245.2897
G0 F6000 X7.66 Y273.532
G1 F1200 X10.342 Y276.214 E245.41586
G0 F6000 X10.342 Y275.649
G1 F1200 X7.66 Y272.967 E245.54201
G0 F6000 X7.66 Y272.401
G1 F1200 X10.342 Y275.083 E245.66816
G0 F6000 X10.342 Y274.517
G1 F1200 X7.66 Y271.835 E245.79432
G0 F6000 X7.66 Y271.269
G1 F1200 X10.342 Y273.952 E245.92049
G0 F6000 X10.342 Y273.386
G1 F1200 X7.66 Y270.704 E246.04665
G0 F6000 X7.66 Y270.138
G1 F1200 X10.342 Y272.82 E246.1728
G0 F6000 X10.342 Y272.254
G1 F1200 X7.66 Y269.572 E246.29895
G0 F6000 X7.66 Y269.007
G1 F1200 X10.342 Y271.689 E246.4251
G0 F6000 X10.342 Y271.123
G1 F1200 X7.66 Y268.441 E246.55126
G0 F6000 X7.66 Y267.875
G1 F1200 X10.342 Y270.557 E246.67741
G0 F6000 X10.342 Y269.992
G1 F1200 X7.66 Y267.31 E246.80356
G0 F6000 X7.66 Y266.744
G1 F1200 X10.342 Y269.426 E246.92972
G0 F6000 X10.342 Y268.86
G1 F1200 X7.66 Y266.178 E247.05587
G0 F6000 X7.66 Y265.613
G1 F1200 X10.342 Y268.295 E247.18202
G0 F6000 X10.342 Y267.729
G1 F1200 X7.66 Y265.047 E247.30818
G0 F6000 X7.66 Y264.481
G1 F1200 X10.342 Y267.163 E247.43433
G0 F6000 X10.342 Y266.598
G1 F1200 X7.66 Y263.916 E247.56048
G0 F6000 X7.66 Y263.35
G1 F1200 X10.342 Y266.032 E247.68664
G0 F6000 X10.342 Y265.466
G1 F1200 X7.66 Y262.784 E247.81279
G0 F6000 X7.66 Y262.219
G1 F1200 X10.342 Y264.901 E247.93894
G0 F6000 X10.342 Y264.335
G1 F1200 X7.66 Y261.653 E248.06509
G0 F6000 X7.66 Y261.087
G1 F1200 X10.342 Y263.769 E248.19125
G0 F6000 X10.342 Y263.204
G1 F1200 X7.66 Y260.521 E248.31742
G0 F6000 X7.66 Y259.956
G1 F1200 X10.342 Y262.638 E248.44358
G0 F6000 X10.342 Y262.072
G1 F1200 X7.66 Y259.39 E248.56973
G0 F6000 X7.66 Y258.824
G1 F1200 X10.342 Y261.506 E248.69588
G0 F6000 X10.342 Y260.941
G1 F1200 X7.66 Y258.259 E248.82204
G0 F6000 X7.66 Y257.693
G1 F1200 X10.342 Y260.375 E248.94819
G0 F6000 X10.342 Y259.809
G1 F1200 X7.66 Y257.127 E249.07434
G0 F6000 X7.66 Y256.562
G1 F1200 X10.342 Y259.244 E249.2005
G0 F6000 X10.342 Y258.678
G1 F1200 X7.66 Y255.996 E249.32665
G0 F6000 X7.66 Y255.43
G1 F1200 X10.342 Y258.112 E249.4528
G0 F6000 X10.342 Y257.547
G1 F1200 X7.66 Y254.865 E249.57895
G0 F6000 X7.66 Y254.299
G1 F1200 X10.342 Y256.981 E249.70511
G0 F6000 X10.342 Y256.415
G1 F1200 X7.66 Y253.733 E249.83126
G0 F6000 X7.66 Y253.168
G1 F1200 X10.342 Y255.85 E249.95741
G0 F6000 X10.342 Y255.284
G1 F1200 X7.66 Y252.602 E250.08357
G0 F6000 X7.66 Y252.036
G1 F1200 X10.342 Y254.718 E250.20972
G0 F6000 X10.342 Y254.153
G1 F1200 X7.66 Y251.471 E250.33587
G0 F6000 X7.66 Y250.905
G1 F1200 X10.342 Y253.587 E250.46203
G0 F6000 X10.342 Y253.021
G1 F1200 X7.66 Y250.339 E250.58818
G0 F6000 X7.66 Y249.773
G1 F1200 X10.342 Y252.456 E250.71436
G0 F6000 X10.342 Y251.89
G1 F1200 X7.66 Y249.208 E250.84051
G0 F6000 X7.66 Y248.642
G1 F1200 X10.342 Y251.324 E250.96666
G0 F6000 X10.342 Y250.758
G1 F1200 X7.66 Y248.076 E251.09282
G0 F6000 X7.66 Y247.511
G1 F1200 X10.342 Y250.193 E251.21897
G0 F6000 X10.342 Y249.627
G1 F1200 X7.66 Y246.945 E251.34512
G0 F6000 X7.66 Y246.379
G1 F1200 X10.342 Y249.061 E251.47127
G0 F6000 X10.342 Y248.496
G1 F1200 X7.66 Y245.814 E251.59743
G0 F6000 X7.66 Y245.248
G1 F1200 X10.342 Y247.93 E251.72358
G0 F6000 X10.342 Y247.364
G1 F1200 X7.66 Y244.682 E251.84973
G0 F6000 X7.66 Y244.117
G1 F1200 X10.342 Y246.799 E251.97589
G0 F6000 X10.342 Y246.233
G1 F1200 X7.66 Y243.551 E252.10204
G0 F6000 X7.66 Y242.985
G1 F1200 X10.342 Y245.667 E252.22819
G0 F6000 X10.342 Y245.102
G1 F1200 X7.66 Y242.42 E252.35435
G0 F6000 X7.66 Y241.854
G1 F1200 X10.342 Y244.536 E252.4805
G0 F6000 X10.342 Y243.97
G1 F1200 X7.66 Y241.288 E252.60665
G0 F6000 X7.66 Y240.722
G1 F1200 X10.342 Y243.405 E252.73283
G0 F6000 X10.342 Y242.839
G1 F1200 X7.66 Y240.157 E252.85898
G0 F6000 X7.66 Y239.591
G1 F1200 X10.342 Y242.273 E252.98513
G0 F6000 X10.342 Y241.707
G1 F1200 X7.66 Y239.025 E253.11129
G0 F6000 X7.66 Y238.46
G1 F1200 X10.342 Y241.142 E253.23744
G0 F6000 X10.342 Y240.576
G1 F1200 X7.66 Y237.894 E253.36359
G0 F6000 X7.66 Y237.328
G1 F1200 X10.342 Y240.01 E253.48975
G0 F6000 X10.342 Y239.445
G1 F1200 X7.66 Y236.763 E253.6159
G0 F6000 X7.66 Y236.197
G1 F1200 X10.342 Y238.879 E253.74205
G0 F6000 X10.342 Y238.313
G1 F1200 X7.66 Y235.631 E253.86821
G0 F6000 X7.66 Y235.066
G1 F1200 X10.342 Y237.748 E253.99436
G0 F6000 X10.342 Y237.182
G1 F1200 X7.66 Y234.5 E254.12051
G0 F6000 X7.66 Y233.934
G1 F1200 X10.342 Y236.616 E254.24667
G0 F6000 X10.342 Y236.051
G1 F1200 X7.66 Y233.369 E254.37282
G0 F6000 X7.66 Y232.803
G1 F1200 X10.342 Y235.485 E254.49897
G0 F6000 X10.342 Y234.919
G1 F1200 X7.66 Y232.237 E254.62512
G0 F6000 X7.66 Y231.672
G1 F1200 X10.342 Y234.354 E254.75128
G0 F6000 X10.342 Y233.788
G1 F1200 X7.66 Y231.106 E254.87743
G0 F6000 X7.66 Y230.54
G1 F1200 X10.342 Y233.222 E255.00358
G0 F6000 X10.342 Y232.657
G1 F1200 X7.66 Y229.974 E255.12976
G0 F6000 X7.66 Y229.409
G1 F1200 X10.342 Y232.091 E255.25591
G0 F6000 X10.342 Y231.525
G1 F1200 X7.66 Y228.843 E255.38207
G0 F6000 X7.66 Y228.277
G1 F1200 X10.342 Y230.959 E255.50822
G0 F6000 X10.342 Y230.394
G1 F1200 X7.66 Y227.712 E255.63437
G0 F6000 X7.66 Y227.146
G1 F1200 X10.342 Y229.828 E255.76053
G0 F6000 X10.342 Y229.262
G1 F1200 X7.66 Y226.58 E255.88668
G0 F6000 X7.66 Y226.015
G1 F1200 X10.342 Y228.697 E256.01283
G0 F6000 X10.342 Y228.131
G1 F1200 X7.66 Y225.449 E256.13898
G0 F6000 X7.66 Y224.883
G1 F1200 X10.342 Y227.565 E256.26514
G0 F6000 X10.342 Y227
G1 F1200 X7.66 Y224.318 E256.39129
G0 F6000 X7.66 Y223.752
G1 F1200 X10.342 Y226.434 E256.51744
G0 F6000 X10.342 Y225.868
G1 F1200 X7.66 Y223.186 E256.6436
G0 F6000 X7.66 Y222.621
G1 F1200 X10.342 Y225.303 E256.76975
G0 F6000 X10.342 Y224.737
G1 F1200 X7.66 Y222.055 E256.8959
G0 F6000 X7.66 Y221.489
G1 F1200 X10.342 Y224.171 E257.02206
G0 F6000 X10.342 Y223.606
G1 F1200 X7.66 Y220.923 E257.14823
G0 F6000 X7.66 Y220.358
G1 F1200 X10.342 Y223.04 E257.27439
G0 F6000 X10.342 Y222.474
G1 F1200 X7.66 Y219.792 E257.40054
G0 F6000 X7.66 Y219.226
G1 F1200 X10.342 Y221.908 E257.52669
G0 F6000 X10.342 Y221.343
G1 F1200 X7.66 Y218.661 E257.65284
G0 F6000 X7.66 Y218.095
G1 F1200 X10.342 Y220.777 E257.779
G0 F6000 X10.342 Y220.211
