;FLAVOR:Marlin
;TIME:24696
;Filament used: 18.4124m
;Layer height: 0.2
;MINX:6.209
;MINY:8.459
;MINZ:0.2
;MAXX:298.203
;MAXY:300
;MAXZ:5
;TARGET_MACHINE.NAME:Creality Ender-3 Max
;Generated with Cura_SteamEngine 5.9.1
M140 S60
M105
M190 S60
M104 S200
M105
M109 S200
M82 ;absolute extrusion mode
; Ender 3 Max Custom Start G-code
G92 E0 ; Reset Extruder
G28 ; Home all axes
G1 Z2.0 F3000 ; Move Z Axis up little to prevent scratching of Heat Bed
G1 X0.1 Y20 Z0.3 F5000.0 ; Move to start position
G1 X0.1 Y200.0 Z0.3 F1500.0 E15 ; Draw the first line
G1 X0.4 Y200.0 Z0.3 F5000.0 ; Move to side a little
G1 X0.4 Y20 Z0.3 F1500.0 E30 ; Draw the second line
G92 E0 ; Reset Extruder
G1 Z2.0 F3000 ; Move Z Axis up little to prevent scratching of Heat Bed
G1 X5 Y20 Z0.3 F5000.0 ; Move over to prevent blob squish
G92 E0
G92 E0
G1 F1500 E-6.5
;LAYER_COUNT:25
;LAYER:0
M107
G0 F6000 X34.967 Y300 Z0.2
;TYPE:SKIRT
G1 F1500 E0
G1 F1200 X33.386 Y298.057 E0.08332
G1 X32.551 Y295.534 E0.17171
G1 X32.55 Y271.414 E0.97394
G1 X32.866 Y270.102 E1.01883
G1 X32.443 Y270.39 E1.03585
G1 X30.319 Y270.918 E1.10864
G1 X26.031 Y271.147 E1.25146
G1 X13.404 Y271.419 E1.67154
G1 X11.702 Y271.037 E1.72955
G1 X10.356 Y270.566 E1.77698
G1 X8.638 Y269.321 E1.84755
G1 X7.045 Y267.363 E1.93151
G1 X6.21 Y264.84 E2.0199
G1 X6.209 Y240.714 E2.82233
G1 X6.66 Y238.86 E2.88579
G1 X7.706 Y236.851 E2.96113
G1 X9.241 Y235.403 E3.03131
G1 X10.761 Y234.496 E3.09019
G1 X11.754 Y234.092 E3.12584
G1 X13.48 Y233.832 E3.1839
G1 X24.536 Y233.567 E3.55173
G1 X28.355 Y233.378 E3.6789
G1 X30.221 Y233.714 E3.74196
G1 X31.219 Y234.168 E3.77843
G1 X33.97 Y233.964 E3.87018
G1 X43.834 Y232.893 E4.20019
G1 X53.117 Y231.483 E4.51248
G1 X62.389 Y229.648 E4.82685
G1 X72.008 Y227.312 E5.15608
G1 X80.982 Y224.712 E5.46683
G1 X90.19 Y221.621 E5.78988
G1 X98.918 Y218.247 E6.10111
G1 X107.991 Y214.288 E6.43036
G1 X116.601 Y210.083 E6.74906
G1 X124.732 Y205.656 E7.05698
G1 X132.937 Y200.721 E7.37544
G1 X141.195 Y195.257 E7.70478
G1 X148.955 Y189.62 E8.02379
G1 X156.448 Y183.667 E8.34209
G1 X163.438 Y177.592 E8.65011
G1 X170.629 Y170.788 E8.97938
G1 X177.068 Y164.145 E9.28708
G1 X183.655 Y156.732 E9.61691
G1 X189.496 Y149.554 E9.92471
G1 X195.335 Y141.706 E10.25006
G1 X200.778 Y133.684 E10.57249
G1 X205.698 Y125.731 E10.88353
G1 X210.454 Y117.215 E11.20795
G1 X214.633 Y108.887 E11.51786
G1 X218.679 Y99.922 E11.845
G1 X222.19 Y91.118 E12.16025
G1 X225.402 Y81.925 E12.48413
G1 X228.094 Y73.019 E12.79359
G1 X230.531 Y63.467 E13.12146
G1 X232.474 Y54.159 E13.43772
G1 X234.039 Y44.645 E13.75841
G1 X235.152 Y35.427 E14.06723
G1 X235.91 Y25.575 E14.39588
G1 X236.259 Y15.168 E14.74221
G1 X236.765 Y13.309 E14.80629
G1 X237.893 Y11.282 E14.88344
G1 X239.488 Y9.898 E14.95368
G1 X241.467 Y8.782 E15.02925
G1 X243.309 Y8.507 E15.09119
G1 X264.894 Y8.459 E15.80911
G1 X266.729 Y8.9 E15.87188
G1 X267.912 Y9.454 E15.91533
G1 X269.451 Y10.607 E15.97929
G1 X270.588 Y12.035 E16.04
G1 X271.179 Y13.022 E16.07827
G1 X271.861 Y15.292 E16.1571
G1 X271.452 Y27.638 E16.56795
G1 X270.596 Y38.738 E16.93824
G1 X270.542 Y39.191 E16.95341
G1 X291.236 Y39.153 E17.6417
G1 X293.071 Y39.594 E17.70447
G1 X294.254 Y40.148 E17.74792
G1 X295.793 Y41.301 E17.81188
G1 X296.93 Y42.729 E17.87259
G1 X297.521 Y43.716 E17.91085
G1 X298.203 Y45.986 E17.98968
G1 X297.794 Y58.332 E18.40054
G1 X296.938 Y69.432 E18.77082
G1 X295.617 Y80.468 E19.1405
G1 X293.814 Y91.438 E19.51026
G1 X291.528 Y102.349 E19.88104
G1 X288.77 Y113.118 E20.25078
G1 X285.56 Y123.781 E20.62115
G1 X281.935 Y134.152 E20.98656
G1 X277.756 Y144.616 E21.36132
G1 X273.177 Y154.768 E21.73174
G1 X268.174 Y164.701 E22.10165
G1 X262.743 Y174.415 E22.47181
G1 X256.901 Y183.892 E22.84209
G1 X250.651 Y193.094 E23.21207
G1 X244.208 Y201.762 E23.57129
G1 X236.98 Y210.655 E23.95245
G1 X229.811 Y218.731 E24.31162
G1 X221.844 Y226.945 E24.69222
G1 X213.757 Y234.6 E25.06258
G1 X205.354 Y241.889 E25.43256
G1 X196.637 Y248.817 E25.80291
G1 X187.634 Y255.334 E26.17257
G1 X178.346 Y261.487 E26.54313
G1 X168.808 Y267.206 E26.91302
G1 X159.037 Y272.52 E27.28295
G1 X149.032 Y277.417 E27.65344
G1 X138.832 Y281.852 E28.02338
G1 X128.445 Y285.853 E28.39359
G1 X117.898 Y289.396 E28.76365
G1 X107.201 Y292.492 E29.13404
G1 X96.708 Y295.041 E29.49319
G1 X85.484 Y297.247 E29.87364
G1 X74.471 Y298.936 E30.24422
G1 X64.593 Y300 E30.57466
G1 F1500 E24.07466
G0 F6000 X59.668 Y300
G1 F1500 E30.57466
G1 F1200 X63.441 Y299.722 E30.70049
G1 X74.428 Y298.538 E31.06804
G1 X85.423 Y296.852 E31.43801
G1 X96.614 Y294.652 E31.81735
G1 X107.107 Y292.103 E32.17649
G1 X117.787 Y289.012 E32.54629
G1 X128.318 Y285.474 E32.91579
G1 X138.688 Y281.479 E33.28541
G1 X148.872 Y277.05 E33.65478
G1 X158.861 Y272.161 E34.02467
G1 X168.617 Y266.855 E34.39404
G1 X178.14 Y261.144 E34.76337
G1 X187.413 Y255.001 E35.13333
G1 X196.402 Y248.493 E35.50243
G1 X205.105 Y241.576 E35.87219
G1 X213.495 Y234.298 E36.2416
G1 X221.569 Y226.655 E36.61138
G1 X229.512 Y218.465 E36.99085
G1 X236.681 Y210.389 E37.35002
G1 X243.887 Y201.523 E37.73002
G1 X250.33 Y192.855 E38.08924
G1 X256.57 Y183.667 E38.45865
G1 X262.403 Y174.205 E38.82835
G1 X267.825 Y164.506 E39.19792
G1 X272.82 Y154.588 E39.56727
G1 X277.391 Y144.452 E39.93709
G1 X281.557 Y134.02 E40.3107
G1 X285.182 Y123.649 E40.67611
G1 X288.387 Y113.003 E41.04589
G1 X291.14 Y102.25 E41.41508
G1 X293.419 Y91.373 E41.7847
G1 X295.222 Y80.403 E42.15446
G1 X296.541 Y69.384 E42.52357
G1 X297.395 Y58.301 E42.89329
G1 X297.801 Y46.037 E43.30141
G1 X297.153 Y43.88 E43.37632
G1 X296.587 Y42.935 E43.41296
G1 X295.513 Y41.591 E43.47018
G1 X294.047 Y40.493 E43.5311
G1 X292.939 Y39.974 E43.57179
G1 X291.188 Y39.553 E43.63169
G1 X270.091 Y39.592 E44.33338
G1 X270.199 Y38.69 E44.3636
G1 X271.053 Y27.607 E44.73331
G1 X271.459 Y15.343 E45.14144
G1 X270.811 Y13.186 E45.21635
G1 X270.245 Y12.241 E45.25298
G1 X269.171 Y10.897 E45.31021
G1 X267.705 Y9.799 E45.37112
G1 X266.597 Y9.28 E45.41182
G1 X264.846 Y8.859 E45.47172
G1 X243.31 Y8.907 E46.18801
G1 X241.599 Y9.166 E46.24557
G1 X239.721 Y10.225 E46.31728
G1 X238.208 Y11.538 E46.3839
G1 X237.138 Y13.46 E46.45707
G1 X236.657 Y15.227 E46.51798
G1 X236.309 Y25.606 E46.86338
G1 X235.551 Y35.459 E47.19206
G1 X234.434 Y44.71 E47.50198
G1 X232.866 Y54.241 E47.82325
G1 X230.919 Y63.566 E48.14009
G1 X228.481 Y73.121 E48.46807
G1 X225.78 Y82.057 E48.77856
G1 X222.562 Y91.266 E49.10302
G1 X219.044 Y100.087 E49.41888
G1 X214.998 Y109.052 E49.74601
G1 X210.812 Y117.394 E50.05644
G1 X206.044 Y125.931 E50.38167
G1 X201.109 Y133.909 E50.69368
G1 X195.656 Y141.945 E51.01669
G1 X189.817 Y149.793 E51.34203
G1 X183.954 Y156.998 E51.65099
G1 X177.367 Y164.411 E51.98082
G1 X170.904 Y171.079 E52.28968
G1 X163.713 Y177.883 E52.61894
G1 X156.697 Y183.98 E52.9281
G1 X149.19 Y189.944 E53.24699
G1 X141.416 Y195.591 E53.56657
G1 X133.158 Y201.055 E53.89591
G1 X124.938 Y205.999 E54.21495
G1 X116.777 Y210.442 E54.524
G1 X108.151 Y214.655 E54.8433
G1 X99.078 Y218.614 E55.17254
G1 X90.328 Y221.996 E55.48455
G1 X81.101 Y225.094 E55.80828
G1 X72.102 Y227.701 E56.11989
G1 X62.483 Y230.037 E56.44912
G1 X53.189 Y231.876 E56.76424
G1 X43.877 Y233.291 E57.07751
G1 X34.014 Y234.362 E57.40748
G1 X31.147 Y234.574 E57.5031
G1 X30.104 Y234.1 E57.5412
G1 X28.33 Y233.78 E57.60116
G1 X24.556 Y233.967 E57.72684
G1 X13.54 Y234.228 E58.09333
G1 X11.861 Y234.481 E58.14981
G1 X10.912 Y234.867 E58.18388
G1 X9.485 Y235.723 E58.23923
G1 X8.03 Y237.096 E58.30577
G1 X7.038 Y239.001 E58.37721
G1 X6.609 Y240.764 E58.43755
G1 X6.61 Y264.774 E59.23613
G1 X7.403 Y267.17 E59.32007
G1 X8.913 Y269.026 E59.39965
G1 X10.543 Y270.207 E59.4666
G1 X11.834 Y270.659 E59.5121
G1 X13.442 Y271.018 E59.56689
G1 X26.022 Y270.747 E59.9854
G1 X30.258 Y270.521 E60.12649
G1 X32.276 Y270.019 E60.19566
G1 X33.328 Y269.304 E60.23797
G1 X33.596 Y269.285 E60.2469
G1 X33.373 Y269.708 E60.26281
G1 X32.95 Y271.462 E60.32282
G1 X32.951 Y295.468 E61.12126
G1 X33.744 Y297.864 E61.2052
G1 X35.254 Y299.72 E61.28478
G1 X35.64 Y300 E61.30064
G0 F6000 X36.322 Y300
G1 F1200 X35.529 Y299.425 E61.33322
G1 X34.102 Y297.671 E61.40843
G1 X33.351 Y295.402 E61.48792
G1 X33.35 Y271.51 E62.28257
G1 X33.751 Y269.849 E62.33941
G1 X34.284 Y268.833 E62.37757
G1 X33.191 Y268.913 E62.41402
G1 X32.109 Y269.649 E62.45754
G1 X30.198 Y270.124 E62.52303
G1 X26.013 Y270.347 E62.66243
G1 X13.483 Y270.617 E63.07927
G1 X11.966 Y270.281 E63.13095
G1 X10.73 Y269.848 E63.17451
G1 X9.188 Y268.731 E63.23784
G1 X7.761 Y266.977 E63.31304
G1 X7.01 Y264.708 E63.39254
G1 X7.009 Y240.813 E64.18729
G1 X7.415 Y239.143 E64.24445
G1 X8.355 Y237.339 E64.31211
G1 X9.728 Y236.044 E64.37488
G1 X11.063 Y235.238 E64.42675
G1 X11.968 Y234.87 E64.45924
G1 X13.6 Y234.624 E64.51414
G1 X24.576 Y234.367 E64.8793
G1 X28.305 Y234.182 E65.00348
G1 X29.987 Y234.486 E65.06033
G1 X31.075 Y234.98 E65.10007
G1 X34.058 Y234.76 E65.19956
G1 X43.92 Y233.689 E65.5295
G1 X53.261 Y232.269 E65.84375
G1 X62.577 Y230.426 E66.15961
G1 X72.196 Y228.09 E66.48884
G1 X81.22 Y225.476 E66.80131
G1 X90.466 Y222.371 E67.12571
G1 X99.238 Y218.981 E67.4385
G1 X108.311 Y215.022 E67.76775
G1 X116.953 Y210.801 E68.08764
G1 X125.144 Y206.342 E68.39782
G1 X133.379 Y201.389 E68.71744
G1 X141.637 Y195.925 E69.04679
G1 X149.425 Y190.268 E69.36694
G1 X156.946 Y184.293 E69.68642
G1 X163.988 Y178.174 E69.99671
G1 X171.179 Y171.37 E70.32597
G1 X177.666 Y164.677 E70.63598
G1 X184.253 Y157.264 E70.96582
G1 X190.138 Y150.032 E71.27593
G1 X195.983 Y142.176 E71.60161
G1 X201.44 Y134.134 E71.92485
G1 X206.39 Y126.131 E72.23783
G1 X211.17 Y117.573 E72.56387
G1 X215.363 Y109.217 E72.87481
G1 X219.409 Y100.252 E73.20195
G1 X222.934 Y91.414 E73.51842
G1 X226.158 Y82.189 E73.84345
G1 X228.868 Y73.223 E74.15498
G1 X231.307 Y63.665 E74.48307
G1 X233.258 Y54.323 E74.80049
G1 X234.829 Y44.775 E75.12233
G1 X235.95 Y35.491 E75.43336
G1 X236.708 Y25.637 E75.76207
G1 X237.055 Y15.286 E76.10654
G1 X237.511 Y13.611 E76.16428
G1 X238.523 Y11.794 E76.23345
G1 X239.952 Y10.554 E76.29638
G1 X241.73 Y9.551 E76.36428
G1 X243.37 Y9.303 E76.41944
G1 X264.798 Y9.259 E77.13214
G1 X266.465 Y9.66 E77.18917
G1 X267.498 Y10.144 E77.22711
G1 X268.889 Y11.186 E77.28492
G1 X269.902 Y12.447 E77.33871
G1 X270.443 Y13.35 E77.37373
G1 X271.057 Y15.394 E77.44471
G1 X270.654 Y27.576 E77.85011
G1 X269.802 Y38.642 E78.21925
G1 X269.64 Y39.993 E78.26451
G1 X291.14 Y39.953 E78.9796
G1 X292.807 Y40.354 E79.03663
G1 X293.84 Y40.838 E79.07457
G1 X295.231 Y41.88 E79.13238
G1 X296.244 Y43.141 E79.18618
G1 X296.785 Y44.044 E79.22119
G1 X297.399 Y46.088 E79.29217
G1 X296.996 Y58.27 E79.69757
G1 X296.144 Y69.336 E80.06672
G1 X294.827 Y80.338 E80.43526
G1 X293.027 Y91.291 E80.80444
G1 X290.752 Y102.151 E81.17349
G1 X288.004 Y112.888 E81.54211
G1 X284.804 Y123.517 E81.91131
G1 X281.179 Y133.888 E82.27671
G1 X277.026 Y144.288 E82.64918
G1 X272.463 Y154.408 E83.0184
G1 X267.476 Y164.311 E83.38718
G1 X262.063 Y173.995 E83.75618
G1 X256.239 Y183.442 E84.1253
G1 X250.009 Y192.616 E84.49413
G1 X243.566 Y201.284 E84.85335
G1 X236.382 Y210.123 E85.23219
G1 X229.213 Y218.199 E85.59137
G1 X221.294 Y226.365 E85.96971
G1 X213.233 Y233.996 E86.3389
G1 X204.856 Y241.263 E86.70774
G1 X196.167 Y248.169 E87.0769
G1 X187.192 Y254.668 E87.44546
G1 X177.934 Y260.801 E87.81482
G1 X168.426 Y266.504 E88.18358
G1 X158.685 Y271.802 E88.55239
G1 X148.712 Y276.683 E88.92169
G1 X138.544 Y281.106 E89.29049
G1 X128.191 Y285.095 E89.6595
G1 X117.676 Y288.628 E90.02845
G1 X107.013 Y291.714 E90.39765
G1 X96.52 Y294.263 E90.7568
G1 X85.362 Y296.457 E91.13502
G1 X74.385 Y298.14 E91.50439
G1 X63.412 Y299.323 E91.87147
G1 X59.534 Y299.607 E92.00079
G1 X58.956 Y300 E92.02404
G0 F6000 X58.175 Y300
G1 F1200 X58.284 Y299.973 E92.02778
G1 X59.397 Y299.216 E92.07255
G1 X63.383 Y298.924 E92.20548
G1 X74.342 Y297.742 E92.57209
G1 X85.301 Y296.062 E92.94084
G1 X96.426 Y293.874 E93.31795
G1 X106.919 Y291.325 E93.6771
G1 X117.565 Y288.244 E94.04572
G1 X128.064 Y284.716 E94.4141
G1 X138.4 Y280.733 E94.78252
G1 X148.552 Y276.316 E95.15075
G1 X158.509 Y271.443 E95.51946
G1 X168.235 Y266.153 E95.8877
G1 X177.728 Y260.458 E96.2559
G1 X186.971 Y254.335 E96.62466
G1 X195.932 Y247.845 E96.99266
G1 X204.607 Y240.95 E97.36123
G1 X212.971 Y233.694 E97.72951
G1 X221.019 Y226.075 E98.09811
G1 X228.914 Y217.933 E98.47532
G1 X236.083 Y209.857 E98.83449
G1 X243.245 Y201.045 E99.21217
G1 X249.688 Y192.377 E99.57139
G1 X255.908 Y183.217 E99.93966
G1 X261.723 Y173.785 E100.3082
G1 X267.127 Y164.116 E100.67661
G1 X272.106 Y154.228 E101.04482
G1 X276.661 Y144.124 E101.41346
G1 X280.801 Y133.756 E101.78477
G1 X284.426 Y123.385 E102.15018
G1 X287.621 Y112.773 E102.51878
G1 X290.364 Y102.052 E102.88685
G1 X292.635 Y91.209 E103.25532
G1 X294.432 Y80.273 E103.62393
G1 X295.747 Y69.288 E103.9919
G1 X296.597 Y58.239 E104.36047
G1 X296.997 Y46.139 E104.76314
G1 X296.417 Y44.208 E104.8302
G1 X295.901 Y43.347 E104.86359
G1 X294.952 Y42.171 E104.91385
G1 X293.633 Y41.183 E104.96866
G1 X292.675 Y40.734 E105.00385
G1 X291.092 Y40.353 E105.05801
G1 X269.773 Y40.393 E105.76708
G1 X269.179 Y40.482 E105.78706
G1 X269.405 Y38.594 E105.8503
G1 X270.255 Y27.545 E106.21888
G1 X270.655 Y15.445 E106.62154
G1 X270.075 Y13.514 E106.6886
G1 X269.559 Y12.653 E106.72199
G1 X268.61 Y11.477 E106.77225
G1 X267.291 Y10.489 E106.82706
G1 X266.333 Y10.04 E106.86225
G1 X264.75 Y9.659 E106.91641
G1 X243.43 Y9.699 E107.62552
G1 X241.861 Y9.936 E107.67829
G1 X240.183 Y10.883 E107.74238
G1 X238.838 Y12.05 E107.8016
G1 X237.884 Y13.762 E107.86679
G1 X237.453 Y15.345 E107.92136
G1 X237.107 Y25.668 E108.26489
G1 X236.349 Y35.523 E108.59364
G1 X235.224 Y44.84 E108.90578
G1 X233.65 Y54.405 E109.22819
G1 X231.695 Y63.764 E109.54619
G1 X229.255 Y73.325 E109.87438
G1 X226.536 Y82.321 E110.18696
G1 X223.306 Y91.562 E110.51255
G1 X219.774 Y100.417 E110.82963
G1 X215.728 Y109.383 E111.1568
G1 X211.528 Y117.752 E111.46824
G1 X206.736 Y126.331 E111.79507
G1 X201.771 Y134.359 E112.10903
G1 X196.31 Y142.407 E112.43251
G1 X190.459 Y150.271 E112.75852
G1 X184.552 Y157.53 E113.06979
G1 X177.965 Y164.943 E113.39962
G1 X171.454 Y171.661 E113.71079
G1 X164.263 Y178.465 E114.04006
G1 X157.195 Y184.606 E114.35147
G1 X149.66 Y190.592 E114.67155
G1 X141.858 Y196.259 E114.99227
G1 X133.6 Y201.723 E115.32162
G1 X125.35 Y206.685 E115.64182
G1 X117.129 Y211.16 E115.95314
G1 X108.471 Y215.389 E116.27362
G1 X99.398 Y219.348 E116.60286
G1 X90.604 Y222.746 E116.91643
G1 X81.339 Y225.858 E117.2415
G1 X72.29 Y228.479 E117.55485
G1 X62.671 Y230.815 E117.88407
G1 X53.333 Y232.662 E118.20067
G1 X43.963 Y234.087 E118.5159
G1 X34.102 Y235.158 E118.84581
G1 X31.002 Y235.387 E118.9492
G1 X29.868 Y234.871 E118.99064
G1 X28.28 Y234.584 E119.04431
G1 X24.596 Y234.767 E119.16699
G1 X13.66 Y235.02 E119.53082
G1 X12.075 Y235.259 E119.58413
G1 X11.214 Y235.609 E119.61505
G1 X9.969 Y236.366 E119.66351
G1 X8.68 Y237.582 E119.72245
G1 X7.793 Y239.284 E119.78628
G1 X7.409 Y240.863 E119.84033
G1 X7.41 Y264.642 E120.63122
G1 X8.119 Y266.784 E120.70627
G1 X9.463 Y268.436 E120.7771
G1 X10.919 Y269.491 E120.83691
G1 X12.052 Y269.89 E120.87686
G1 X13.524 Y270.216 E120.927
G1 X26.004 Y269.947 E121.34219
G1 X30.137 Y269.727 E121.47984
G1 X31.942 Y269.278 E121.54171
G1 X33.055 Y268.522 E121.58646
G1 X34.973 Y268.382 E121.65042
G1 X34.129 Y269.99 E121.71082
G1 X33.75 Y271.558 E121.76448
G1 X33.751 Y295.336 E122.55534
G1 X34.46 Y297.478 E122.63038
G1 X35.804 Y299.13 E122.70121
G1 X37.004 Y300 E122.75051
G0 F6000 X37.935 Y300
G1 F1200 X37.448 Y299.827 E122.7677
G1 X36.079 Y298.835 E122.82393
G1 X34.818 Y297.285 E122.89039
G1 X34.151 Y295.27 E122.96099
G1 X34.15 Y271.607 E123.74802
G1 X34.507 Y270.131 E123.79853
G1 X35.365 Y268.496 E123.85994
G1 X35.995 Y267.906 E123.88865
G1 X32.918 Y268.131 E123.99126
G1 X31.775 Y268.908 E124.03723
G1 X30.077 Y269.33 E124.09543
G1 X25.995 Y269.547 E124.23139
G1 X13.565 Y269.815 E124.64491
G1 X12.138 Y269.499 E124.69352
G1 X11.107 Y269.133 E124.72991
G1 X9.738 Y268.141 E124.78614
G1 X8.477 Y266.591 E124.85259
G1 X7.81 Y264.576 E124.92319
G1 X7.809 Y240.913 E125.71022
G1 X8.171 Y239.425 E125.76116
G1 X9.004 Y237.827 E125.8211
