;FLAVOR:Marlin
;TIME:22856
;Filament used: 17.5482m
;Layer height: 0.2
;MINX:0
;MINY:0
;MINZ:0.2
;MAXX:294.643
;MAXY:300
;MAXZ:5
;TARGET_MACHINE.NAME:Creality Ender-3 Max
;Generated with Cura_SteamEngine 5.9.1
M140 S60
M105
M190 S60
M104 S200
M105
M109 S200
M82 ;absolute extrusion mode
; Ender 3 Max Custom Start G-code
G92 E0 ; Reset Extruder
G28 ; Home all axes
G1 Z2.0 F3000 ; Move Z Axis up little to prevent scratching of Heat Bed
G1 X0.1 Y20 Z0.3 F5000.0 ; Move to start position
G1 X0.1 Y200.0 Z0.3 F1500.0 E15 ; Draw the first line
G1 X0.4 Y200.0 Z0.3 F5000.0 ; Move to side a little
G1 X0.4 Y20 Z0.3 F1500.0 E30 ; Draw the second line
G92 E0 ; Reset Extruder
G1 Z2.0 F3000 ; Move Z Axis up little to prevent scratching of Heat Bed
G1 X5 Y20 Z0.3 F5000.0 ; Move over to prevent blob squish
G92 E0
G92 E0
G1 F1500 E-6.5
;LAYER_COUNT:25
;LAYER:0
M107
G0 F6000 X0.00 Y223.689 Z0.2
;TYPE:SKIRT
G1 F1500 E0
G1 F1200 X0.779 Y223.315 E0.02874
G1 X1.723 Y222.961 E0.06227
G1 X2.663 Y222.702 E0.0947
G1 X3.624 Y222.528 E0.12719
G1 X4.673 Y222.433 E0.16222
G1 X5.419 Y222.405 E0.18705
G1 X14.032 Y222.216 E0.47359
G1 X16.926 Y222.109 E0.56991
G1 X18.541 Y222.036 E0.62368
G1 X19.376 Y222.031 E0.65145
G1 X22.147 Y222.123 E0.74366
G1 X24.657 Y222.132 E0.82715
G1 X27.189 Y222.071 E0.91139
G1 X29.685 Y221.939 E0.99452
G1 X32.213 Y221.734 E1.07888
G1 X34.704 Y221.461 E1.16223
G1 X37.292 Y221.104 E1.24912
G1 X41.676 Y220.434 E1.39662
G1 X44.319 Y219.992 E1.48575
G1 X45.586 Y219.753 E1.52863
G1 X50.946 Y218.695 E1.71035
G1 X53.535 Y218.147 E1.79837
G1 X54.888 Y217.828 E1.8446
G1 X60.179 Y216.543 E2.0257
G1 X62.689 Y215.897 E2.1119
G1 X63.97 Y215.537 E2.15616
G1 X69.311 Y213.991 E2.34109
G1 X71.774 Y213.241 E2.42672
G1 X73.019 Y212.833 E2.4703
G1 X78.246 Y211.073 E2.65374
G1 X80.732 Y210.198 E2.7414
G1 X81.945 Y209.74 E2.78452
G1 X87.083 Y207.758 E2.96769
G1 X89.518 Y206.778 E3.05499
G1 X90.706 Y206.269 E3.09798
G1 X95.818 Y204.041 E3.28345
G1 X98.157 Y202.979 E3.36889
G1 X99.376 Y202.394 E3.41386
G1 X104.288 Y199.993 E3.59571
G1 X106.612 Y198.816 E3.68235
G1 X107.801 Y198.182 E3.72717
G1 X112.579 Y195.584 E3.90806
G1 X114.921 Y194.268 E3.99741
G1 X116.023 Y193.616 E4.04
G1 X120.764 Y190.765 E4.224
G1 X122.991 Y189.382 E4.31119
G1 X124.152 Y188.626 E4.35727
G1 X128.674 Y185.636 E4.53758
G1 X130.825 Y184.167 E4.62421
G1 X136.301 Y180.205 E4.84902
G1 X138.421 Y178.62 E4.93705
G1 X139.551 Y177.737 E4.98475
G1 X143.799 Y174.362 E5.16521
G1 X145.865 Y172.674 E5.25394
G1 X146.866 Y171.818 E5.29775
G1 X150.984 Y168.246 E5.47906
G1 X152.935 Y166.503 E5.56607
G1 X153.953 Y165.554 E5.61236
G1 X157.911 Y161.808 E5.79362
G1 X159.787 Y159.981 E5.88072
G1 X160.7 Y159.054 E5.92399
G1 X164.525 Y155.107 E6.1068
G1 X166.344 Y153.176 E6.19503
G1 X167.208 Y152.217 E6.23796
G1 X170.873 Y148.094 E6.42144
G1 X172.598 Y146.096 E6.50924
G1 X173.437 Y145.081 E6.55304
G1 X176.899 Y140.822 E6.73559
G1 X178.541 Y138.746 E6.82362
G1 X179.343 Y137.683 E6.86791
G1 X182.577 Y133.338 E7.04806
G1 X184.122 Y131.2 E7.1358
G1 X184.918 Y130.044 E7.18248
G1 X187.955 Y125.57 E7.36233
G1 X189.414 Y123.355 E7.45055
G1 X190.146 Y122.192 E7.49625
G1 X193.008 Y117.557 E7.67744
G1 X194.346 Y115.317 E7.76422
G1 X195.003 Y114.165 E7.80833
G1 X197.686 Y109.367 E7.99116
G1 X198.947 Y107.033 E8.0794
G1 X199.574 Y105.81 E8.12511
G1 X202.036 Y100.921 E8.30717
G1 X203.137 Y98.657 E8.39091
G1 X203.733 Y97.357 E8.43847
G1 X205.965 Y92.403 E8.61919
G1 X206.992 Y90.036 E8.70501
G1 X207.521 Y88.738 E8.75163
G1 X209.567 Y83.612 E8.9352
G1 X210.49 Y81.202 E9.02104
G1 X210.931 Y79.971 E9.06453
G1 X212.755 Y74.762 E9.24809
G1 X213.572 Y72.313 E9.33396
G1 X213.981 Y70.995 E9.37986
G1 X215.54 Y65.831 E9.55927
G1 X216.283 Y63.237 E9.64902
G1 X216.634 Y61.905 E9.69483
G1 X217.968 Y56.678 E9.87426
G1 X218.6 Y54.05 E9.96416
G1 X218.883 Y52.753 E10.00831
G1 X220.012 Y47.359 E10.1916
G1 X220.5 Y44.853 E10.27652
G1 X220.735 Y43.493 E10.32242
G1 X221.616 Y38.141 E10.50283
G1 X222.017 Y35.47 E10.59266
G1 X222.184 Y34.164 E10.63645
G1 X222.834 Y28.786 E10.81662
G1 X223.112 Y26.175 E10.90396
G1 X223.228 Y24.784 E10.95038
G1 X223.644 Y19.364 E11.13118
G1 X223.811 Y16.7 E11.21996
G1 X223.865 Y15.376 E11.26404
G1 X224.1 Y8.354 E11.49772
G1 X224.137 Y7.561 E11.52412
G1 X224.232 Y6.556 E11.5577
G1 X224.394 Y5.667 E11.58775
G1 X224.674 Y4.66 E11.62252
G1 X225.018 Y3.749 E11.65491
G1 X225.441 Y2.871 E11.68732
G1 X225.94 Y2.037 E11.71964
G1 X226.489 Y1.275 E11.75088
G1 X227.15 Y0.513 E11.78443
G1 X227.682 Y0.00 E11.80901
G0 F6000 X228.284 Y0.00
G1 F1200 X228.103 Y0.147 E11.81677
G1 X227.428 Y0.8 E11.84801
G1 X226.814 Y1.509 E11.8792
G1 X226.265 Y2.271 E11.91044
G1 X225.785 Y3.076 E11.94161
G1 X225.378 Y3.922 E11.97284
G1 X225.048 Y4.801 E12.00406
G1 X224.788 Y5.739 E12.03644
G1 X224.626 Y6.628 E12.06649
G1 X224.537 Y7.58 E12.0983
G1 X224.5 Y8.373 E12.1247
G1 X224.265 Y15.392 E12.35828
G1 X224.211 Y16.716 E12.40236
G1 X224.043 Y19.395 E12.49163
G1 X223.627 Y24.817 E12.6725
G1 X223.51 Y26.217 E12.71923
G1 X223.231 Y28.834 E12.80676
G1 X222.581 Y34.215 E12.98704
G1 X222.413 Y35.529 E13.0311
G1 X222.011 Y38.206 E13.12113
G1 X221.13 Y43.558 E13.30154
G1 X220.893 Y44.929 E13.34781
G1 X220.405 Y47.435 E13.43273
G1 X219.273 Y52.838 E13.61633
G1 X218.989 Y54.144 E13.66079
G1 X218.356 Y56.777 E13.75086
G1 X217.021 Y62.007 E13.93038
G1 X216.668 Y63.347 E13.97647
G1 X215.923 Y65.947 E14.06643
G1 X214.363 Y71.114 E14.24595
G1 X213.954 Y72.432 E14.29185
G1 X213.132 Y74.894 E14.37818
G1 X211.308 Y80.106 E14.56184
G1 X210.864 Y81.345 E14.60561
G1 X209.939 Y83.76 E14.69162
G1 X207.893 Y88.886 E14.8752
G1 X207.359 Y90.195 E14.92222
G1 X206.33 Y92.567 E15.00821
G1 X204.097 Y97.524 E15.18904
G1 X203.497 Y98.832 E15.2369
G1 X202.396 Y101.096 E15.32064
G1 X199.93 Y105.993 E15.503
G1 X199.299 Y107.223 E15.54898
G1 X198.035 Y109.562 E15.6374
G1 X195.35 Y114.363 E15.82036
G1 X194.694 Y115.515 E15.86445
G1 X193.348 Y117.767 E15.95171
G1 X190.484 Y122.405 E16.13302
G1 X189.753 Y123.568 E16.1787
G1 X188.286 Y125.795 E16.2674
G1 X185.249 Y130.269 E16.44725
G1 X184.446 Y131.434 E16.49431
G1 X182.898 Y133.577 E16.58224
G1 X179.664 Y137.922 E16.76239
G1 X178.855 Y138.994 E16.80706
G1 X177.213 Y141.07 E16.8951
G1 X173.745 Y145.336 E17.07795
G1 X172.901 Y146.357 E17.12201
G1 X171.172 Y148.36 E17.21002
G1 X167.505 Y152.485 E17.39359
G1 X166.641 Y153.444 E17.43652
G1 X164.812 Y155.385 E17.52523
G1 X160.985 Y159.335 E17.70815
G1 X160.066 Y160.268 E17.75171
G1 X158.186 Y162.099 E17.839
G1 X154.226 Y165.847 E18.02034
G1 X153.208 Y166.796 E18.06663
G1 X151.246 Y168.548 E18.15412
G1 X147.126 Y172.122 E18.33553
G1 X146.118 Y172.984 E18.37964
G1 X144.048 Y174.675 E18.46854
G1 X139.797 Y178.052 E18.64911
G1 X138.667 Y178.935 E18.69681
G1 X136.536 Y180.528 E18.7853
G1 X132.16 Y183.702 E18.9651
G1 X131.058 Y184.492 E19.0102
G1 X128.894 Y185.969 E19.09734
G1 X124.373 Y188.96 E19.27764
G1 X123.202 Y189.722 E19.32411
G1 X120.97 Y191.108 E19.41149
G1 X116.227 Y193.96 E19.59557
G1 X115.117 Y194.617 E19.63847
G1 X112.775 Y195.933 E19.72782
G1 X107.989 Y198.535 E19.90901
G1 X106.793 Y199.173 E19.95409
G1 X104.469 Y200.35 E20.04074
G1 X99.549 Y202.755 E20.22288
G1 X98.33 Y203.34 E20.26785
G1 X95.978 Y204.407 E20.35376
G1 X90.864 Y206.637 E20.53932
G1 X89.676 Y207.146 E20.5823
G1 X87.227 Y208.131 E20.6701
G1 X82.086 Y210.114 E20.85337
G1 X80.865 Y210.575 E20.89678
G1 X78.374 Y211.452 E20.98461
G1 X73.144 Y213.213 E21.16816
G1 X71.891 Y213.624 E21.21202
G1 X69.428 Y214.374 E21.29765
G1 X64.078 Y215.922 E21.48289
G1 X62.797 Y216.282 E21.52715
G1 X60.273 Y216.932 E21.61384
G1 X54.982 Y218.217 E21.79493
G1 X53.623 Y218.537 E21.84137
G1 X51.029 Y219.086 E21.92956
G1 X45.66 Y220.146 E22.11158
G1 X44.385 Y220.387 E22.15474
G1 X41.742 Y220.829 E22.24386
G1 X37.347 Y221.5 E22.39174
G1 X34.748 Y221.859 E22.479
G1 X32.256 Y222.132 E22.56238
G1 X29.717 Y222.338 E22.6471
G1 X27.199 Y222.471 E22.73097
G1 X24.666 Y222.532 E22.81524
G1 X22.134 Y222.523 E22.89946
G1 X19.363 Y222.431 E22.99167
G1 X18.543 Y222.436 E23.01895
G1 X16.944 Y222.509 E23.07218
G1 X14.047 Y222.616 E23.1686
G1 X5.428 Y222.805 E23.45534
G1 X4.688 Y222.833 E23.47997
G1 X3.66 Y222.926 E23.5143
G1 X2.735 Y223.095 E23.54558
G1 X1.83 Y223.346 E23.57682
G1 X0.952 Y223.676 E23.60801
G1 X0.105 Y224.082 E23.63925
G1 X0.00 Y224.144 E23.64331
G0 F6000 X0.00 Y224.609
G1 F1200 X0.279 Y224.442 E23.65412
G1 X1.093 Y224.05 E23.68417
G1 X1.938 Y223.731 E23.71421
G1 X2.808 Y223.488 E23.74426
G1 X3.696 Y223.324 E23.77429
G1 X4.703 Y223.233 E23.80792
G1 X5.437 Y223.205 E23.83235
G1 X14.062 Y223.016 E24.11929
G1 X16.962 Y222.909 E24.21581
G1 X18.545 Y222.836 E24.26852
G1 X19.35 Y222.831 E24.29529
G1 X22.121 Y222.923 E24.38751
G1 X24.675 Y222.932 E24.47245
G1 X27.209 Y222.871 E24.55676
G1 X29.749 Y222.737 E24.64136
G1 X32.299 Y222.53 E24.72645
G1 X34.792 Y222.257 E24.80986
G1 X37.402 Y221.896 E24.8975
G1 X41.808 Y221.224 E25.04574
G1 X44.451 Y220.782 E25.13486
G1 X45.735 Y220.538 E25.17833
G1 X51.112 Y219.477 E25.36062
G1 X53.706 Y218.928 E25.44881
G1 X55.076 Y218.606 E25.49562
G1 X60.367 Y217.321 E25.67671
G1 X62.905 Y216.667 E25.76388
G1 X64.186 Y216.307 E25.80814
G1 X69.545 Y214.757 E25.99369
G1 X72.008 Y214.007 E26.07932
G1 X73.269 Y213.593 E26.12347
G1 X78.502 Y211.831 E26.30712
G1 X80.998 Y210.952 E26.39513
G1 X82.227 Y210.488 E26.43882
G1 X87.371 Y208.504 E26.6222
G1 X89.833 Y207.514 E26.71046
G1 X91.024 Y207.004 E26.75355
G1 X96.138 Y204.773 E26.93912
G1 X98.503 Y203.701 E27.02549
G1 X99.722 Y203.116 E27.07046
G1 X104.65 Y200.707 E27.2529
G1 X106.974 Y199.53 E27.33954
G1 X108.177 Y198.888 E27.3849
G1 X112.971 Y196.282 E27.56638
G1 X115.313 Y194.966 E27.65573
G1 X116.431 Y194.304 E27.69895
G1 X121.176 Y191.451 E27.8831
G1 X123.413 Y190.062 E27.97068
G1 X124.594 Y189.294 E28.01753
G1 X129.114 Y186.302 E28.19782
G1 X131.291 Y184.817 E28.28547
G1 X132.395 Y184.026 E28.33064
G1 X136.771 Y180.851 E28.51046
G1 X138.913 Y179.25 E28.59941
G1 X140.043 Y178.367 E28.6471
G1 X144.297 Y174.988 E28.8278
G1 X146.371 Y173.294 E28.91686
G1 X147.386 Y172.426 E28.96128
G1 X151.508 Y168.85 E29.14278
G1 X153.481 Y167.089 E29.23074
G1 X154.499 Y166.14 E29.27703
G1 X158.461 Y162.39 E29.45847
G1 X160.345 Y160.555 E29.54595
G1 X161.27 Y159.616 E29.58979
G1 X165.099 Y155.663 E29.77283
G1 X166.938 Y153.712 E29.862
G1 X167.802 Y152.753 E29.90494
G1 X171.471 Y148.626 E30.0886
G1 X173.204 Y146.618 E30.17682
G1 X174.053 Y145.591 E30.22114
G1 X177.527 Y141.318 E30.40431
G1 X179.169 Y139.242 E30.49234
G1 X179.985 Y138.161 E30.53739
G1 X183.219 Y133.816 E30.71754
G1 X184.77 Y131.668 E30.80566
G1 X185.58 Y130.494 E30.8531
G1 X188.617 Y126.02 E31.03295
G1 X190.092 Y123.781 E31.12213
G1 X190.822 Y122.618 E31.1678
G1 X193.688 Y117.977 E31.34922
G1 X195.042 Y115.713 E31.43696
G1 X195.697 Y114.561 E31.48104
G1 X198.384 Y109.757 E31.66411
G1 X199.651 Y107.413 E31.75273
G1 X200.286 Y106.176 E31.79898
G1 X202.756 Y101.271 E31.98164
G1 X203.856 Y99.007 E32.06536
G1 X204.462 Y97.688 E32.11364
G1 X206.695 Y92.731 E32.29446
G1 X207.726 Y90.354 E32.38064
G1 X208.265 Y89.034 E32.42806
G1 X210.311 Y83.908 E32.61163
G1 X211.238 Y81.488 E32.69783
G1 X211.685 Y80.241 E32.74188
G1 X213.509 Y75.026 E32.92564
G1 X214.336 Y72.551 E33.01243
G1 X214.745 Y71.233 E33.05833
G1 X216.306 Y66.063 E33.23795
G1 X217.053 Y63.457 E33.32812
G1 X217.408 Y62.109 E33.37448
G1 X218.744 Y56.876 E33.55412
G1 X219.378 Y54.237 E33.64439
G1 X219.663 Y52.923 E33.68911
G1 X220.798 Y47.511 E33.87303
G1 X221.286 Y45.005 E33.95794
G1 X221.525 Y43.623 E34.00459
G1 X222.406 Y38.271 E34.18499
G1 X222.809 Y35.588 E34.27523
G1 X222.978 Y34.266 E34.31956
G1 X223.628 Y28.882 E34.49993
G1 X223.908 Y26.259 E34.58767
G1 X224.026 Y24.85 E34.6347
G1 X224.442 Y19.426 E34.81563
G1 X224.611 Y16.732 E34.90541
G1 X224.665 Y15.408 E34.94948
G1 X224.9 Y8.392 E35.18297
G1 X224.937 Y7.599 E35.20937
G1 X225.02 Y6.7 E35.2394
G1 X225.182 Y5.811 E35.26945
G1 X225.423 Y4.941 E35.29948
G1 X225.739 Y4.095 E35.32952
G1 X226.129 Y3.28 E35.35957
G1 X226.59 Y2.504 E35.38959
G1 X227.117 Y1.77 E35.41964
G1 X227.707 Y1.087 E35.44966
G1 X228.355 Y0.458 E35.4797
G1 X228.92 Y0.00 E35.50389
G1 F1500 E29.00389
G0 F6000 X262.561 Y0.00
G1 F1500 E35.50389
G1 F1200 X263.111 Y0.533 E35.52936
G1 X263.749 Y1.271 E35.56181
G1 X264.318 Y2.065 E35.5943
G1 X264.848 Y2.965 E35.62904
G1 X265.171 Y3.58 E35.65214
G1 X266.393 Y5.838 E35.73753
G1 X267.651 Y8.014 E35.82113
G1 X268.98 Y10.168 E35.90531
G1 X270.359 Y12.269 E35.9889
G1 X271.807 Y14.344 E36.07306
G1 X273.291 Y16.345 E36.15592
G1 X274.86 Y18.343 E36.24041
G1 X276.457 Y20.262 E36.32345
G1 X278.119 Y22.147 E36.40703
G1 X279.867 Y24.021 E36.49227
G1 X281.622 Y25.798 E36.57534
G1 X283.43 Y27.528 E36.65857
G1 X285.292 Y29.213 E36.74209
G1 X287.254 Y30.888 E36.82789
G1 X289.212 Y32.467 E36.91155
G1 X290.438 Y33.424 E36.96328
G1 X291.151 Y34.034 E36.99449
G1 X291.856 Y34.756 E37.02806
G1 X292.451 Y35.484 E37.05933
G1 X293.016 Y36.318 E37.09283
G1 X293.489 Y37.17 E37.12524
G1 X293.884 Y38.059 E37.1576
G1 X294.199 Y38.981 E37.19001
G1 X294.431 Y39.927 E37.2224
G1 X294.581 Y40.903 E37.25525
G1 X294.643 Y42.143 E37.29654
G1 X294.634 Y42.899 E37.32169
G1 X294.314 Y52.662 E37.64658
G1 X294.232 Y54.297 E37.70103
G1 X293.503 Y63.852 E38.01975
G1 X293.301 Y65.803 E38.08499
G1 X292.208 Y74.923 E38.39049
G1 X292.006 Y76.416 E38.4406
G1 X290.429 Y86.036 E38.76484
G1 X290.148 Y87.591 E38.81739
G1 X288.169 Y97.059 E39.13911
G1 X287.829 Y98.572 E39.19068
G1 X285.424 Y108.016 E39.51482
G1 X285.029 Y109.47 E39.56493
G1 X282.174 Y118.944 E39.89403
G1 X281.849 Y119.976 E39.93002
G1 X278.555 Y129.424 E40.26281
G1 X278.015 Y130.896 E40.31496
G1 X274.41 Y139.942 E40.63884
G1 X273.799 Y141.404 E40.69155
G1 X269.786 Y150.324 E41.01687
G1 X269.185 Y151.602 E41.06384
G1 X264.743 Y160.437 E41.39274
G1 X264.068 Y161.721 E41.44099
G1 X259.336 Y170.198 E41.76389
G1 X258.579 Y171.499 E41.81395
G1 X253.381 Y179.93 E42.14338
G1 X252.643 Y181.08 E42.18883
G1 X247.162 Y189.165 E42.51371
G1 X246.322 Y190.36 E42.56229
G1 X240.518 Y198.169 E42.8859
G1 X239.546 Y199.429 E42.93883
G1 X233.291 Y207.128 E43.26876
G1 X232.458 Y208.116 E43.31174
G1 X225.879 Y215.53 E43.64142
G1 X224.95 Y216.541 E43.68709
G1 X218.047 Y223.667 E44.01707
G1 X217.107 Y224.604 E44.06121
G1 X209.915 Y231.416 E44.39069
G1 X208.907 Y232.338 E44.43612
G1 X201.439 Y238.824 E44.76511
G1 X200.356 Y239.729 E44.81205
G1 X192.595 Y245.897 E45.14178
G1 X191.543 Y246.705 E45.1859
G1 X183.606 Y252.472 E45.51221
G1 X182.397 Y253.319 E45.56131
G1 X174.168 Y258.766 E45.88953
G1 X172.972 Y259.529 E45.93672
G1 X164.635 Y264.545 E46.26033
G1 X163.35 Y265.289 E46.30971
G1 X154.786 Y269.95 E46.63401
G1 X153.411 Y270.67 E46.68563
G1 X144.617 Y274.971 E47.01123
G1 X143.316 Y275.58 E47.059
G1 X134.251 Y279.537 E47.38798
G1 X132.936 Y280.084 E47.43535
G1 X123.673 Y283.659 E47.76559
G1 X122.455 Y284.103 E47.80871
G1 X113.05 Y287.271 E48.13879
G1 X111.765 Y287.679 E48.18363
G1 X102.349 Y290.404 E48.50966
G1 X100.961 Y290.781 E48.5575
G1 X91.451 Y293.091 E48.883
G1 X89.974 Y293.424 E48.93336
G1 X80.394 Y295.317 E49.25815
G1 X78.916 Y295.582 E49.30809
G1 X69.119 Y297.079 E49.63772
G1 X67.787 Y297.259 E49.68243
G1 X61.949 Y297.894 E49.87775
G1 X59.336 Y298.214 E49.9653
G1 X56.871 Y298.59 E50.04824
G1 X54.41 Y299.035 E50.13142
G1 X51.136 Y299.734 E50.24277
G1 X50.246 Y299.883 E50.27278
G1 X49.624 Y299.943 E50.29356
G1 X48.736 Y300 E50.32316
G1 F1500 E43.82316
G0 F6000 X30.728 Y300
G1 F1500 E50.32316
G1 F1200 X29.874 Y299.731 E50.35294
G1 X28.974 Y299.357 E50.38536
G1 X28.173 Y298.94 E50.41539
G1 X27.293 Y298.377 E50.45014
G1 X26.524 Y297.78 E50.48252
G1 X25.81 Y297.117 E50.51492
G1 X25.159 Y296.395 E50.54726
G1 X24.613 Y295.675 E50.57731
G1 X23.936 Y294.565 E50.62056
G1 X22.693 Y292.23 E50.70854
G1 X21.422 Y289.995 E50.79405
G1 X20.122 Y287.855 E50.87733
G1 X18.754 Y285.737 E50.9612
G1 X17.331 Y283.666 E51.04477
G1 X15.844 Y281.626 E51.12873
G1 X14.296 Y279.626 E51.21285
G1 X12.733 Y277.719 E51.29486
G1 X11.06 Y275.796 E51.37964
G1 X9.342 Y273.925 E51.46412
G1 X7.608 Y272.141 E51.54687
