;FLAVOR:Marlin
;TIME:24247
;Filament used: 18.4473m
;Layer height: 0.2
;MINX:6.209
;MINY:8.459
;MINZ:0.2
;MAXX:300
;MAXY:298.224
;MAXZ:5
;TARGET_MACHINE.NAME:Creality Ender-3 Max
;Generated with Cura_SteamEngine 5.9.1
M140 S60
M105
M190 S60
M104 S200
M105
M109 S200
M82 ;absolute extrusion mode
; Ender 3 Max Custom Start G-code
G92 E0 ; Reset Extruder
G28 ; Home all axes
G1 Z2.0 F3000 ; Move Z Axis up little to prevent scratching of Heat Bed
G1 X0.1 Y20 Z0.3 F5000.0 ; Move to start position
G1 X0.1 Y200.0 Z0.3 F1500.0 E15 ; Draw the first line
G1 X0.4 Y200.0 Z0.3 F5000.0 ; Move to side a little
G1 X0.4 Y20 Z0.3 F1500.0 E30 ; Draw the second line
G92 E0 ; Reset Extruder
G1 Z2.0 F3000 ; Move Z Axis up little to prevent scratching of Heat Bed
G1 X5 Y20 Z0.3 F5000.0 ; Move over to prevent blob squish
G92 E0
G92 E0
G1 F1500 E-6.5
;LAYER_COUNT:25
;LAYER:0
M107
G0 F6000 X300 Y38.811 Z0.2
;TYPE:SKIRT
G1 F1500 E0
G1 F1200 X298.886 Y37.412 E0.05948
G1 X297.347 Y36.259 E0.12344
G1 X296.164 Y35.705 E0.16689
G1 X294.329 Y35.264 E0.22966
G1 X272.744 Y35.312 E0.94758
G1 X270.84 Y35.596 E1.01161
G1 X271.452 Y27.638 E1.27707
G1 X271.861 Y15.292 E1.68793
G1 X271.179 Y13.022 E1.76676
G1 X270.588 Y12.035 E1.80503
G1 X269.451 Y10.607 E1.86574
G1 X267.912 Y9.454 E1.9297
G1 X266.729 Y8.9 E1.97314
G1 X264.894 Y8.459 E2.03591
G1 X243.309 Y8.507 E2.75384
G1 X241.467 Y8.782 E2.81578
G1 X239.488 Y9.898 E2.89135
G1 X237.893 Y11.282 E2.96158
G1 X236.765 Y13.309 E3.03874
G1 X236.259 Y15.168 E3.10282
G1 X235.91 Y25.575 E3.44915
G1 X235.152 Y35.427 E3.7778
G1 X234.039 Y44.645 E4.08662
G1 X232.474 Y54.159 E4.40731
G1 X230.531 Y63.467 E4.72356
G1 X228.094 Y73.019 E5.05144
G1 X225.402 Y81.925 E5.36089
G1 X222.19 Y91.118 E5.68478
G1 X218.679 Y99.922 E6.00003
G1 X214.633 Y108.887 E6.32717
G1 X210.454 Y117.215 E6.63707
G1 X205.698 Y125.731 E6.96149
G1 X200.778 Y133.684 E7.27254
G1 X195.335 Y141.706 E7.59497
G1 X189.496 Y149.554 E7.92032
G1 X183.655 Y156.732 E8.22811
G1 X177.068 Y164.145 E8.55795
G1 X170.629 Y170.788 E8.86565
G1 X163.438 Y177.592 E9.19492
G1 X156.448 Y183.667 E9.50294
G1 X148.955 Y189.62 E9.82124
G1 X141.195 Y195.257 E10.14024
G1 X132.932 Y200.724 E10.46978
G1 X124.732 Y205.656 E10.78804
G1 X116.601 Y210.083 E11.09597
G1 X107.991 Y214.288 E11.41467
G1 X98.918 Y218.247 E11.74391
G1 X90.19 Y221.621 E12.05514
G1 X80.982 Y224.712 E12.3782
G1 X72.008 Y227.312 E12.68895
G1 X62.389 Y229.648 E13.01818
G1 X53.117 Y231.483 E13.33255
G1 X43.834 Y232.893 E13.64484
G1 X33.97 Y233.964 E13.97485
G1 X31.219 Y234.168 E14.0666
G1 X30.221 Y233.714 E14.10306
G1 X28.355 Y233.378 E14.16613
G1 X24.536 Y233.567 E14.2933
G1 X13.48 Y233.832 E14.66113
G1 X11.754 Y234.092 E14.71919
G1 X10.761 Y234.496 E14.75484
G1 X9.241 Y235.403 E14.81371
G1 X7.706 Y236.851 E14.8839
G1 X6.66 Y238.86 E14.95923
G1 X6.209 Y240.714 E15.0227
G1 X6.21 Y264.84 E15.82513
G1 X7.045 Y267.363 E15.91352
G1 X8.638 Y269.321 E15.99748
G1 X10.356 Y270.566 E16.06804
G1 X11.702 Y271.037 E16.11547
G1 X13.404 Y271.419 E16.17349
G1 X26.031 Y271.147 E16.59356
G1 X30.319 Y270.918 E16.73639
G1 X32.443 Y270.39 E16.80918
G1 X33.465 Y269.695 E16.85029
G1 X35.643 Y269.535 E16.92292
G1 X35.644 Y291.645 E17.65831
G1 X36.479 Y294.168 E17.7467
G1 X38.072 Y296.126 E17.83065
G1 X39.787 Y297.369 E17.9011
G1 X41.179 Y297.855 E17.95014
G1 X42.829 Y298.224 E18.00637
G1 X55.435 Y297.953 E18.42575
G1 X59.753 Y297.723 E18.56957
G1 X61.876 Y297.195 E18.64233
G1 X62.896 Y296.502 E18.68334
G1 X66.562 Y296.233 E18.8056
G1 X77.563 Y295.047 E19.17362
G1 X88.574 Y293.359 E19.54412
G1 X99.769 Y291.158 E19.9236
G1 X110.293 Y288.603 E20.2838
G1 X120.99 Y285.507 E20.65418
G1 X131.536 Y281.965 E21.0242
G1 X141.925 Y277.963 E21.39449
G1 X152.124 Y273.529 E21.76438
G1 X162.13 Y268.631 E22.13491
G1 X171.9 Y263.317 E22.50482
G1 X181.438 Y257.599 E22.8747
G1 X190.727 Y251.446 E23.24528
G1 X199.729 Y244.929 E23.61492
G1 X208.446 Y238 E23.98528
G1 X216.849 Y230.711 E24.35526
G1 X224.937 Y223.058 E24.72561
G1 X232.903 Y214.843 E25.1062
G1 X240.072 Y206.767 E25.46538
G1 X247.3 Y197.874 E25.84653
G1 X253.744 Y189.206 E26.20577
G1 X259.993 Y179.984 E26.57629
G1 X265.831 Y170.527 E26.94593
G1 X271.266 Y160.813 E27.31615
G1 X276.269 Y150.879 E27.6861
G1 X280.849 Y140.727 E28.05652
G1 X285.034 Y130.248 E28.43182
G1 X288.653 Y119.893 E28.79666
G1 X291.862 Y109.229 E29.16706
G1 X294.62 Y98.46 E29.5368
G1 X296.913 Y87.515 E29.90873
G1 X298.71 Y76.58 E30.27731
G1 X300 Y65.802 E30.63835
G1 F1500 E24.13835
G0 F6000 X300 Y60.746
G1 F1500 E30.63835
G1 F1200 X299.634 Y65.495 E30.79677
G1 X298.315 Y76.515 E31.16591
G1 X296.518 Y87.45 E31.53449
G1 X294.232 Y98.361 E31.90527
G1 X291.479 Y109.114 E32.27445
G1 X288.275 Y119.761 E32.64426
G1 X284.656 Y130.116 E33.00909
G1 X280.484 Y140.563 E33.38325
G1 X275.912 Y150.699 E33.75308
G1 X270.917 Y160.618 E34.12246
G1 X265.491 Y170.317 E34.4921
G1 X259.662 Y179.76 E34.86119
G1 X253.423 Y188.967 E35.2311
G1 X246.979 Y197.635 E35.59034
G1 X239.773 Y206.501 E35.97034
G1 X232.604 Y214.577 E36.32951
G1 X224.662 Y222.767 E36.70896
G1 X216.587 Y230.409 E37.07874
G1 X208.197 Y237.687 E37.44815
G1 X199.494 Y244.605 E37.81793
G1 X190.506 Y251.113 E38.18701
G1 X181.232 Y257.256 E38.55699
G1 X171.709 Y262.966 E38.9263
G1 X161.954 Y268.272 E39.29564
G1 X151.964 Y273.162 E39.66558
G1 X141.781 Y277.59 E40.03491
G1 X131.409 Y281.586 E40.4046
G1 X120.879 Y285.123 E40.77406
G1 X110.199 Y288.214 E41.14385
G1 X99.675 Y290.769 E41.50405
G1 X88.513 Y292.964 E41.88241
G1 X77.52 Y294.649 E42.25231
G1 X66.533 Y295.834 E42.61986
G1 X62.759 Y296.111 E42.74572
G1 X61.709 Y296.825 E42.78795
G1 X59.693 Y297.326 E42.85704
G1 X55.426 Y297.553 E42.99916
G1 X42.871 Y297.823 E43.41684
G1 X41.311 Y297.477 E43.46999
G1 X39.974 Y297.01 E43.51709
G1 X38.347 Y295.831 E43.58392
G1 X36.837 Y293.975 E43.6635
G1 X36.044 Y291.579 E43.74744
G1 X36.043 Y269.105 E44.49493
G1 X33.329 Y269.304 E44.58544
G1 X32.276 Y270.019 E44.62778
G1 X30.258 Y270.521 E44.69694
G1 X26.022 Y270.747 E44.83803
G1 X13.442 Y271.018 E45.25654
G1 X11.834 Y270.659 E45.31134
G1 X10.543 Y270.207 E45.35683
G1 X8.913 Y269.026 E45.42378
G1 X7.403 Y267.17 E45.50336
G1 X6.61 Y264.774 E45.58731
G1 X6.609 Y240.764 E46.38588
G1 X7.038 Y239.001 E46.44623
G1 X8.03 Y237.096 E46.51767
G1 X9.485 Y235.723 E46.5842
G1 X10.912 Y234.867 E46.63955
G1 X11.861 Y234.481 E46.67363
G1 X13.54 Y234.228 E46.7301
G1 X24.556 Y233.967 E47.0966
G1 X28.33 Y233.78 E47.22227
G1 X30.104 Y234.1 E47.28223
G1 X31.147 Y234.574 E47.32034
G1 X34.014 Y234.362 E47.41595
G1 X43.877 Y233.291 E47.74593
G1 X53.189 Y231.876 E48.0592
G1 X62.483 Y230.037 E48.37431
G1 X72.102 Y227.701 E48.70354
G1 X81.101 Y225.094 E49.01516
G1 X90.328 Y221.996 E49.33888
G1 X99.078 Y218.614 E49.65089
G1 X108.151 Y214.655 E49.98014
G1 X116.777 Y210.442 E50.29943
G1 X124.938 Y205.999 E50.60849
G1 X133.153 Y201.058 E50.92733
G1 X141.416 Y195.591 E51.25687
G1 X149.19 Y189.944 E51.57645
G1 X156.697 Y183.98 E51.89534
G1 X163.713 Y177.883 E52.20449
G1 X170.904 Y171.079 E52.53376
G1 X177.367 Y164.411 E52.84262
G1 X183.954 Y156.998 E53.17245
G1 X189.817 Y149.793 E53.4814
G1 X195.656 Y141.945 E53.80675
G1 X201.109 Y133.909 E54.12975
G1 X206.044 Y125.931 E54.44177
G1 X210.812 Y117.394 E54.76699
G1 X214.998 Y109.052 E55.07742
G1 X219.044 Y100.087 E55.40456
G1 X222.562 Y91.266 E55.72042
G1 X225.78 Y82.057 E56.04487
G1 X228.481 Y73.121 E56.35537
G1 X230.919 Y63.566 E56.68335
G1 X232.866 Y54.241 E57.00019
G1 X234.434 Y44.71 E57.32145
G1 X235.551 Y35.459 E57.63138
G1 X236.309 Y25.606 E57.96006
G1 X236.657 Y15.227 E58.30546
G1 X237.138 Y13.46 E58.36637
G1 X238.208 Y11.538 E58.43953
G1 X239.721 Y10.225 E58.50616
G1 X241.599 Y9.166 E58.57787
G1 X243.31 Y8.907 E58.63543
G1 X264.846 Y8.859 E59.35172
G1 X266.597 Y9.28 E59.41162
G1 X267.705 Y9.799 E59.45231
G1 X269.171 Y10.897 E59.51323
G1 X270.245 Y12.241 E59.57045
G1 X270.811 Y13.186 E59.60709
G1 X271.459 Y15.343 E59.682
G1 X271.053 Y27.607 E60.09012
G1 X270.382 Y36.339 E60.38141
G1 X271.034 Y35.971 E60.40631
G1 X272.745 Y35.712 E60.46386
G1 X294.281 Y35.664 E61.18016
G1 X296.032 Y36.085 E61.24005
G1 X297.14 Y36.604 E61.28075
G1 X298.606 Y37.702 E61.34167
G1 X299.68 Y39.046 E61.39889
G1 X300 Y39.58 E61.4196
G0 F6000 X300 Y40.561
G1 F1200 X299.878 Y40.155 E61.4337
G1 X299.337 Y39.252 E61.46871
G1 X298.324 Y37.991 E61.52251
G1 X296.933 Y36.949 E61.58031
G1 X295.9 Y36.465 E61.61825
G1 X294.233 Y36.064 E61.67528
G1 X272.805 Y36.108 E62.38798
G1 X271.165 Y36.356 E62.44315
G1 X269.925 Y37.056 E62.49051
G1 X270.654 Y27.576 E62.80674
G1 X271.057 Y15.394 E63.21214
G1 X270.443 Y13.35 E63.28313
G1 X269.902 Y12.447 E63.31814
G1 X268.889 Y11.186 E63.37193
G1 X267.498 Y10.144 E63.42974
G1 X266.465 Y9.66 E63.46768
G1 X264.798 Y9.259 E63.52471
G1 X243.37 Y9.303 E64.23741
G1 X241.73 Y9.551 E64.29258
G1 X239.952 Y10.554 E64.36047
G1 X238.523 Y11.794 E64.4234
G1 X237.511 Y13.611 E64.49258
G1 X237.055 Y15.286 E64.55031
G1 X236.708 Y25.637 E64.89478
G1 X235.95 Y35.491 E65.2235
G1 X234.829 Y44.775 E65.53453
G1 X233.258 Y54.323 E65.85636
G1 X231.307 Y63.665 E66.17378
G1 X228.868 Y73.223 E66.50187
G1 X226.158 Y82.189 E66.81341
G1 X222.934 Y91.414 E67.13843
G1 X219.409 Y100.252 E67.4549
G1 X215.363 Y109.217 E67.78204
G1 X211.17 Y117.573 E68.09299
G1 X206.39 Y126.131 E68.41902
G1 X201.44 Y134.134 E68.732
G1 X195.983 Y142.176 E69.05524
G1 X190.138 Y150.032 E69.38092
G1 X184.253 Y157.264 E69.69104
G1 X177.666 Y164.677 E70.02087
G1 X171.179 Y171.37 E70.33088
G1 X163.988 Y178.174 E70.66015
G1 X156.946 Y184.293 E70.97043
G1 X149.425 Y190.268 E71.28991
G1 X141.637 Y195.925 E71.61007
G1 X133.374 Y201.392 E71.9396
G1 X125.144 Y206.342 E72.25903
G1 X116.953 Y210.801 E72.56922
G1 X108.311 Y215.022 E72.8891
G1 X99.238 Y218.981 E73.21835
G1 X90.466 Y222.371 E73.53114
G1 X81.22 Y225.476 E73.85554
G1 X72.196 Y228.09 E74.16802
G1 X62.577 Y230.426 E74.49724
G1 X53.261 Y232.269 E74.8131
G1 X43.92 Y233.689 E75.12735
G1 X34.058 Y234.76 E75.45729
G1 X31.075 Y234.98 E75.55678
G1 X29.987 Y234.486 E75.59652
G1 X28.305 Y234.182 E75.65337
G1 X24.576 Y234.367 E75.77755
G1 X13.6 Y234.624 E76.14271
G1 X11.968 Y234.87 E76.19761
G1 X11.063 Y235.238 E76.2301
G1 X9.728 Y236.044 E76.28197
G1 X8.355 Y237.339 E76.34474
G1 X7.415 Y239.143 E76.4124
G1 X7.009 Y240.813 E76.46956
G1 X7.01 Y264.708 E77.26431
G1 X7.761 Y266.977 E77.34381
G1 X9.188 Y268.731 E77.41901
G1 X10.73 Y269.848 E77.48234
G1 X11.966 Y270.281 E77.5259
G1 X13.483 Y270.617 E77.57758
G1 X26.013 Y270.347 E77.99443
G1 X30.198 Y270.124 E78.13382
G1 X32.109 Y269.649 E78.19931
G1 X33.192 Y268.913 E78.24286
G1 X36.443 Y268.674 E78.35128
G1 X36.444 Y291.513 E79.11091
G1 X37.195 Y293.782 E79.19041
G1 X38.622 Y295.536 E79.26561
G1 X40.164 Y296.653 E79.32894
G1 X41.398 Y297.086 E79.37244
G1 X42.913 Y297.422 E79.42405
G1 X55.417 Y297.153 E79.84003
G1 X59.632 Y296.929 E79.98042
G1 X61.542 Y296.454 E80.04588
G1 X62.623 Y295.72 E80.08934
G1 X66.504 Y295.435 E80.21877
G1 X77.477 Y294.251 E80.58585
G1 X88.452 Y292.569 E80.95515
G1 X99.581 Y290.38 E81.33239
G1 X110.105 Y287.825 E81.69259
G1 X120.768 Y284.739 E82.0618
G1 X131.282 Y281.207 E82.4307
G1 X141.637 Y277.217 E82.79979
G1 X151.804 Y272.795 E83.16854
G1 X161.778 Y267.913 E83.53789
G1 X171.518 Y262.615 E83.90667
G1 X181.026 Y256.913 E84.27541
G1 X190.285 Y250.78 E84.6448
G1 X199.259 Y244.281 E85.01332
G1 X207.948 Y237.374 E85.38251
G1 X216.325 Y230.107 E85.75135
G1 X224.387 Y222.476 E86.12057
G1 X232.305 Y214.311 E86.49886
G1 X239.474 Y206.235 E86.85803
G1 X246.658 Y197.396 E87.23687
G1 X253.102 Y188.728 E87.59611
G1 X259.331 Y179.536 E87.96543
G1 X265.151 Y170.107 E88.33397
G1 X270.568 Y160.423 E88.70302
G1 X275.555 Y150.519 E89.07184
G1 X280.119 Y140.399 E89.44108
G1 X284.278 Y129.984 E89.81408
G1 X287.897 Y119.629 E90.17891
G1 X291.096 Y108.999 E90.54813
G1 X293.844 Y98.262 E90.91676
G1 X296.123 Y87.385 E91.28638
G1 X297.92 Y76.45 E91.65496
G1 X299.237 Y65.447 E92.02353
G1 X300 Y55.537 E92.35412
G1 F1500 E85.85412
G0 F6000 X300 Y44.97
G1 F1500 E92.35412
G1 F1200 X299.69 Y54.35 E92.66627
G1 X298.84 Y65.399 E93.03485
G1 X297.525 Y76.385 E93.40285
G1 X295.728 Y87.32 E93.77143
G1 X293.456 Y98.163 E94.1399
G1 X290.713 Y108.884 E94.50797
G1 X287.519 Y119.497 E94.8766
G1 X283.9 Y129.852 E95.24143
G1 X279.754 Y140.235 E95.61329
G1 X275.198 Y150.339 E95.98193
G1 X270.219 Y160.228 E96.35018
G1 X264.811 Y169.897 E96.71865
G1 X259 Y179.312 E97.08664
G1 X252.781 Y188.489 E97.45535
G1 X246.337 Y197.157 E97.81459
G1 X239.175 Y205.969 E98.19228
G1 X232.006 Y214.045 E98.55145
G1 X224.112 Y222.186 E98.92861
G1 X216.063 Y229.805 E99.29724
G1 X207.699 Y237.061 E99.66552
G1 X199.024 Y243.957 E100.03411
G1 X190.064 Y250.447 E100.40208
G1 X180.82 Y256.57 E100.77087
G1 X171.327 Y262.264 E101.13905
G1 X161.602 Y267.554 E101.50726
G1 X151.644 Y272.428 E101.87601
G1 X141.493 Y276.844 E102.2442
G1 X131.155 Y280.828 E102.61269
G1 X120.657 Y284.355 E102.98104
G1 X110.011 Y287.436 E103.34965
G1 X99.487 Y289.991 E103.70985
G1 X88.391 Y292.174 E104.08598
G1 X77.434 Y293.853 E104.45467
G1 X66.475 Y295.036 E104.82128
G1 X62.486 Y295.329 E104.95431
G1 X61.375 Y296.084 E104.99899
G1 X59.572 Y296.532 E105.06078
G1 X55.408 Y296.753 E105.19947
G1 X42.955 Y297.021 E105.61376
G1 X41.485 Y296.695 E105.66384
G1 X40.353 Y296.296 E105.70376
G1 X38.897 Y295.241 E105.76356
G1 X37.553 Y293.589 E105.83439
G1 X36.844 Y291.447 E105.90944
G1 X36.843 Y268.244 E106.68117
G1 X33.055 Y268.522 E106.8075
G1 X31.942 Y269.278 E106.85225
G1 X30.137 Y269.727 E106.91412
G1 X26.004 Y269.947 E107.05177
G1 X13.524 Y270.216 E107.46696
G1 X12.052 Y269.89 E107.5171
G1 X10.919 Y269.491 E107.55705
G1 X9.463 Y268.436 E107.61686
G1 X8.119 Y266.784 E107.68769
G1 X7.41 Y264.642 E107.76273
G1 X7.409 Y240.863 E108.55363
G1 X7.793 Y239.284 E108.60768
G1 X8.68 Y237.582 E108.67151
G1 X9.969 Y236.366 E108.73045
G1 X11.214 Y235.609 E108.77891
G1 X12.075 Y235.259 E108.80982
G1 X13.66 Y235.02 E108.86314
G1 X24.596 Y234.767 E109.22697
G1 X28.28 Y234.584 E109.34965
G1 X29.868 Y234.871 E109.40332
G1 X31.002 Y235.387 E109.44476
G1 X34.102 Y235.158 E109.54815
G1 X43.963 Y234.087 E109.87805
G1 X53.333 Y232.662 E110.19329
G1 X62.671 Y230.815 E110.50989
G1 X72.29 Y228.479 E110.83911
G1 X81.339 Y225.858 E111.15246
G1 X90.604 Y222.746 E111.47753
G1 X99.398 Y219.348 E111.7911
G1 X108.471 Y215.389 E112.12034
G1 X117.129 Y211.16 E112.44082
G1 X125.35 Y206.685 E112.75214
G1 X133.595 Y201.726 E113.07215
G1 X141.858 Y196.259 E113.40169
G1 X149.66 Y190.592 E113.72241
G1 X157.195 Y184.606 E114.04248
G1 X164.263 Y178.465 E114.3539
G1 X171.454 Y171.661 E114.68317
G1 X177.965 Y164.943 E114.99434
G1 X184.552 Y157.53 E115.32417
G1 X190.459 Y150.271 E115.63544
G1 X196.31 Y142.407 E115.96145
G1 X201.771 Y134.359 E116.28493
G1 X206.736 Y126.331 E116.59889
G1 X211.528 Y117.752 E116.92572
G1 X215.728 Y109.383 E117.23716
G1 X219.774 Y100.417 E117.56433
G1 X223.306 Y91.562 E117.88141
G1 X226.536 Y82.321 E118.207
G1 X229.255 Y73.325 E118.51958
G1 X231.695 Y63.764 E118.84777
G1 X233.65 Y54.405 E119.16577
G1 X235.224 Y44.84 E119.48818
G1 X236.349 Y35.523 E119.80032
G1 X237.107 Y25.668 E120.12907
G1 X237.453 Y15.345 E120.4726
G1 X237.884 Y13.762 E120.52717
G1 X238.838 Y12.05 E120.59236
G1 X240.183 Y10.883 E120.65158
G1 X241.861 Y9.936 E120.71567
G1 X243.43 Y9.699 E120.76844
G1 X264.75 Y9.659 E121.47755
G1 X266.333 Y10.04 E121.53171
G1 X267.291 Y10.489 E121.5669
G1 X268.61 Y11.477 E121.62171
G1 X269.559 Y12.653 E121.67197
G1 X270.075 Y13.514 E121.70535
G1 X270.655 Y15.445 E121.77241
G1 X270.255 Y27.545 E122.17508
G1 X269.465 Y37.821 E122.51787
G1 X269.652 Y37.669 E122.52589
G1 X271.296 Y36.741 E122.58868
G1 X272.865 Y36.504 E122.64145
G1 X294.185 Y36.464 E123.35056
G1 X295.768 Y36.845 E123.40472
G1 X296.726 Y37.294 E123.4399
G1 X298.045 Y38.282 E123.49472
G1 X298.994 Y39.458 E123.54498
G1 X299.51 Y40.319 E123.57836
G1 X300 Y41.95 E123.63501
G0 F6000 X299.688 Y42.301
G1 F1200 X299.291 Y54.319 E124.03495
G1 X298.443 Y65.351 E124.40295
G1 X297.13 Y76.32 E124.77039
G1 X295.336 Y87.238 E125.13839
G1 X293.068 Y98.064 E125.50628
G1 X290.33 Y108.769 E125.87379
